(HELLOWORLD_2MM)
(T1  D=3 CR=0 - ZMIN=-5 - SCHAFTFRSER)
G0 G40 G90 G17
G21
(WHEN USING FUSION 360 FOR PERSONAL USE, THE FEEDRATE OF)
(RAPID MOVES IS REDUCED TO MATCH THE FEEDRATE OF CUTTING)
(MOVES, WHICH CAN INCREASE MACHINING TIME. UNRESTRICTED RAPID)
(MOVES ARE AVAILABLE WITH A FUSION 360 SUBSCRIPTION.)

(2D-TASCHE1)
T1 M6
M3 S12000
G0 X-61.319 Y29.724
G0 Z9
G1 Z3 F1206.
G1 Z-2 F402.
G2 X-60.862 Y28.646 I-1.043 J-1.078 F1206.
G1 Y16.478
G1 X-59.48
G1 Y43.481
G1 X-60.862
G1 Y32.361
G2 X-62.362 Y30.861 I-1.5 J0
G1 X-76.602
G2 X-78.102 Y32.361 I0 J1.5
G1 Y43.481
G1 X-79.483
G1 Y16.478
G1 X-78.102
G1 Y28.646
G2 X-76.602 Y30.146 I1.5 J0
G1 X-62.362
G2 X-61.319 Y29.724 I0 J-1.5
G1 Z-4 F402.
G2 X-60.862 Y28.646 I-1.043 J-1.078 F1206.
G1 Y16.478
G1 X-59.48
G1 Y43.481
G1 X-60.862
G1 Y32.361
G2 X-62.362 Y30.861 I-1.5 J0
G1 X-76.602
G2 X-78.102 Y32.361 I0 J1.5
G1 Y43.481
G1 X-79.483
G1 Y16.478
G1 X-78.102
G1 Y28.646
G2 X-76.602 Y30.146 I1.5 J0
G1 X-62.362
G2 X-61.319 Y29.724 I0 J-1.5
G1 Z-5 F402.
G2 X-60.862 Y28.646 I-1.043 J-1.078 F1206.
G1 Y16.478
G1 X-59.48
G1 Y43.481
G1 X-60.862
G1 Y32.361
G2 X-62.362 Y30.861 I-1.5 J0
G1 X-76.602
G2 X-78.102 Y32.361 I0 J1.5
G1 Y43.481
G1 X-79.483
G1 Y16.478
G1 X-78.102
G1 Y28.646
G2 X-76.602 Y30.146 I1.5 J0
G1 X-62.362
G2 X-61.319 Y29.724 I0 J-1.5
G1 Z9
G1 X-36.529 Y31.312
G1 Z3
G1 Z-2 F402.
G2 X-36.957 Y32.361 I1.073 J1.049 F1206.
G1 Y41.362
G2 X-35.457 Y42.862 I1.5 J0
G1 X-23.241
G1 Y43.481
G1 X-38.338
G1 Y16.478
G1 X-23.098
G1 Y17.097
G1 X-35.457
G2 X-36.957 Y18.597 I0 J1.5
G1 Y28.789
G2 X-35.457 Y30.289 I1.5 J0
G1 X-24.479
G1 Y30.861
G1 X-35.457
G2 X-36.529 Y31.312 I0 J1.5
G1 Z-4 F402.
G2 X-36.957 Y32.361 I1.073 J1.049 F1206.
G1 Y41.362
G2 X-35.457 Y42.862 I1.5 J0
G1 X-23.241
G1 Y43.481
G1 X-38.338
G1 Y16.478
G1 X-23.098
G1 Y17.097
G1 X-35.457
G2 X-36.957 Y18.597 I0 J1.5
G1 Y28.789
G2 X-35.457 Y30.289 I1.5 J0
G1 X-24.479
G1 Y30.861
G1 X-35.457
G2 X-36.529 Y31.312 I0 J1.5
G1 Z-5 F402.
G2 X-36.957 Y32.361 I1.073 J1.049 F1206.
G1 Y41.362
G2 X-35.457 Y42.862 I1.5 J0
G1 X-23.241
G1 Y43.481
G1 X-38.338
G1 Y16.478
G1 X-23.098
G1 Y17.097
G1 X-35.457
G2 X-36.957 Y18.597 I0 J1.5
G1 Y28.789
G2 X-35.457 Y30.289 I1.5 J0
G1 X-24.479
G1 Y30.861
G1 X-35.457
G2 X-36.529 Y31.312 I0 J1.5
G1 Z9
G1 X-3.905 Y17.368
G1 Z3
G1 Z-2 F402.
G1 Y16.478 F1206.
G1 X10.287
G1 Y17.192
G1 X-1.024
G2 X-2.524 Y18.692 I0 J1.5
G1 Y43.481
G1 X-3.905
G1 Y17.368
G1 Z-4 F402.
G1 Y16.478 F1206.
G1 X10.287
G1 Y17.192
G1 X-1.024
G2 X-2.524 Y18.692 I0 J1.5
G1 Y43.481
G1 X-3.905
G1 Y17.368
G1 Z-5 F402.
G1 Y16.478 F1206.
G1 X10.287
G1 Y17.192
G1 X-1.024
G2 X-2.524 Y18.692 I0 J1.5
G1 Y43.481
G1 X-3.905
G1 Y17.368
G1 Z9
G1 X29.275 Y16.478
G1 Z3
G1 Z-2 F402.
G1 X42.577 F1206.
G1 Y17.192
G1 X31.266
G2 X29.766 Y18.692 I0 J1.5
G1 Y43.481
G1 X28.384
G1 Y16.478
G1 X29.275
G1 Z-4 F402.
G1 X42.577 F1206.
G1 Y17.192
G1 X31.266
G2 X29.766 Y18.692 I0 J1.5
G1 Y43.481
G1 X28.384
G1 Y16.478
G1 X29.275
G1 Z-5 F402.
G1 X42.577 F1206.
G1 Y17.192
G1 X31.266
G2 X29.766 Y18.692 I0 J1.5
G1 Y43.481
G1 X28.384
G1 Y16.478
G1 X29.275
G1 Z9
G1 X82.578 Y29.978
G1 Z3
G1 Z-2 F402.
G1 Y29.972 F1206.
G1 X82.577 Y29.72
G1 Y29.704
G1 X82.573 Y29.454
G1 Y29.439
G1 X82.567 Y29.192
G1 X82.566 Y29.177
G1 X82.558 Y28.933
G1 X82.557 Y28.916
G1 X82.546 Y28.675
G1 X82.545 Y28.659
G1 X82.531 Y28.421
G1 X82.53 Y28.403
G1 X82.514 Y28.168
G1 X82.513 Y28.151
G1 X82.494 Y27.918
G1 X82.493 Y27.901
G1 X82.472 Y27.671
G1 X82.47 Y27.652
G1 X82.446 Y27.425
G1 X82.444 Y27.407
G1 X82.418 Y27.182
G1 X82.416 Y27.164
G1 X82.388 Y26.943
G1 X82.385 Y26.924
G1 X82.354 Y26.705
G1 X82.351 Y26.685
G1 X82.318 Y26.469
G1 X82.315 Y26.45
G1 X82.279 Y26.237
G1 X82.275 Y26.216
G1 X82.237 Y26.005
G1 X82.233 Y25.985
G1 X82.192 Y25.778
G1 X82.188 Y25.757
G1 X82.144 Y25.552
G1 X82.139 Y25.531
G1 X82.094 Y25.329
G1 X82.088 Y25.307
G1 X82.04 Y25.108
G1 X82.035 Y25.086
G1 X81.984 Y24.89
G1 X81.978 Y24.867
G1 X81.924 Y24.673
G1 X81.918 Y24.651
G1 X81.862 Y24.46
G1 X81.855 Y24.437
G1 X81.797 Y24.249
G1 X81.79 Y24.228
G1 X81.73 Y24.043
G1 X81.723 Y24.023
G1 X81.661 Y23.84
G1 X81.654 Y23.821
G1 X81.59 Y23.641
G1 X81.582 Y23.62
G1 X81.516 Y23.443
G1 X81.509 Y23.424
G1 X81.441 Y23.249
G1 X81.433 Y23.229
G1 X81.363 Y23.057
G1 X81.354 Y23.036
G1 X81.282 Y22.867
G1 X81.273 Y22.845
G1 X81.199 Y22.678
G1 X81.19 Y22.658
G1 X81.114 Y22.494
G1 X81.104 Y22.472
G1 X81.026 Y22.311
G1 X81.016 Y22.289
G1 X80.937 Y22.13
G1 X80.925 Y22.108
G1 X80.844 Y21.952
G1 X80.832 Y21.93
G1 X80.749 Y21.777
G1 X80.737 Y21.755
G1 X80.652 Y21.604
G1 X80.639 Y21.582
G1 X80.552 Y21.433
G1 X80.538 Y21.411
G1 X80.449 Y21.265
G1 X80.435 Y21.243
G1 X80.345 Y21.1
G1 X80.329 Y21.076
G1 X80.237 Y20.936
G1 X80.222 Y20.914
G1 X80.127 Y20.777
G1 X80.111 Y20.754
G1 X80.015 Y20.619
G1 X79.998 Y20.596
G1 X79.899 Y20.464
G1 X79.882 Y20.441
G1 X79.782 Y20.312
G1 X79.764 Y20.289
G1 X79.662 Y20.162
G1 X79.643 Y20.139
G1 X79.539 Y20.015
G1 X79.521 Y19.994
G1 X79.415 Y19.872
G1 X79.397 Y19.852
G1 X79.29 Y19.733
G1 X79.271 Y19.713
G1 X79.162 Y19.596
G1 X79.144 Y19.577
G1 X79.033 Y19.463
G1 X79.014 Y19.443
G1 X78.902 Y19.332
G1 X78.882 Y19.313
G1 X78.769 Y19.204
G1 X78.748 Y19.184
G1 X78.633 Y19.079
G1 X78.612 Y19.06
G1 X78.496 Y18.957
G1 X78.474 Y18.938
G1 X78.357 Y18.838
G1 X78.334 Y18.819
G1 X78.215 Y18.721
G1 X78.192 Y18.702
G1 X78.071 Y18.607
G1 X78.048 Y18.589
G1 X77.926 Y18.497
G1 X77.902 Y18.479
G1 X77.778 Y18.389
G1 X77.754 Y18.372
G1 X77.628 Y18.284
G1 X77.605 Y18.268
G1 X77.478 Y18.183
G1 X77.452 Y18.167
G1 X77.324 Y18.085
G1 X77.298 Y18.069
G1 X77.169 Y17.989
G1 X77.144 Y17.975
G1 X77.013 Y17.898
G1 X76.986 Y17.883
G1 X76.854 Y17.809
G1 X76.827 Y17.794
G1 X76.693 Y17.723
G1 X76.667 Y17.709
G1 X76.531 Y17.64
G1 X76.504 Y17.627
G1 X76.367 Y17.561
G1 X76.34 Y17.548
G1 X76.201 Y17.485
G1 X76.174 Y17.473
G1 X76.034 Y17.412
G1 X76.009 Y17.401
G1 X75.867 Y17.343
G1 X75.843 Y17.333
G1 X75.701 Y17.277
G1 X75.677 Y17.268
G1 X75.533 Y17.215
G1 X75.509 Y17.206
G1 X75.365 Y17.155
G1 X75.34 Y17.146
G1 X75.195 Y17.098
G1 X75.171 Y17.09
G1 X75.026 Y17.044
G1 X75.001 Y17.037
G1 X74.854 Y16.993
G1 X74.83 Y16.986
G1 X74.682 Y16.945
G1 X74.656 Y16.938
G1 X74.508 Y16.9
G1 X74.484 Y16.894
G1 X74.334 Y16.858
G1 X74.309 Y16.852
G1 X74.159 Y16.819
G1 X74.134 Y16.813
G1 X73.982 Y16.782
G1 X73.957 Y16.777
G1 X73.805 Y16.749
G1 X73.78 Y16.744
G1 X73.627 Y16.718
G1 X73.603 Y16.715
G1 X73.449 Y16.691
G1 X73.424 Y16.687
G1 X73.27 Y16.666
G1 X73.245 Y16.663
G1 X73.089 Y16.645
G1 X73.065 Y16.642
G1 X72.908 Y16.626
G1 X72.884 Y16.624
G1 X72.727 Y16.61
G1 X72.702 Y16.608
G1 X72.543 Y16.597
G1 X72.52 Y16.595
G1 X72.36 Y16.587
G1 X72.337 Y16.586
G1 X72.176 Y16.579
G1 X72.153
G1 X71.992 Y16.575
G1 X71.969
G1 X71.807 Y16.573
G1 X71.783
G1 X71.62 Y16.575
G1 X71.598
G1 X71.437 Y16.579
G1 X71.413
G1 X71.252 Y16.586
G1 X71.229 Y16.587
G1 X71.069 Y16.595
G1 X71.046 Y16.597
G1 X70.886 Y16.608
G1 X70.862 Y16.61
G1 X70.703 Y16.623
G1 X70.68 Y16.626
G1 X70.522 Y16.642
G1 X70.498 Y16.644
G1 X70.341 Y16.663
G1 X70.317 Y16.666
G1 X70.16 Y16.687
G1 X70.136 Y16.691
G1 X69.98 Y16.714
G1 X69.957 Y16.718
G1 X69.802 Y16.744
G1 X69.778 Y16.748
G1 X69.624 Y16.777
G1 X69.599 Y16.782
G1 X69.446 Y16.813
G1 X69.422 Y16.818
G1 X69.269 Y16.851
G1 X69.245 Y16.857
G1 X69.093 Y16.893
G1 X69.069 Y16.899
G1 X68.918 Y16.937
G1 X68.893 Y16.944
G1 X68.743 Y16.985
G1 X68.719 Y16.991
G1 X68.57 Y17.034
G1 X68.546 Y17.042
G1 X68.397 Y17.088
G1 X68.374 Y17.095
G1 X68.226 Y17.143
G1 X68.201 Y17.151
G1 X68.054 Y17.202
G1 X68.031 Y17.21
G1 X67.884 Y17.264
G1 X67.861 Y17.272
G1 X67.715 Y17.328
G1 X67.692 Y17.337
G1 X67.547 Y17.396
G1 X67.523 Y17.405
G1 X67.378 Y17.466
G1 X67.352 Y17.478
G1 X67.209 Y17.541
G1 X67.182 Y17.553
G1 X67.041 Y17.62
G1 X67.014 Y17.633
G1 X66.874 Y17.701
G1 X66.848 Y17.715
G1 X66.71 Y17.786
G1 X66.683 Y17.8
G1 X66.547 Y17.874
G1 X66.52 Y17.889
G1 X66.386 Y17.966
G1 X66.36 Y17.981
G1 X66.227 Y18.06
G1 X66.202 Y18.075
G1 X66.07 Y18.157
G1 X66.045 Y18.174
G1 X65.915 Y18.258
G1 X65.89 Y18.275
G1 X65.762 Y18.362
G1 X65.737 Y18.379
G1 X65.61 Y18.469
G1 X65.586 Y18.487
G1 X65.461 Y18.579
G1 X65.438 Y18.596
G1 X65.315 Y18.692
G1 X65.291 Y18.71
G1 X65.169 Y18.808
G1 X65.146 Y18.827
G1 X65.026 Y18.927
G1 X65.004 Y18.946
G1 X64.885 Y19.049
G1 X64.863 Y19.068
G1 X64.746 Y19.174
G1 X64.725 Y19.194
G1 X64.609 Y19.302
G1 X64.589 Y19.321
G1 X64.475 Y19.432
G1 X64.455 Y19.452
G1 X64.342 Y19.566
G1 X64.323 Y19.586
G1 X64.212 Y19.702
G1 X64.193 Y19.722
G1 X64.083 Y19.841
G1 X64.065 Y19.862
G1 X63.957 Y19.983
G1 X63.939 Y20.004
G1 X63.833 Y20.128
G1 X63.814 Y20.151
G1 X63.71 Y20.278
G1 X63.692 Y20.3
G1 X63.59 Y20.429
G1 X63.572 Y20.452
G1 X63.472 Y20.584
G1 X63.456 Y20.606
G1 X63.357 Y20.741
G1 X63.341 Y20.764
G1 X63.244 Y20.901
G1 X63.228 Y20.924
G1 X63.133 Y21.064
G1 X63.119 Y21.086
G1 X63.026 Y21.229
G1 X63.012 Y21.251
G1 X62.92 Y21.397
G1 X62.907 Y21.419
G1 X62.817 Y21.567
G1 X62.804 Y21.589
G1 X62.717 Y21.74
G1 X62.705 Y21.762
G1 X62.619 Y21.916
G1 X62.607 Y21.938
G1 X62.523 Y22.094
G1 X62.512 Y22.116
G1 X62.431 Y22.275
G1 X62.42 Y22.296
G1 X62.34 Y22.457
G1 X62.33 Y22.479
G1 X62.252 Y22.643
G1 X62.242 Y22.665
G1 X62.166 Y22.831
G1 X62.157 Y22.851
G1 X62.083 Y23.021
G1 X62.074 Y23.042
G1 X62.002 Y23.214
G1 X61.994 Y23.234
G1 X61.924 Y23.409
G1 X61.916 Y23.429
G1 X61.847 Y23.607
G1 X61.84 Y23.627
G1 X61.773 Y23.807
G1 X61.766 Y23.826
G1 X61.702 Y24.009
G1 X61.695 Y24.028
G1 X61.633 Y24.213
G1 X61.625 Y24.236
G1 X61.565 Y24.424
G1 X61.558 Y24.447
G1 X61.5 Y24.638
G1 X61.493 Y24.661
G1 X61.438 Y24.855
G1 X61.432 Y24.878
G1 X61.38 Y25.074
G1 X61.374 Y25.097
G1 X61.324 Y25.296
G1 X61.318 Y25.318
G1 X61.271 Y25.52
G1 X61.266 Y25.543
G1 X61.221 Y25.748
G1 X61.217 Y25.769
G1 X61.174 Y25.976
G1 X61.17 Y25.997
G1 X61.131 Y26.208
G1 X61.127 Y26.229
G1 X61.09 Y26.442
G1 X61.086 Y26.462
G1 X61.052 Y26.678
G1 X61.049 Y26.699
G1 X61.017 Y26.918
G1 X61.014 Y26.937
G1 X60.985 Y27.158
G1 X60.982 Y27.178
G1 X60.956 Y27.402
G1 X60.953 Y27.421
G1 X60.929 Y27.648
G1 X60.927 Y27.666
G1 X60.906 Y27.897
G1 X60.904 Y27.914
G1 X60.885 Y28.147
G1 X60.884 Y28.165
G1 X60.867 Y28.401
G1 X60.866 Y28.418
G1 X60.852 Y28.657
G1 X60.851 Y28.673
G1 X60.84 Y28.915
G1 X60.839 Y28.931
G1 X60.83 Y29.175
G1 X60.829 Y29.191
G1 X60.823 Y29.438
G1 Y29.454
G1 X60.819 Y29.704
G1 Y29.719
G1 X60.817 Y29.972
G1 Y29.987
G1 X60.819 Y30.24
G1 Y30.254
G1 X60.823 Y30.504
G1 Y30.52
G1 X60.829 Y30.766
G1 X60.83 Y30.782
G1 X60.838 Y31.026
G1 X60.839 Y31.042
G1 X60.85 Y31.283
G1 X60.851 Y31.3
G1 X60.864 Y31.538
G1 X60.865 Y31.555
G1 X60.882 Y31.791
G1 X60.883 Y31.808
G1 X60.901 Y32.041
G1 X60.903 Y32.058
G1 X60.924 Y32.288
G1 X60.926 Y32.306
G1 X60.949 Y32.533
G1 X60.951 Y32.551
G1 X60.977 Y32.776
G1 X60.979 Y32.794
G1 X61.008 Y33.015
G1 X61.01 Y33.035
G1 X61.041 Y33.253
G1 X61.044 Y33.273
G1 X61.078 Y33.489
G1 X61.081 Y33.508
G1 X61.116 Y33.721
G1 X61.12 Y33.741
G1 X61.158 Y33.952
G1 X61.162 Y33.972
G1 X61.203 Y34.179
G1 X61.207 Y34.2
G1 X61.25 Y34.405
G1 X61.255 Y34.426
G1 X61.301 Y34.628
G1 X61.306 Y34.649
G1 X61.354 Y34.848
G1 X61.359 Y34.869
G1 X61.41 Y35.066
G1 X61.416 Y35.089
G1 X61.469 Y35.282
G1 X61.475 Y35.304
G1 X61.53 Y35.494
G1 X61.537 Y35.517
G1 X61.595 Y35.705
G1 X61.603 Y35.728
G1 X61.663 Y35.914
G1 X61.669 Y35.932
G1 X61.731 Y36.114
G1 X61.738 Y36.134
G1 X61.802 Y36.314
G1 X61.809 Y36.333
G1 X61.875 Y36.51
G1 X61.883 Y36.53
G1 X61.95 Y36.705
G1 X61.959 Y36.725
G1 X62.028 Y36.897
G1 X62.036 Y36.916
G1 X62.107 Y37.086
G1 X62.116 Y37.107
G1 X62.19 Y37.273
G1 X62.199 Y37.294
G1 X62.274 Y37.458
G1 X62.284 Y37.479
G1 X62.36 Y37.64
G1 X62.371 Y37.661
G1 X62.449 Y37.82
G1 X62.46 Y37.842
G1 X62.541 Y37.998
G1 X62.552 Y38.019
G1 X62.634 Y38.172
G1 X62.646 Y38.195
G1 X62.73 Y38.345
G1 X62.743 Y38.367
G1 X62.828 Y38.515
G1 X62.842 Y38.538
G1 X62.93 Y38.683
G1 X62.943 Y38.705
G1 X63.032 Y38.848
G1 X63.047 Y38.871
G1 X63.138 Y39.011
G1 X63.153 Y39.033
G1 X63.246 Y39.17
G1 X63.261 Y39.192
G1 X63.356 Y39.327
G1 X63.373 Y39.35
G1 X63.47 Y39.483
G1 X63.486 Y39.504
G1 X63.584 Y39.634
G1 X63.602 Y39.657
G1 X63.703 Y39.784
G1 X63.721 Y39.806
G1 X63.823 Y39.931
G1 X63.841 Y39.952
G1 X63.945 Y40.074
G1 X63.963 Y40.094
G1 X64.069 Y40.213
G1 X64.088 Y40.235
G1 X64.196 Y40.352
G1 X64.215 Y40.372
G1 X64.323 Y40.485
G1 X64.345 Y40.507
G1 X64.455 Y40.618
G1 X64.475 Y40.638
G1 X64.587 Y40.746
G1 X64.61 Y40.767
G1 X64.724 Y40.873
G1 X64.745 Y40.893
G1 X64.861 Y40.996
G1 X64.883 Y41.015
G1 X65 Y41.116
G1 X65.023 Y41.136
G1 X65.142 Y41.233
G1 X65.166 Y41.253
G1 X65.287 Y41.348
G1 X65.31 Y41.366
G1 X65.433 Y41.459
G1 X65.457 Y41.477
G1 X65.58 Y41.567
G1 X65.606 Y41.585
G1 X65.731 Y41.672
G1 X65.757 Y41.689
G1 X65.884 Y41.774
G1 X65.91 Y41.791
G1 X66.038 Y41.873
G1 X66.065 Y41.889
G1 X66.195 Y41.968
G1 X66.22 Y41.983
G1 X66.353 Y42.06
G1 X66.38 Y42.076
G1 X66.514 Y42.15
G1 X66.541 Y42.164
G1 X66.676 Y42.236
G1 X66.703 Y42.25
G1 X66.84 Y42.318
G1 X66.868 Y42.332
G1 X67.007 Y42.398
G1 X67.033 Y42.411
G1 X67.174 Y42.474
G1 X67.201 Y42.486
G1 X67.343 Y42.547
G1 X67.369 Y42.558
G1 X67.512 Y42.616
G1 X67.536 Y42.625
G1 X67.68 Y42.681
G1 X67.704 Y42.69
G1 X67.848 Y42.743
G1 X67.872 Y42.752
G1 X68.018 Y42.803
G1 X68.043 Y42.811
G1 X68.189 Y42.859
G1 X68.213 Y42.867
G1 X68.36 Y42.913
G1 X68.385 Y42.92
G1 X68.533 Y42.964
G1 X68.557 Y42.97
G1 X68.706 Y43.011
G1 X68.731 Y43.018
G1 X68.881 Y43.057
G1 X68.905 Y43.062
G1 X69.056 Y43.098
G1 X69.08 Y43.104
G1 X69.232 Y43.138
G1 X69.257 Y43.143
G1 X69.409 Y43.174
G1 X69.434 Y43.179
G1 X69.587 Y43.207
G1 X69.612 Y43.212
G1 X69.766 Y43.238
G1 X69.789 Y43.241
G1 X69.944 Y43.265
G1 X69.969 Y43.269
G1 X70.124 Y43.29
G1 X70.149 Y43.293
G1 X70.305 Y43.311
G1 X70.33 Y43.314
G1 X70.487 Y43.33
G1 X70.51 Y43.332
G1 X70.668 Y43.346
G1 X70.693 Y43.348
G1 X70.852 Y43.359
G1 X70.875 Y43.36
G1 X71.035 Y43.369
G1 X71.059 Y43.37
G1 X71.219 Y43.376
G1 X71.243 Y43.377
G1 X71.404 Y43.381
G1 X71.427
G1 X71.589 Y43.383
G1 X71.612
G1 X71.774 Y43.381
G1 X71.797
G1 X71.958 Y43.377
G1 X71.98
G1 X72.141 Y43.371
G1 X72.163 Y43.37
G1 X72.323 Y43.361
G1 X72.345 Y43.36
G1 X72.505 Y43.349
G1 X72.528 Y43.348
G1 X72.686 Y43.335
G1 X72.71 Y43.332
G1 X72.868 Y43.317
G1 X72.89 Y43.314
G1 X73.047 Y43.297
G1 X73.069 Y43.294
G1 X73.226 Y43.274
G1 X73.25 Y43.27
G1 X73.406 Y43.248
G1 X73.429 Y43.244
G1 X73.584 Y43.219
G1 X73.607 Y43.215
G1 X73.762 Y43.187
G1 X73.785 Y43.183
G1 X73.939 Y43.153
G1 X73.961 Y43.149
G1 X74.114 Y43.116
G1 X74.138 Y43.111
G1 X74.29 Y43.076
G1 X74.314 Y43.071
G1 X74.465 Y43.034
G1 X74.488 Y43.028
G1 X74.639 Y42.988
G1 X74.661 Y42.982
G1 X74.811 Y42.94
G1 X74.835 Y42.933
G1 X74.984 Y42.889
G1 X75.007 Y42.882
G1 X75.156 Y42.835
G1 X75.179 Y42.828
G1 X75.326 Y42.779
G1 X75.349 Y42.771
G1 X75.496 Y42.719
G1 X75.52 Y42.711
G1 X75.666 Y42.657
G1 X75.687 Y42.649
G1 X75.832 Y42.592
G1 X75.859 Y42.582
G1 X76.003 Y42.523
G1 X76.03 Y42.511
G1 X76.172 Y42.45
G1 X76.199 Y42.438
G1 X76.34 Y42.373
G1 X76.366 Y42.361
G1 X76.505 Y42.294
G1 X76.532 Y42.281
G1 X76.669 Y42.212
G1 X76.696 Y42.198
G1 X76.832 Y42.126
G1 X76.859 Y42.112
G1 X76.993 Y42.037
G1 X77.019 Y42.022
G1 X77.152 Y41.945
G1 X77.177 Y41.93
G1 X77.309 Y41.85
G1 X77.334 Y41.834
G1 X77.464 Y41.751
G1 X77.489 Y41.735
G1 X77.617 Y41.65
G1 X77.642 Y41.633
G1 X77.769 Y41.545
G1 X77.793 Y41.528
G1 X77.918 Y41.437
G1 X77.942 Y41.419
G1 X78.066 Y41.326
G1 X78.089 Y41.308
G1 X78.211 Y41.212
G1 X78.234 Y41.194
G1 X78.354 Y41.096
G1 X78.378 Y41.076
G1 X78.496 Y40.975
G1 X78.518 Y40.957
G1 X78.635 Y40.853
G1 X78.657 Y40.833
G1 X78.773 Y40.727
G1 X78.793 Y40.708
G1 X78.907 Y40.599
G1 X78.928 Y40.578
G1 X79.041 Y40.467
G1 X79.061 Y40.447
G1 X79.172 Y40.332
G1 X79.191 Y40.312
G1 X79.301 Y40.195
G1 X79.319 Y40.175
G1 X79.427 Y40.055
G1 X79.444 Y40.036
G1 X79.551 Y39.913
G1 X79.571 Y39.89
G1 X79.675 Y39.765
G1 X79.694 Y39.743
G1 X79.796 Y39.615
G1 X79.815 Y39.591
G1 X79.915 Y39.461
G1 X79.933 Y39.438
G1 X80.032 Y39.304
G1 X80.048 Y39.282
G1 X80.145 Y39.146
G1 X80.161 Y39.122
G1 X80.256 Y38.984
G1 X80.272 Y38.961
G1 X80.365 Y38.819
G1 X80.379 Y38.796
G1 X80.471 Y38.652
G1 X80.485 Y38.629
G1 X80.574 Y38.482
G1 X80.587 Y38.46
G1 X80.675 Y38.31
G1 X80.688 Y38.287
G1 X80.773 Y38.135
G1 X80.785 Y38.113
G1 X80.868 Y37.958
G1 X80.88 Y37.936
G1 X80.962 Y37.778
G1 X80.973 Y37.755
G1 X81.053 Y37.595
G1 X81.063 Y37.573
G1 X81.141 Y37.409
G1 X81.15 Y37.389
G1 X81.226 Y37.223
G1 X81.236 Y37.201
G1 X81.31 Y37.032
G1 X81.319 Y37.011
G1 X81.391 Y36.84
G1 X81.399 Y36.819
G1 X81.469 Y36.645
G1 X81.477 Y36.624
G1 X81.546 Y36.447
G1 X81.553 Y36.427
G1 X81.619 Y36.247
G1 X81.626 Y36.228
G1 X81.691 Y36.046
G1 X81.698 Y36.025
G1 X81.76 Y35.84
G1 X81.767 Y35.819
G1 X81.827 Y35.631
G1 X81.835 Y35.606
G1 X81.893 Y35.415
G1 X81.9 Y35.391
G1 X81.955 Y35.196
G1 X81.961 Y35.173
G1 X82.014 Y34.976
G1 X82.02 Y34.953
G1 X82.07 Y34.752
G1 X82.075 Y34.73
G1 X82.123 Y34.526
G1 X82.128 Y34.504
G1 X82.173 Y34.297
G1 X82.177 Y34.274
G1 X82.22 Y34.064
G1 X82.224 Y34.044
G1 X82.264 Y33.831
G1 X82.267 Y33.809
G1 X82.305 Y33.593
G1 X82.308 Y33.573
G1 X82.343 Y33.353
G1 X82.346 Y33.334
G1 X82.378 Y33.111
G1 X82.381 Y33.091
G1 X82.41 Y32.865
G1 X82.412 Y32.847
G1 X82.439 Y32.618
G1 X82.442 Y32.599
G1 X82.466 Y32.367
G1 X82.468 Y32.349
G1 X82.49 Y32.113
G1 X82.491 Y32.095
G1 X82.511 Y31.857
G1 X82.512 Y31.84
G1 X82.529 Y31.598
G1 X82.53 Y31.581
G1 X82.544 Y31.337
G1 X82.545 Y31.32
G1 X82.556 Y31.072
G1 X82.557 Y31.056
G1 X82.566 Y30.805
G1 Y30.79
G1 X82.573 Y30.535
G1 Y30.519
G1 X82.577 Y30.262
G1 Y30.247
G1 X82.578 Y29.987
G1 Y29.978
G3 X82.776 Y29.778 I0.2 J0
G1 X84.142 Y29.763
G3 X84.284 Y29.82 I0.002 J0.2
G3 X84.344 Y29.961 I-0.14 J0.143
G1 Y29.977
G1 X84.342 Y30.279
G1 X84.337 Y30.578
G1 X84.329 Y30.874
G1 X84.317 Y31.166
G1 X84.301 Y31.453
G1 X84.283 Y31.737
G1 X84.261 Y32.018
G1 X84.235 Y32.294
G1 X84.206 Y32.566
G1 X84.174 Y32.835
G1 X84.139 Y33.1
G1 X84.1 Y33.361
G1 X84.058 Y33.619
G1 X84.013 Y33.872
G1 X83.965 Y34.122
G1 X83.913 Y34.368
G1 X83.858 Y34.611
G1 X83.8 Y34.849
G1 X83.739 Y35.085
G1 X83.675 Y35.316
G1 X83.607 Y35.543
G1 X83.537 Y35.767
G1 X83.463 Y35.987
G1 X83.387 Y36.204
G1 X83.306 Y36.419
G1 X83.223 Y36.633
G1 X83.137 Y36.844
G1 X83.048 Y37.05
G1 X82.957 Y37.254
G1 X82.864 Y37.453
G1 X82.769 Y37.65
G1 X82.671 Y37.842
G1 X82.571 Y38.032
G1 X82.469 Y38.218
G1 X82.364 Y38.401
G1 X82.257 Y38.58
G1 X82.148 Y38.756
G1 X82.036 Y38.928
G1 X81.922 Y39.098
G1 X81.806 Y39.264
G1 X81.688 Y39.427
G1 X81.567 Y39.587
G1 X81.443 Y39.743
G1 X81.318 Y39.897
G1 X81.19 Y40.047
G1 X81.06 Y40.194
G1 X80.927 Y40.338
G1 X80.792 Y40.48
G1 X80.653 Y40.619
G1 X80.512 Y40.757
G1 X80.369 Y40.89
G1 X80.224 Y41.021
G1 X80.078 Y41.149
G1 X79.929 Y41.274
G1 X79.778 Y41.396
G1 X79.625 Y41.515
G1 X79.47 Y41.631
G1 X79.313 Y41.744
G1 X79.154 Y41.854
G1 X78.993 Y41.962
G1 X78.83 Y42.066
G1 X78.664 Y42.168
G1 X78.496 Y42.267
G1 X78.326 Y42.363
G1 X78.154 Y42.456
G1 X77.979 Y42.546
G1 X77.802 Y42.634
G1 X77.623 Y42.719
G1 X77.441 Y42.801
G1 X77.257 Y42.88
G1 X77.071 Y42.956
G1 X76.882 Y43.03
G1 X76.69 Y43.101
G1 X76.496 Y43.169
G1 X76.301 Y43.234
G1 X76.104 Y43.297
G1 X75.905 Y43.356
G1 X75.704 Y43.412
G1 X75.503 Y43.466
G1 X75.299 Y43.516
G1 X75.093 Y43.563
G1 X74.886 Y43.608
G1 X74.677 Y43.649
G1 X74.466 Y43.687
G1 X74.254 Y43.723
G1 X74.039 Y43.755
G1 X73.823 Y43.784
G1 X73.605 Y43.811
G1 X73.386 Y43.834
G1 X73.164 Y43.854
G1 X72.94 Y43.871
G1 X72.715 Y43.885
G1 X72.488 Y43.896
G1 X72.259 Y43.904
G1 X72.028 Y43.908
G1 X71.795 Y43.91
G1 X71.562 Y43.908
G1 X71.331 Y43.904
G1 X71.101 Y43.896
G1 X70.874 Y43.885
G1 X70.649 Y43.87
G1 X70.425 Y43.853
G1 X70.203 Y43.832
G1 X69.983 Y43.809
G1 X69.764 Y43.782
G1 X69.548 Y43.752
G1 X69.333 Y43.719
G1 X69.12 Y43.683
G1 X68.909 Y43.644
G1 X68.699 Y43.602
G1 X68.492 Y43.556
G1 X68.285 Y43.508
G1 X68.081 Y43.456
G1 X67.878 Y43.402
G1 X67.676 Y43.344
G1 X67.477 Y43.284
G1 X67.279 Y43.22
G1 X67.082 Y43.153
G1 X66.886 Y43.083
G1 X66.693 Y43.01
G1 X66.501 Y42.935
G1 X66.313 Y42.856
G1 X66.126 Y42.775
G1 X65.942 Y42.691
G1 X65.76 Y42.604
G1 X65.581 Y42.515
G1 X65.404 Y42.422
G1 X65.23 Y42.327
G1 X65.058 Y42.229
G1 X64.887 Y42.128
G1 X64.72 Y42.024
G1 X64.554 Y41.918
G1 X64.391 Y41.808
G1 X64.229 Y41.696
G1 X64.07 Y41.58
G1 X63.912 Y41.462
G1 X63.757 Y41.341
G1 X63.604 Y41.217
G1 X63.453 Y41.09
G1 X63.304 Y40.96
G1 X63.157 Y40.827
G1 X63.012 Y40.691
G1 X62.869 Y40.552
G1 X62.729 Y40.41
G1 X62.591 Y40.266
G1 X62.455 Y40.119
G1 X62.322 Y39.969
G1 X62.191 Y39.815
G1 X62.062 Y39.659
G1 X61.935 Y39.499
G1 X61.811 Y39.337
G1 X61.69 Y39.172
G1 X61.57 Y39.003
G1 X61.453 Y38.832
G1 X61.338 Y38.657
G1 X61.226 Y38.479
G1 X61.116 Y38.298
G1 X61.008 Y38.114
G1 X60.902 Y37.926
G1 X60.798 Y37.735
G1 X60.698 Y37.541
G1 X60.599 Y37.344
G1 X60.502 Y37.143
G1 X60.408 Y36.939
G1 X60.317 Y36.732
G1 X60.227 Y36.521
G1 X60.14 Y36.306
G1 X60.056 Y36.09
G1 X59.976 Y35.872
G1 X59.899 Y35.653
G1 X59.825 Y35.43
G1 X59.755 Y35.204
G1 X59.688 Y34.975
G1 X59.624 Y34.742
G1 X59.564 Y34.506
G1 X59.507 Y34.267
G1 X59.453 Y34.024
G1 X59.403 Y33.778
G1 X59.356 Y33.529
G1 X59.312 Y33.277
G1 X59.272 Y33.021
G1 X59.235 Y32.761
G1 X59.201 Y32.498
G1 X59.172 Y32.232
G1 X59.145 Y31.963
G1 X59.122 Y31.689
G1 X59.103 Y31.413
G1 X59.087 Y31.133
G1 X59.074 Y30.85
G1 X59.065 Y30.563
G1 X59.06 Y30.273
G1 X59.058 Y29.979
G1 X59.06 Y29.677
G1 X59.065 Y29.377
G1 X59.074 Y29.082
G1 X59.086 Y28.79
G1 X59.101 Y28.503
G1 X59.12 Y28.218
G1 X59.142 Y27.938
G1 X59.167 Y27.662
G1 X59.196 Y27.389
G1 X59.228 Y27.121
G1 X59.264 Y26.856
G1 X59.302 Y26.594
G1 X59.344 Y26.337
G1 X59.389 Y26.083
G1 X59.438 Y25.834
G1 X59.489 Y25.587
G1 X59.544 Y25.345
G1 X59.602 Y25.106
G1 X59.663 Y24.871
G1 X59.728 Y24.64
G1 X59.795 Y24.413
G1 X59.865 Y24.189
G1 X59.939 Y23.968
G1 X60.016 Y23.749
G1 X60.097 Y23.533
G1 X60.18 Y23.319
G1 X60.265 Y23.109
G1 X60.353 Y22.903
G1 X60.443 Y22.7
G1 X60.535 Y22.501
G1 X60.63 Y22.305
G1 X60.728 Y22.113
G1 X60.828 Y21.923
G1 X60.93 Y21.737
G1 X61.034 Y21.555
G1 X61.141 Y21.376
G1 X61.251 Y21.2
G1 X61.362 Y21.028
G1 X61.476 Y20.858
G1 X61.592 Y20.692
G1 X61.711 Y20.529
G1 X61.832 Y20.37
G1 X61.955 Y20.213
G1 X62.081 Y20.06
G1 X62.209 Y19.909
G1 X62.339 Y19.762
G1 X62.472 Y19.618
G1 X62.608 Y19.476
G1 X62.746 Y19.336
G1 X62.887 Y19.199
G1 X63.03 Y19.066
G1 X63.174 Y18.935
G1 X63.321 Y18.807
G1 X63.47 Y18.682
G1 X63.621 Y18.56
G1 X63.774 Y18.442
G1 X63.93 Y18.325
G1 X64.087 Y18.212
G1 X64.246 Y18.102
G1 X64.407 Y17.995
G1 X64.571 Y17.89
G1 X64.736 Y17.789
G1 X64.905 Y17.689
G1 X65.075 Y17.593
G1 X65.247 Y17.5
G1 X65.422 Y17.41
G1 X65.599 Y17.322
G1 X65.778 Y17.237
G1 X65.96 Y17.155
G1 X66.145 Y17.076
G1 X66.331 Y17
G1 X66.52 Y16.926
G1 X66.712 Y16.855
G1 X66.906 Y16.787
G1 X67.101 Y16.722
G1 X67.299 Y16.659
G1 X67.497 Y16.6
G1 X67.698 Y16.544
G1 X67.9 Y16.49
G1 X68.103 Y16.44
G1 X68.309 Y16.393
G1 X68.516 Y16.348
G1 X68.725 Y16.307
G1 X68.936 Y16.268
G1 X69.148 Y16.233
G1 X69.363 Y16.201
G1 X69.579 Y16.172
G1 X69.797 Y16.145
G1 X70.017 Y16.122
G1 X70.238 Y16.102
G1 X70.462 Y16.085
G1 X70.687 Y16.071
G1 X70.914 Y16.06
G1 X71.144 Y16.052
G1 X71.375 Y16.047
G1 X71.607 Y16.046
G1 X71.839 Y16.047
G1 X72.07 Y16.052
G1 X72.299 Y16.06
G1 X72.526 Y16.071
G1 X72.751 Y16.086
G1 X72.974 Y16.103
G1 X73.196 Y16.123
G1 X73.416 Y16.147
G1 X73.634 Y16.174
G1 X73.85 Y16.204
G1 X74.065 Y16.237
G1 X74.279 Y16.273
G1 X74.49 Y16.312
G1 X74.7 Y16.354
G1 X74.908 Y16.4
G1 X75.115 Y16.448
G1 X75.319 Y16.499
G1 X75.523 Y16.554
G1 X75.725 Y16.612
G1 X75.925 Y16.672
G1 X76.123 Y16.736
G1 X76.321 Y16.803
G1 X76.516 Y16.873
G1 X76.71 Y16.945
G1 X76.9 Y17.021
G1 X77.089 Y17.099
G1 X77.275 Y17.18
G1 X77.459 Y17.265
G1 X77.641 Y17.352
G1 X77.819 Y17.441
G1 X77.996 Y17.534
G1 X78.171 Y17.629
G1 X78.343 Y17.727
G1 X78.514 Y17.828
G1 X78.682 Y17.932
G1 X78.847 Y18.038
G1 X79.011 Y18.148
G1 X79.173 Y18.26
G1 X79.332 Y18.376
G1 X79.49 Y18.494
G1 X79.645 Y18.615
G1 X79.798 Y18.739
G1 X79.949 Y18.866
G1 X80.098 Y18.996
G1 X80.245 Y19.129
G1 X80.391 Y19.265
G1 X80.534 Y19.404
G1 X80.674 Y19.546
G1 X80.813 Y19.69
G1 X80.948 Y19.837
G1 X81.081 Y19.987
G1 X81.212 Y20.14
G1 X81.341 Y20.296
G1 X81.467 Y20.455
G1 X81.591 Y20.617
G1 X81.713 Y20.782
G1 X81.832 Y20.951
G1 X81.949 Y21.122
G1 X82.064 Y21.297
G1 X82.176 Y21.475
G1 X82.287 Y21.656
G1 X82.395 Y21.841
G1 X82.5 Y22.028
G1 X82.604 Y22.219
G1 X82.705 Y22.414
G1 X82.803 Y22.611
G1 X82.9 Y22.812
G1 X82.994 Y23.016
G1 X83.086 Y23.224
G1 X83.175 Y23.435
G1 X83.262 Y23.649
G1 X83.346 Y23.867
G1 X83.427 Y24.084
G1 X83.504 Y24.303
G1 X83.577 Y24.525
G1 X83.647 Y24.751
G1 X83.714 Y24.98
G1 X83.778 Y25.213
G1 X83.838 Y25.449
G1 X83.896 Y25.688
G1 X83.949 Y25.93
G1 X84 Y26.176
G1 X84.047 Y26.425
G1 X84.09 Y26.678
G1 X84.131 Y26.934
G1 X84.167 Y27.193
G1 X84.201 Y27.456
G1 X84.231 Y27.723
G1 X84.257 Y27.992
G1 X84.28 Y28.266
G1 X84.3 Y28.542
G1 X84.316 Y28.822
G1 X84.328 Y29.106
G1 X84.337 Y29.392
G1 X84.342 Y29.683
G1 X84.344 Y29.961
G1 X84.338 Y29.991
G1 X84.319 Y30.016
G1 X84.291 Y30.03
G1 X84.261
G1 X83.925 Y29.965
G1 X82.997 Y29.975
G1 X82.663 Y30.046
G1 X82.632
G1 X82.604 Y30.032
G1 X82.585 Y30.008
G1 X82.578 Y29.978
G1 Z-4 F402.
G1 Y29.972 F1206.
G1 X82.577 Y29.72
G1 Y29.704
G1 X82.573 Y29.454
G1 Y29.439
G1 X82.567 Y29.192
G1 X82.566 Y29.177
G1 X82.558 Y28.933
G1 X82.557 Y28.916
G1 X82.546 Y28.675
G1 X82.545 Y28.659
G1 X82.531 Y28.421
G1 X82.53 Y28.403
G1 X82.514 Y28.168
G1 X82.513 Y28.151
G1 X82.494 Y27.918
G1 X82.493 Y27.901
G1 X82.472 Y27.671
G1 X82.47 Y27.652
G1 X82.446 Y27.425
G1 X82.444 Y27.407
G1 X82.418 Y27.182
G1 X82.416 Y27.164
G1 X82.388 Y26.943
G1 X82.385 Y26.924
G1 X82.354 Y26.705
G1 X82.351 Y26.685
G1 X82.318 Y26.469
G1 X82.315 Y26.45
G1 X82.279 Y26.237
G1 X82.275 Y26.216
G1 X82.237 Y26.005
G1 X82.233 Y25.985
G1 X82.192 Y25.778
G1 X82.188 Y25.757
G1 X82.144 Y25.552
G1 X82.139 Y25.531
G1 X82.094 Y25.329
G1 X82.088 Y25.307
G1 X82.04 Y25.108
G1 X82.035 Y25.086
G1 X81.984 Y24.89
G1 X81.978 Y24.867
G1 X81.924 Y24.673
G1 X81.918 Y24.651
G1 X81.862 Y24.46
G1 X81.855 Y24.437
G1 X81.797 Y24.249
G1 X81.79 Y24.228
G1 X81.73 Y24.043
G1 X81.723 Y24.023
G1 X81.661 Y23.84
G1 X81.654 Y23.821
G1 X81.59 Y23.641
G1 X81.582 Y23.62
G1 X81.516 Y23.443
G1 X81.509 Y23.424
G1 X81.441 Y23.249
G1 X81.433 Y23.229
G1 X81.363 Y23.057
G1 X81.354 Y23.036
G1 X81.282 Y22.867
G1 X81.273 Y22.845
G1 X81.199 Y22.678
G1 X81.19 Y22.658
G1 X81.114 Y22.494
G1 X81.104 Y22.472
G1 X81.026 Y22.311
G1 X81.016 Y22.289
G1 X80.937 Y22.13
G1 X80.925 Y22.108
G1 X80.844 Y21.952
G1 X80.832 Y21.93
G1 X80.749 Y21.777
G1 X80.737 Y21.755
G1 X80.652 Y21.604
G1 X80.639 Y21.582
G1 X80.552 Y21.433
G1 X80.538 Y21.411
G1 X80.449 Y21.265
G1 X80.435 Y21.243
G1 X80.345 Y21.1
G1 X80.329 Y21.076
G1 X80.237 Y20.936
G1 X80.222 Y20.914
G1 X80.127 Y20.777
G1 X80.111 Y20.754
G1 X80.015 Y20.619
G1 X79.998 Y20.596
G1 X79.899 Y20.464
G1 X79.882 Y20.441
G1 X79.782 Y20.312
G1 X79.764 Y20.289
G1 X79.662 Y20.162
G1 X79.643 Y20.139
G1 X79.539 Y20.015
G1 X79.521 Y19.994
G1 X79.415 Y19.872
G1 X79.397 Y19.852
G1 X79.29 Y19.733
G1 X79.271 Y19.713
G1 X79.162 Y19.596
G1 X79.144 Y19.577
G1 X79.033 Y19.463
G1 X79.014 Y19.443
G1 X78.902 Y19.332
G1 X78.882 Y19.313
G1 X78.769 Y19.204
G1 X78.748 Y19.184
G1 X78.633 Y19.079
G1 X78.612 Y19.06
G1 X78.496 Y18.957
G1 X78.474 Y18.938
G1 X78.357 Y18.838
G1 X78.334 Y18.819
G1 X78.215 Y18.721
G1 X78.192 Y18.702
G1 X78.071 Y18.607
G1 X78.048 Y18.589
G1 X77.926 Y18.497
G1 X77.902 Y18.479
G1 X77.778 Y18.389
G1 X77.754 Y18.372
G1 X77.628 Y18.284
G1 X77.605 Y18.268
G1 X77.478 Y18.183
G1 X77.452 Y18.167
G1 X77.324 Y18.085
G1 X77.298 Y18.069
G1 X77.169 Y17.989
G1 X77.144 Y17.975
G1 X77.013 Y17.898
G1 X76.986 Y17.883
G1 X76.854 Y17.809
G1 X76.827 Y17.794
G1 X76.693 Y17.723
G1 X76.667 Y17.709
G1 X76.531 Y17.64
G1 X76.504 Y17.627
G1 X76.367 Y17.561
G1 X76.34 Y17.548
G1 X76.201 Y17.485
G1 X76.174 Y17.473
G1 X76.034 Y17.412
G1 X76.009 Y17.401
G1 X75.867 Y17.343
G1 X75.843 Y17.333
G1 X75.701 Y17.277
G1 X75.677 Y17.268
G1 X75.533 Y17.215
G1 X75.509 Y17.206
G1 X75.365 Y17.155
G1 X75.34 Y17.146
G1 X75.195 Y17.098
G1 X75.171 Y17.09
G1 X75.026 Y17.044
G1 X75.001 Y17.037
G1 X74.854 Y16.993
G1 X74.83 Y16.986
G1 X74.682 Y16.945
G1 X74.656 Y16.938
G1 X74.508 Y16.9
G1 X74.484 Y16.894
G1 X74.334 Y16.858
G1 X74.309 Y16.852
G1 X74.159 Y16.819
G1 X74.134 Y16.813
G1 X73.982 Y16.782
G1 X73.957 Y16.777
G1 X73.805 Y16.749
G1 X73.78 Y16.744
G1 X73.627 Y16.718
G1 X73.603 Y16.715
G1 X73.449 Y16.691
G1 X73.424 Y16.687
G1 X73.27 Y16.666
G1 X73.245 Y16.663
G1 X73.089 Y16.645
G1 X73.065 Y16.642
G1 X72.908 Y16.626
G1 X72.884 Y16.624
G1 X72.727 Y16.61
G1 X72.702 Y16.608
G1 X72.543 Y16.597
G1 X72.52 Y16.595
G1 X72.36 Y16.587
G1 X72.337 Y16.586
G1 X72.176 Y16.579
G1 X72.153
G1 X71.992 Y16.575
G1 X71.969
G1 X71.807 Y16.573
G1 X71.783
G1 X71.62 Y16.575
G1 X71.598
G1 X71.437 Y16.579
G1 X71.413
G1 X71.252 Y16.586
G1 X71.229 Y16.587
G1 X71.069 Y16.595
G1 X71.046 Y16.597
G1 X70.886 Y16.608
G1 X70.862 Y16.61
G1 X70.703 Y16.623
G1 X70.68 Y16.626
G1 X70.522 Y16.642
G1 X70.498 Y16.644
G1 X70.341 Y16.663
G1 X70.317 Y16.666
G1 X70.16 Y16.687
G1 X70.136 Y16.691
G1 X69.98 Y16.714
G1 X69.957 Y16.718
G1 X69.802 Y16.744
G1 X69.778 Y16.748
G1 X69.624 Y16.777
G1 X69.599 Y16.782
G1 X69.446 Y16.813
G1 X69.422 Y16.818
G1 X69.269 Y16.851
G1 X69.245 Y16.857
G1 X69.093 Y16.893
G1 X69.069 Y16.899
G1 X68.918 Y16.937
G1 X68.893 Y16.944
G1 X68.743 Y16.985
G1 X68.719 Y16.991
G1 X68.57 Y17.034
G1 X68.546 Y17.042
G1 X68.397 Y17.088
G1 X68.374 Y17.095
G1 X68.226 Y17.143
G1 X68.201 Y17.151
G1 X68.054 Y17.202
G1 X68.031 Y17.21
G1 X67.884 Y17.264
G1 X67.861 Y17.272
G1 X67.715 Y17.328
G1 X67.692 Y17.337
G1 X67.547 Y17.396
G1 X67.523 Y17.405
G1 X67.378 Y17.466
G1 X67.352 Y17.478
G1 X67.209 Y17.541
G1 X67.182 Y17.553
G1 X67.041 Y17.62
G1 X67.014 Y17.633
G1 X66.874 Y17.701
G1 X66.848 Y17.715
G1 X66.71 Y17.786
G1 X66.683 Y17.8
G1 X66.547 Y17.874
G1 X66.52 Y17.889
G1 X66.386 Y17.966
G1 X66.36 Y17.981
G1 X66.227 Y18.06
G1 X66.202 Y18.075
G1 X66.07 Y18.157
G1 X66.045 Y18.174
G1 X65.915 Y18.258
G1 X65.89 Y18.275
G1 X65.762 Y18.362
G1 X65.737 Y18.379
G1 X65.61 Y18.469
G1 X65.586 Y18.487
G1 X65.461 Y18.579
G1 X65.438 Y18.596
G1 X65.315 Y18.692
G1 X65.291 Y18.71
G1 X65.169 Y18.808
G1 X65.146 Y18.827
G1 X65.026 Y18.927
G1 X65.004 Y18.946
G1 X64.885 Y19.049
G1 X64.863 Y19.068
G1 X64.746 Y19.174
G1 X64.725 Y19.194
G1 X64.609 Y19.302
G1 X64.589 Y19.321
G1 X64.475 Y19.432
G1 X64.455 Y19.452
G1 X64.342 Y19.566
G1 X64.323 Y19.586
G1 X64.212 Y19.702
G1 X64.193 Y19.722
G1 X64.083 Y19.841
G1 X64.065 Y19.862
G1 X63.957 Y19.983
G1 X63.939 Y20.004
G1 X63.833 Y20.128
G1 X63.814 Y20.151
G1 X63.71 Y20.278
G1 X63.692 Y20.3
G1 X63.59 Y20.429
G1 X63.572 Y20.452
G1 X63.472 Y20.584
G1 X63.456 Y20.606
G1 X63.357 Y20.741
G1 X63.341 Y20.764
G1 X63.244 Y20.901
G1 X63.228 Y20.924
G1 X63.133 Y21.064
G1 X63.119 Y21.086
G1 X63.026 Y21.229
G1 X63.012 Y21.251
G1 X62.92 Y21.397
G1 X62.907 Y21.419
G1 X62.817 Y21.567
G1 X62.804 Y21.589
G1 X62.717 Y21.74
G1 X62.705 Y21.762
G1 X62.619 Y21.916
G1 X62.607 Y21.938
G1 X62.523 Y22.094
G1 X62.512 Y22.116
G1 X62.431 Y22.275
G1 X62.42 Y22.296
G1 X62.34 Y22.457
G1 X62.33 Y22.479
G1 X62.252 Y22.643
G1 X62.242 Y22.665
G1 X62.166 Y22.831
G1 X62.157 Y22.851
G1 X62.083 Y23.021
G1 X62.074 Y23.042
G1 X62.002 Y23.214
G1 X61.994 Y23.234
G1 X61.924 Y23.409
G1 X61.916 Y23.429
G1 X61.847 Y23.607
G1 X61.84 Y23.627
G1 X61.773 Y23.807
G1 X61.766 Y23.826
G1 X61.702 Y24.009
G1 X61.695 Y24.028
G1 X61.633 Y24.213
G1 X61.625 Y24.236
G1 X61.565 Y24.424
G1 X61.558 Y24.447
G1 X61.5 Y24.638
G1 X61.493 Y24.661
G1 X61.438 Y24.855
G1 X61.432 Y24.878
G1 X61.38 Y25.074
G1 X61.374 Y25.097
G1 X61.324 Y25.296
G1 X61.318 Y25.318
G1 X61.271 Y25.52
G1 X61.266 Y25.543
G1 X61.221 Y25.748
G1 X61.217 Y25.769
G1 X61.174 Y25.976
G1 X61.17 Y25.997
G1 X61.131 Y26.208
G1 X61.127 Y26.229
G1 X61.09 Y26.442
G1 X61.086 Y26.462
G1 X61.052 Y26.678
G1 X61.049 Y26.699
G1 X61.017 Y26.918
G1 X61.014 Y26.937
G1 X60.985 Y27.158
G1 X60.982 Y27.178
G1 X60.956 Y27.402
G1 X60.953 Y27.421
G1 X60.929 Y27.648
G1 X60.927 Y27.666
G1 X60.906 Y27.897
G1 X60.904 Y27.914
G1 X60.885 Y28.147
G1 X60.884 Y28.165
G1 X60.867 Y28.401
G1 X60.866 Y28.418
G1 X60.852 Y28.657
G1 X60.851 Y28.673
G1 X60.84 Y28.915
G1 X60.839 Y28.931
G1 X60.83 Y29.175
G1 X60.829 Y29.191
G1 X60.823 Y29.438
G1 Y29.454
G1 X60.819 Y29.704
G1 Y29.719
G1 X60.817 Y29.972
G1 Y29.987
G1 X60.819 Y30.24
G1 Y30.254
G1 X60.823 Y30.504
G1 Y30.52
G1 X60.829 Y30.766
G1 X60.83 Y30.782
G1 X60.838 Y31.026
G1 X60.839 Y31.042
G1 X60.85 Y31.283
G1 X60.851 Y31.3
G1 X60.864 Y31.538
G1 X60.865 Y31.555
G1 X60.882 Y31.791
G1 X60.883 Y31.808
G1 X60.901 Y32.041
G1 X60.903 Y32.058
G1 X60.924 Y32.288
G1 X60.926 Y32.306
G1 X60.949 Y32.533
G1 X60.951 Y32.551
G1 X60.977 Y32.776
G1 X60.979 Y32.794
G1 X61.008 Y33.015
G1 X61.01 Y33.035
G1 X61.041 Y33.253
G1 X61.044 Y33.273
G1 X61.078 Y33.489
G1 X61.081 Y33.508
G1 X61.116 Y33.721
G1 X61.12 Y33.741
G1 X61.158 Y33.952
G1 X61.162 Y33.972
G1 X61.203 Y34.179
G1 X61.207 Y34.2
G1 X61.25 Y34.405
G1 X61.255 Y34.426
G1 X61.301 Y34.628
G1 X61.306 Y34.649
G1 X61.354 Y34.848
G1 X61.359 Y34.869
G1 X61.41 Y35.066
G1 X61.416 Y35.089
G1 X61.469 Y35.282
G1 X61.475 Y35.304
G1 X61.53 Y35.494
G1 X61.537 Y35.517
G1 X61.595 Y35.705
G1 X61.603 Y35.728
G1 X61.663 Y35.914
G1 X61.669 Y35.932
G1 X61.731 Y36.114
G1 X61.738 Y36.134
G1 X61.802 Y36.314
G1 X61.809 Y36.333
G1 X61.875 Y36.51
G1 X61.883 Y36.53
G1 X61.95 Y36.705
G1 X61.959 Y36.725
G1 X62.028 Y36.897
G1 X62.036 Y36.916
G1 X62.107 Y37.086
G1 X62.116 Y37.107
G1 X62.19 Y37.273
G1 X62.199 Y37.294
G1 X62.274 Y37.458
G1 X62.284 Y37.479
G1 X62.36 Y37.64
G1 X62.371 Y37.661
G1 X62.449 Y37.82
G1 X62.46 Y37.842
G1 X62.541 Y37.998
G1 X62.552 Y38.019
G1 X62.634 Y38.172
G1 X62.646 Y38.195
G1 X62.73 Y38.345
G1 X62.743 Y38.367
G1 X62.828 Y38.515
G1 X62.842 Y38.538
G1 X62.93 Y38.683
G1 X62.943 Y38.705
G1 X63.032 Y38.848
G1 X63.047 Y38.871
G1 X63.138 Y39.011
G1 X63.153 Y39.033
G1 X63.246 Y39.17
G1 X63.261 Y39.192
G1 X63.356 Y39.327
G1 X63.373 Y39.35
G1 X63.47 Y39.483
G1 X63.486 Y39.504
G1 X63.584 Y39.634
G1 X63.602 Y39.657
G1 X63.703 Y39.784
G1 X63.721 Y39.806
G1 X63.823 Y39.931
G1 X63.841 Y39.952
G1 X63.945 Y40.074
G1 X63.963 Y40.094
G1 X64.069 Y40.213
G1 X64.088 Y40.235
G1 X64.196 Y40.352
G1 X64.215 Y40.372
G1 X64.323 Y40.485
G1 X64.345 Y40.507
G1 X64.455 Y40.618
G1 X64.475 Y40.638
G1 X64.587 Y40.746
G1 X64.61 Y40.767
G1 X64.724 Y40.873
G1 X64.745 Y40.893
G1 X64.861 Y40.996
G1 X64.883 Y41.015
G1 X65 Y41.116
G1 X65.023 Y41.136
G1 X65.142 Y41.233
G1 X65.166 Y41.253
G1 X65.287 Y41.348
G1 X65.31 Y41.366
G1 X65.433 Y41.459
G1 X65.457 Y41.477
G1 X65.58 Y41.567
G1 X65.606 Y41.585
G1 X65.731 Y41.672
G1 X65.757 Y41.689
G1 X65.884 Y41.774
G1 X65.91 Y41.791
G1 X66.038 Y41.873
G1 X66.065 Y41.889
G1 X66.195 Y41.968
G1 X66.22 Y41.983
G1 X66.353 Y42.06
G1 X66.38 Y42.076
G1 X66.514 Y42.15
G1 X66.541 Y42.164
G1 X66.676 Y42.236
G1 X66.703 Y42.25
G1 X66.84 Y42.318
G1 X66.868 Y42.332
G1 X67.007 Y42.398
G1 X67.033 Y42.411
G1 X67.174 Y42.474
G1 X67.201 Y42.486
G1 X67.343 Y42.547
G1 X67.369 Y42.558
G1 X67.512 Y42.616
G1 X67.536 Y42.625
G1 X67.68 Y42.681
G1 X67.704 Y42.69
G1 X67.848 Y42.743
G1 X67.872 Y42.752
G1 X68.018 Y42.803
G1 X68.043 Y42.811
G1 X68.189 Y42.859
G1 X68.213 Y42.867
G1 X68.36 Y42.913
G1 X68.385 Y42.92
G1 X68.533 Y42.964
G1 X68.557 Y42.97
G1 X68.706 Y43.011
G1 X68.731 Y43.018
G1 X68.881 Y43.057
G1 X68.905 Y43.062
G1 X69.056 Y43.098
G1 X69.08 Y43.104
G1 X69.232 Y43.138
G1 X69.257 Y43.143
G1 X69.409 Y43.174
G1 X69.434 Y43.179
G1 X69.587 Y43.207
G1 X69.612 Y43.212
G1 X69.766 Y43.238
G1 X69.789 Y43.241
G1 X69.944 Y43.265
G1 X69.969 Y43.269
G1 X70.124 Y43.29
G1 X70.149 Y43.293
G1 X70.305 Y43.311
G1 X70.33 Y43.314
G1 X70.487 Y43.33
G1 X70.51 Y43.332
G1 X70.668 Y43.346
G1 X70.693 Y43.348
G1 X70.852 Y43.359
G1 X70.875 Y43.36
G1 X71.035 Y43.369
G1 X71.059 Y43.37
G1 X71.219 Y43.376
G1 X71.243 Y43.377
G1 X71.404 Y43.381
G1 X71.427
G1 X71.589 Y43.383
G1 X71.612
G1 X71.774 Y43.381
G1 X71.797
G1 X71.958 Y43.377
G1 X71.98
G1 X72.141 Y43.371
G1 X72.163 Y43.37
G1 X72.323 Y43.361
G1 X72.345 Y43.36
G1 X72.505 Y43.349
G1 X72.528 Y43.348
G1 X72.686 Y43.335
G1 X72.71 Y43.332
G1 X72.868 Y43.317
G1 X72.89 Y43.314
G1 X73.047 Y43.297
G1 X73.069 Y43.294
G1 X73.226 Y43.274
G1 X73.25 Y43.27
G1 X73.406 Y43.248
G1 X73.429 Y43.244
G1 X73.584 Y43.219
G1 X73.607 Y43.215
G1 X73.762 Y43.187
G1 X73.785 Y43.183
G1 X73.939 Y43.153
G1 X73.961 Y43.149
G1 X74.114 Y43.116
G1 X74.138 Y43.111
G1 X74.29 Y43.076
G1 X74.314 Y43.071
G1 X74.465 Y43.034
G1 X74.488 Y43.028
G1 X74.639 Y42.988
G1 X74.661 Y42.982
G1 X74.811 Y42.94
G1 X74.835 Y42.933
G1 X74.984 Y42.889
G1 X75.007 Y42.882
G1 X75.156 Y42.835
G1 X75.179 Y42.828
G1 X75.326 Y42.779
G1 X75.349 Y42.771
G1 X75.496 Y42.719
G1 X75.52 Y42.711
G1 X75.666 Y42.657
G1 X75.687 Y42.649
G1 X75.832 Y42.592
G1 X75.859 Y42.582
G1 X76.003 Y42.523
G1 X76.03 Y42.511
G1 X76.172 Y42.45
G1 X76.199 Y42.438
G1 X76.34 Y42.373
G1 X76.366 Y42.361
G1 X76.505 Y42.294
G1 X76.532 Y42.281
G1 X76.669 Y42.212
G1 X76.696 Y42.198
G1 X76.832 Y42.126
G1 X76.859 Y42.112
G1 X76.993 Y42.037
G1 X77.019 Y42.022
G1 X77.152 Y41.945
G1 X77.177 Y41.93
G1 X77.309 Y41.85
G1 X77.334 Y41.834
G1 X77.464 Y41.751
G1 X77.489 Y41.735
G1 X77.617 Y41.65
G1 X77.642 Y41.633
G1 X77.769 Y41.545
G1 X77.793 Y41.528
G1 X77.918 Y41.437
G1 X77.942 Y41.419
G1 X78.066 Y41.326
G1 X78.089 Y41.308
G1 X78.211 Y41.212
G1 X78.234 Y41.194
G1 X78.354 Y41.096
G1 X78.378 Y41.076
G1 X78.496 Y40.975
G1 X78.518 Y40.957
G1 X78.635 Y40.853
G1 X78.657 Y40.833
G1 X78.773 Y40.727
G1 X78.793 Y40.708
G1 X78.907 Y40.599
G1 X78.928 Y40.578
G1 X79.041 Y40.467
G1 X79.061 Y40.447
G1 X79.172 Y40.332
G1 X79.191 Y40.312
G1 X79.301 Y40.195
G1 X79.319 Y40.175
G1 X79.427 Y40.055
G1 X79.444 Y40.036
G1 X79.551 Y39.913
G1 X79.571 Y39.89
G1 X79.675 Y39.765
G1 X79.694 Y39.743
G1 X79.796 Y39.615
G1 X79.815 Y39.591
G1 X79.915 Y39.461
G1 X79.933 Y39.438
G1 X80.032 Y39.304
G1 X80.048 Y39.282
G1 X80.145 Y39.146
G1 X80.161 Y39.122
G1 X80.256 Y38.984
G1 X80.272 Y38.961
G1 X80.365 Y38.819
G1 X80.379 Y38.796
G1 X80.471 Y38.652
G1 X80.485 Y38.629
G1 X80.574 Y38.482
G1 X80.587 Y38.46
G1 X80.675 Y38.31
G1 X80.688 Y38.287
G1 X80.773 Y38.135
G1 X80.785 Y38.113
G1 X80.868 Y37.958
G1 X80.88 Y37.936
G1 X80.962 Y37.778
G1 X80.973 Y37.755
G1 X81.053 Y37.595
G1 X81.063 Y37.573
G1 X81.141 Y37.409
G1 X81.15 Y37.389
G1 X81.226 Y37.223
G1 X81.236 Y37.201
G1 X81.31 Y37.032
G1 X81.319 Y37.011
G1 X81.391 Y36.84
G1 X81.399 Y36.819
G1 X81.469 Y36.645
G1 X81.477 Y36.624
G1 X81.546 Y36.447
G1 X81.553 Y36.427
G1 X81.619 Y36.247
G1 X81.626 Y36.228
G1 X81.691 Y36.046
G1 X81.698 Y36.025
G1 X81.76 Y35.84
G1 X81.767 Y35.819
G1 X81.827 Y35.631
G1 X81.835 Y35.606
G1 X81.893 Y35.415
G1 X81.9 Y35.391
G1 X81.955 Y35.196
G1 X81.961 Y35.173
G1 X82.014 Y34.976
G1 X82.02 Y34.953
G1 X82.07 Y34.752
G1 X82.075 Y34.73
G1 X82.123 Y34.526
G1 X82.128 Y34.504
G1 X82.173 Y34.297
G1 X82.177 Y34.274
G1 X82.22 Y34.064
G1 X82.224 Y34.044
G1 X82.264 Y33.831
G1 X82.267 Y33.809
G1 X82.305 Y33.593
G1 X82.308 Y33.573
G1 X82.343 Y33.353
G1 X82.346 Y33.334
G1 X82.378 Y33.111
G1 X82.381 Y33.091
G1 X82.41 Y32.865
G1 X82.412 Y32.847
G1 X82.439 Y32.618
G1 X82.442 Y32.599
G1 X82.466 Y32.367
G1 X82.468 Y32.349
G1 X82.49 Y32.113
G1 X82.491 Y32.095
G1 X82.511 Y31.857
G1 X82.512 Y31.84
G1 X82.529 Y31.598
G1 X82.53 Y31.581
G1 X82.544 Y31.337
G1 X82.545 Y31.32
G1 X82.556 Y31.072
G1 X82.557 Y31.056
G1 X82.566 Y30.805
G1 Y30.79
G1 X82.573 Y30.535
G1 Y30.519
G1 X82.577 Y30.262
G1 Y30.247
G1 X82.578 Y29.987
G1 Y29.978
G3 X82.776 Y29.778 I0.2 J0
G1 X84.142 Y29.763
G3 X84.284 Y29.82 I0.002 J0.2
G3 X84.344 Y29.961 I-0.14 J0.143
G1 Y29.977
G1 X84.342 Y30.279
G1 X84.337 Y30.578
G1 X84.329 Y30.874
G1 X84.317 Y31.166
G1 X84.301 Y31.453
G1 X84.283 Y31.737
G1 X84.261 Y32.018
G1 X84.235 Y32.294
G1 X84.206 Y32.566
G1 X84.174 Y32.835
G1 X84.139 Y33.1
G1 X84.1 Y33.361
G1 X84.058 Y33.619
G1 X84.013 Y33.872
G1 X83.965 Y34.122
G1 X83.913 Y34.368
G1 X83.858 Y34.611
G1 X83.8 Y34.849
G1 X83.739 Y35.085
G1 X83.675 Y35.316
G1 X83.607 Y35.543
G1 X83.537 Y35.767
G1 X83.463 Y35.987
G1 X83.387 Y36.204
G1 X83.306 Y36.419
G1 X83.223 Y36.633
G1 X83.137 Y36.844
G1 X83.048 Y37.05
G1 X82.957 Y37.254
G1 X82.864 Y37.453
G1 X82.769 Y37.65
G1 X82.671 Y37.842
G1 X82.571 Y38.032
G1 X82.469 Y38.218
G1 X82.364 Y38.401
G1 X82.257 Y38.58
G1 X82.148 Y38.756
G1 X82.036 Y38.928
G1 X81.922 Y39.098
G1 X81.806 Y39.264
G1 X81.688 Y39.427
G1 X81.567 Y39.587
G1 X81.443 Y39.743
G1 X81.318 Y39.897
G1 X81.19 Y40.047
G1 X81.06 Y40.194
G1 X80.927 Y40.338
G1 X80.792 Y40.48
G1 X80.653 Y40.619
G1 X80.512 Y40.757
G1 X80.369 Y40.89
G1 X80.224 Y41.021
G1 X80.078 Y41.149
G1 X79.929 Y41.274
G1 X79.778 Y41.396
G1 X79.625 Y41.515
G1 X79.47 Y41.631
G1 X79.313 Y41.744
G1 X79.154 Y41.854
G1 X78.993 Y41.962
G1 X78.83 Y42.066
G1 X78.664 Y42.168
G1 X78.496 Y42.267
G1 X78.326 Y42.363
G1 X78.154 Y42.456
G1 X77.979 Y42.546
G1 X77.802 Y42.634
G1 X77.623 Y42.719
G1 X77.441 Y42.801
G1 X77.257 Y42.88
G1 X77.071 Y42.956
G1 X76.882 Y43.03
G1 X76.69 Y43.101
G1 X76.496 Y43.169
G1 X76.301 Y43.234
G1 X76.104 Y43.297
G1 X75.905 Y43.356
G1 X75.704 Y43.412
G1 X75.503 Y43.466
G1 X75.299 Y43.516
G1 X75.093 Y43.563
G1 X74.886 Y43.608
G1 X74.677 Y43.649
G1 X74.466 Y43.687
G1 X74.254 Y43.723
G1 X74.039 Y43.755
G1 X73.823 Y43.784
G1 X73.605 Y43.811
G1 X73.386 Y43.834
G1 X73.164 Y43.854
G1 X72.94 Y43.871
G1 X72.715 Y43.885
G1 X72.488 Y43.896
G1 X72.259 Y43.904
G1 X72.028 Y43.908
G1 X71.795 Y43.91
G1 X71.562 Y43.908
G1 X71.331 Y43.904
G1 X71.101 Y43.896
G1 X70.874 Y43.885
G1 X70.649 Y43.87
G1 X70.425 Y43.853
G1 X70.203 Y43.832
G1 X69.983 Y43.809
G1 X69.764 Y43.782
G1 X69.548 Y43.752
G1 X69.333 Y43.719
G1 X69.12 Y43.683
G1 X68.909 Y43.644
G1 X68.699 Y43.602
G1 X68.492 Y43.556
G1 X68.285 Y43.508
G1 X68.081 Y43.456
G1 X67.878 Y43.402
G1 X67.676 Y43.344
G1 X67.477 Y43.284
G1 X67.279 Y43.22
G1 X67.082 Y43.153
G1 X66.886 Y43.083
G1 X66.693 Y43.01
G1 X66.501 Y42.935
G1 X66.313 Y42.856
G1 X66.126 Y42.775
G1 X65.942 Y42.691
G1 X65.76 Y42.604
G1 X65.581 Y42.515
G1 X65.404 Y42.422
G1 X65.23 Y42.327
G1 X65.058 Y42.229
G1 X64.887 Y42.128
G1 X64.72 Y42.024
G1 X64.554 Y41.918
G1 X64.391 Y41.808
G1 X64.229 Y41.696
G1 X64.07 Y41.58
G1 X63.912 Y41.462
G1 X63.757 Y41.341
G1 X63.604 Y41.217
G1 X63.453 Y41.09
G1 X63.304 Y40.96
G1 X63.157 Y40.827
G1 X63.012 Y40.691
G1 X62.869 Y40.552
G1 X62.729 Y40.41
G1 X62.591 Y40.266
G1 X62.455 Y40.119
G1 X62.322 Y39.969
G1 X62.191 Y39.815
G1 X62.062 Y39.659
G1 X61.935 Y39.499
G1 X61.811 Y39.337
G1 X61.69 Y39.172
G1 X61.57 Y39.003
G1 X61.453 Y38.832
G1 X61.338 Y38.657
G1 X61.226 Y38.479
G1 X61.116 Y38.298
G1 X61.008 Y38.114
G1 X60.902 Y37.926
G1 X60.798 Y37.735
G1 X60.698 Y37.541
G1 X60.599 Y37.344
G1 X60.502 Y37.143
G1 X60.408 Y36.939
G1 X60.317 Y36.732
G1 X60.227 Y36.521
G1 X60.14 Y36.306
G1 X60.056 Y36.09
G1 X59.976 Y35.872
G1 X59.899 Y35.653
G1 X59.825 Y35.43
G1 X59.755 Y35.204
G1 X59.688 Y34.975
G1 X59.624 Y34.742
G1 X59.564 Y34.506
G1 X59.507 Y34.267
G1 X59.453 Y34.024
G1 X59.403 Y33.778
G1 X59.356 Y33.529
G1 X59.312 Y33.277
G1 X59.272 Y33.021
G1 X59.235 Y32.761
G1 X59.201 Y32.498
G1 X59.172 Y32.232
G1 X59.145 Y31.963
G1 X59.122 Y31.689
G1 X59.103 Y31.413
G1 X59.087 Y31.133
G1 X59.074 Y30.85
G1 X59.065 Y30.563
G1 X59.06 Y30.273
G1 X59.058 Y29.979
G1 X59.06 Y29.677
G1 X59.065 Y29.377
G1 X59.074 Y29.082
G1 X59.086 Y28.79
G1 X59.101 Y28.503
G1 X59.12 Y28.218
G1 X59.142 Y27.938
G1 X59.167 Y27.662
G1 X59.196 Y27.389
G1 X59.228 Y27.121
G1 X59.264 Y26.856
G1 X59.302 Y26.594
G1 X59.344 Y26.337
G1 X59.389 Y26.083
G1 X59.438 Y25.834
G1 X59.489 Y25.587
G1 X59.544 Y25.345
G1 X59.602 Y25.106
G1 X59.663 Y24.871
G1 X59.728 Y24.64
G1 X59.795 Y24.413
G1 X59.865 Y24.189
G1 X59.939 Y23.968
G1 X60.016 Y23.749
G1 X60.097 Y23.533
G1 X60.18 Y23.319
G1 X60.265 Y23.109
G1 X60.353 Y22.903
G1 X60.443 Y22.7
G1 X60.535 Y22.501
G1 X60.63 Y22.305
G1 X60.728 Y22.113
G1 X60.828 Y21.923
G1 X60.93 Y21.737
G1 X61.034 Y21.555
G1 X61.141 Y21.376
G1 X61.251 Y21.2
G1 X61.362 Y21.028
G1 X61.476 Y20.858
G1 X61.592 Y20.692
G1 X61.711 Y20.529
G1 X61.832 Y20.37
G1 X61.955 Y20.213
G1 X62.081 Y20.06
G1 X62.209 Y19.909
G1 X62.339 Y19.762
G1 X62.472 Y19.618
G1 X62.608 Y19.476
G1 X62.746 Y19.336
G1 X62.887 Y19.199
G1 X63.03 Y19.066
G1 X63.174 Y18.935
G1 X63.321 Y18.807
G1 X63.47 Y18.682
G1 X63.621 Y18.56
G1 X63.774 Y18.442
G1 X63.93 Y18.325
G1 X64.087 Y18.212
G1 X64.246 Y18.102
G1 X64.407 Y17.995
G1 X64.571 Y17.89
G1 X64.736 Y17.789
G1 X64.905 Y17.689
G1 X65.075 Y17.593
G1 X65.247 Y17.5
G1 X65.422 Y17.41
G1 X65.599 Y17.322
G1 X65.778 Y17.237
G1 X65.96 Y17.155
G1 X66.145 Y17.076
G1 X66.331 Y17
G1 X66.52 Y16.926
G1 X66.712 Y16.855
G1 X66.906 Y16.787
G1 X67.101 Y16.722
G1 X67.299 Y16.659
G1 X67.497 Y16.6
G1 X67.698 Y16.544
G1 X67.9 Y16.49
G1 X68.103 Y16.44
G1 X68.309 Y16.393
G1 X68.516 Y16.348
G1 X68.725 Y16.307
G1 X68.936 Y16.268
G1 X69.148 Y16.233
G1 X69.363 Y16.201
G1 X69.579 Y16.172
G1 X69.797 Y16.145
G1 X70.017 Y16.122
G1 X70.238 Y16.102
G1 X70.462 Y16.085
G1 X70.687 Y16.071
G1 X70.914 Y16.06
G1 X71.144 Y16.052
G1 X71.375 Y16.047
G1 X71.607 Y16.046
G1 X71.839 Y16.047
G1 X72.07 Y16.052
G1 X72.299 Y16.06
G1 X72.526 Y16.071
G1 X72.751 Y16.086
G1 X72.974 Y16.103
G1 X73.196 Y16.123
G1 X73.416 Y16.147
G1 X73.634 Y16.174
G1 X73.85 Y16.204
G1 X74.065 Y16.237
G1 X74.279 Y16.273
G1 X74.49 Y16.312
G1 X74.7 Y16.354
G1 X74.908 Y16.4
G1 X75.115 Y16.448
G1 X75.319 Y16.499
G1 X75.523 Y16.554
G1 X75.725 Y16.612
G1 X75.925 Y16.672
G1 X76.123 Y16.736
G1 X76.321 Y16.803
G1 X76.516 Y16.873
G1 X76.71 Y16.945
G1 X76.9 Y17.021
G1 X77.089 Y17.099
G1 X77.275 Y17.18
G1 X77.459 Y17.265
G1 X77.641 Y17.352
G1 X77.819 Y17.441
G1 X77.996 Y17.534
G1 X78.171 Y17.629
G1 X78.343 Y17.727
G1 X78.514 Y17.828
G1 X78.682 Y17.932
G1 X78.847 Y18.038
G1 X79.011 Y18.148
G1 X79.173 Y18.26
G1 X79.332 Y18.376
G1 X79.49 Y18.494
G1 X79.645 Y18.615
G1 X79.798 Y18.739
G1 X79.949 Y18.866
G1 X80.098 Y18.996
G1 X80.245 Y19.129
G1 X80.391 Y19.265
G1 X80.534 Y19.404
G1 X80.674 Y19.546
G1 X80.813 Y19.69
G1 X80.948 Y19.837
G1 X81.081 Y19.987
G1 X81.212 Y20.14
G1 X81.341 Y20.296
G1 X81.467 Y20.455
G1 X81.591 Y20.617
G1 X81.713 Y20.782
G1 X81.832 Y20.951
G1 X81.949 Y21.122
G1 X82.064 Y21.297
G1 X82.176 Y21.475
G1 X82.287 Y21.656
G1 X82.395 Y21.841
G1 X82.5 Y22.028
G1 X82.604 Y22.219
G1 X82.705 Y22.414
G1 X82.803 Y22.611
G1 X82.9 Y22.812
G1 X82.994 Y23.016
G1 X83.086 Y23.224
G1 X83.175 Y23.435
G1 X83.262 Y23.649
G1 X83.346 Y23.867
G1 X83.427 Y24.084
G1 X83.504 Y24.303
G1 X83.577 Y24.525
G1 X83.647 Y24.751
G1 X83.714 Y24.98
G1 X83.778 Y25.213
G1 X83.838 Y25.449
G1 X83.896 Y25.688
G1 X83.949 Y25.93
G1 X84 Y26.176
G1 X84.047 Y26.425
G1 X84.09 Y26.678
G1 X84.131 Y26.934
G1 X84.167 Y27.193
G1 X84.201 Y27.456
G1 X84.231 Y27.723
G1 X84.257 Y27.992
G1 X84.28 Y28.266
G1 X84.3 Y28.542
G1 X84.316 Y28.822
G1 X84.328 Y29.106
G1 X84.337 Y29.392
G1 X84.342 Y29.683
G1 X84.344 Y29.961
G1 X84.338 Y29.991
G1 X84.319 Y30.016
G1 X84.291 Y30.03
G1 X84.261
G1 X83.925 Y29.965
G1 X82.997 Y29.975
G1 X82.663 Y30.046
G1 X82.632
G1 X82.604 Y30.032
G1 X82.585 Y30.008
G1 X82.578 Y29.978
G1 Z-5 F402.
G1 Y29.972 F1206.
G1 X82.577 Y29.72
G1 Y29.704
G1 X82.573 Y29.454
G1 Y29.439
G1 X82.567 Y29.192
G1 X82.566 Y29.177
G1 X82.558 Y28.933
G1 X82.557 Y28.916
G1 X82.546 Y28.675
G1 X82.545 Y28.659
G1 X82.531 Y28.421
G1 X82.53 Y28.403
G1 X82.514 Y28.168
G1 X82.513 Y28.151
G1 X82.494 Y27.918
G1 X82.493 Y27.901
G1 X82.472 Y27.671
G1 X82.47 Y27.652
G1 X82.446 Y27.425
G1 X82.444 Y27.407
G1 X82.418 Y27.182
G1 X82.416 Y27.164
G1 X82.388 Y26.943
G1 X82.385 Y26.924
G1 X82.354 Y26.705
G1 X82.351 Y26.685
G1 X82.318 Y26.469
G1 X82.315 Y26.45
G1 X82.279 Y26.237
G1 X82.275 Y26.216
G1 X82.237 Y26.005
G1 X82.233 Y25.985
G1 X82.192 Y25.778
G1 X82.188 Y25.757
G1 X82.144 Y25.552
G1 X82.139 Y25.531
G1 X82.094 Y25.329
G1 X82.088 Y25.307
G1 X82.04 Y25.108
G1 X82.035 Y25.086
G1 X81.984 Y24.89
G1 X81.978 Y24.867
G1 X81.924 Y24.673
G1 X81.918 Y24.651
G1 X81.862 Y24.46
G1 X81.855 Y24.437
G1 X81.797 Y24.249
G1 X81.79 Y24.228
G1 X81.73 Y24.043
G1 X81.723 Y24.023
G1 X81.661 Y23.84
G1 X81.654 Y23.821
G1 X81.59 Y23.641
G1 X81.582 Y23.62
G1 X81.516 Y23.443
G1 X81.509 Y23.424
G1 X81.441 Y23.249
G1 X81.433 Y23.229
G1 X81.363 Y23.057
G1 X81.354 Y23.036
G1 X81.282 Y22.867
G1 X81.273 Y22.845
G1 X81.199 Y22.678
G1 X81.19 Y22.658
G1 X81.114 Y22.494
G1 X81.104 Y22.472
G1 X81.026 Y22.311
G1 X81.016 Y22.289
G1 X80.937 Y22.13
G1 X80.925 Y22.108
G1 X80.844 Y21.952
G1 X80.832 Y21.93
G1 X80.749 Y21.777
G1 X80.737 Y21.755
G1 X80.652 Y21.604
G1 X80.639 Y21.582
G1 X80.552 Y21.433
G1 X80.538 Y21.411
G1 X80.449 Y21.265
G1 X80.435 Y21.243
G1 X80.345 Y21.1
G1 X80.329 Y21.076
G1 X80.237 Y20.936
G1 X80.222 Y20.914
G1 X80.127 Y20.777
G1 X80.111 Y20.754
G1 X80.015 Y20.619
G1 X79.998 Y20.596
G1 X79.899 Y20.464
G1 X79.882 Y20.441
G1 X79.782 Y20.312
G1 X79.764 Y20.289
G1 X79.662 Y20.162
G1 X79.643 Y20.139
G1 X79.539 Y20.015
G1 X79.521 Y19.994
G1 X79.415 Y19.872
G1 X79.397 Y19.852
G1 X79.29 Y19.733
G1 X79.271 Y19.713
G1 X79.162 Y19.596
G1 X79.144 Y19.577
G1 X79.033 Y19.463
G1 X79.014 Y19.443
G1 X78.902 Y19.332
G1 X78.882 Y19.313
G1 X78.769 Y19.204
G1 X78.748 Y19.184
G1 X78.633 Y19.079
G1 X78.612 Y19.06
G1 X78.496 Y18.957
G1 X78.474 Y18.938
G1 X78.357 Y18.838
G1 X78.334 Y18.819
G1 X78.215 Y18.721
G1 X78.192 Y18.702
G1 X78.071 Y18.607
G1 X78.048 Y18.589
G1 X77.926 Y18.497
G1 X77.902 Y18.479
G1 X77.778 Y18.389
G1 X77.754 Y18.372
G1 X77.628 Y18.284
G1 X77.605 Y18.268
G1 X77.478 Y18.183
G1 X77.452 Y18.167
G1 X77.324 Y18.085
G1 X77.298 Y18.069
G1 X77.169 Y17.989
G1 X77.144 Y17.975
G1 X77.013 Y17.898
G1 X76.986 Y17.883
G1 X76.854 Y17.809
G1 X76.827 Y17.794
G1 X76.693 Y17.723
G1 X76.667 Y17.709
G1 X76.531 Y17.64
G1 X76.504 Y17.627
G1 X76.367 Y17.561
G1 X76.34 Y17.548
G1 X76.201 Y17.485
G1 X76.174 Y17.473
G1 X76.034 Y17.412
G1 X76.009 Y17.401
G1 X75.867 Y17.343
G1 X75.843 Y17.333
G1 X75.701 Y17.277
G1 X75.677 Y17.268
G1 X75.533 Y17.215
G1 X75.509 Y17.206
G1 X75.365 Y17.155
G1 X75.34 Y17.146
G1 X75.195 Y17.098
G1 X75.171 Y17.09
G1 X75.026 Y17.044
G1 X75.001 Y17.037
G1 X74.854 Y16.993
G1 X74.83 Y16.986
G1 X74.682 Y16.945
G1 X74.656 Y16.938
G1 X74.508 Y16.9
G1 X74.484 Y16.894
G1 X74.334 Y16.858
G1 X74.309 Y16.852
G1 X74.159 Y16.819
G1 X74.134 Y16.813
G1 X73.982 Y16.782
G1 X73.957 Y16.777
G1 X73.805 Y16.749
G1 X73.78 Y16.744
G1 X73.627 Y16.718
G1 X73.603 Y16.715
G1 X73.449 Y16.691
G1 X73.424 Y16.687
G1 X73.27 Y16.666
G1 X73.245 Y16.663
G1 X73.089 Y16.645
G1 X73.065 Y16.642
G1 X72.908 Y16.626
G1 X72.884 Y16.624
G1 X72.727 Y16.61
G1 X72.702 Y16.608
G1 X72.543 Y16.597
G1 X72.52 Y16.595
G1 X72.36 Y16.587
G1 X72.337 Y16.586
G1 X72.176 Y16.579
G1 X72.153
G1 X71.992 Y16.575
G1 X71.969
G1 X71.807 Y16.573
G1 X71.783
G1 X71.62 Y16.575
G1 X71.598
G1 X71.437 Y16.579
G1 X71.413
G1 X71.252 Y16.586
G1 X71.229 Y16.587
G1 X71.069 Y16.595
G1 X71.046 Y16.597
G1 X70.886 Y16.608
G1 X70.862 Y16.61
G1 X70.703 Y16.623
G1 X70.68 Y16.626
G1 X70.522 Y16.642
G1 X70.498 Y16.644
G1 X70.341 Y16.663
G1 X70.317 Y16.666
G1 X70.16 Y16.687
G1 X70.136 Y16.691
G1 X69.98 Y16.714
G1 X69.957 Y16.718
G1 X69.802 Y16.744
G1 X69.778 Y16.748
G1 X69.624 Y16.777
G1 X69.599 Y16.782
G1 X69.446 Y16.813
G1 X69.422 Y16.818
G1 X69.269 Y16.851
G1 X69.245 Y16.857
G1 X69.093 Y16.893
G1 X69.069 Y16.899
G1 X68.918 Y16.937
G1 X68.893 Y16.944
G1 X68.743 Y16.985
G1 X68.719 Y16.991
G1 X68.57 Y17.034
G1 X68.546 Y17.042
G1 X68.397 Y17.088
G1 X68.374 Y17.095
G1 X68.226 Y17.143
G1 X68.201 Y17.151
G1 X68.054 Y17.202
G1 X68.031 Y17.21
G1 X67.884 Y17.264
G1 X67.861 Y17.272
G1 X67.715 Y17.328
G1 X67.692 Y17.337
G1 X67.547 Y17.396
G1 X67.523 Y17.405
G1 X67.378 Y17.466
G1 X67.352 Y17.478
G1 X67.209 Y17.541
G1 X67.182 Y17.553
G1 X67.041 Y17.62
G1 X67.014 Y17.633
G1 X66.874 Y17.701
G1 X66.848 Y17.715
G1 X66.71 Y17.786
G1 X66.683 Y17.8
G1 X66.547 Y17.874
G1 X66.52 Y17.889
G1 X66.386 Y17.966
G1 X66.36 Y17.981
G1 X66.227 Y18.06
G1 X66.202 Y18.075
G1 X66.07 Y18.157
G1 X66.045 Y18.174
G1 X65.915 Y18.258
G1 X65.89 Y18.275
G1 X65.762 Y18.362
G1 X65.737 Y18.379
G1 X65.61 Y18.469
G1 X65.586 Y18.487
G1 X65.461 Y18.579
G1 X65.438 Y18.596
G1 X65.315 Y18.692
G1 X65.291 Y18.71
G1 X65.169 Y18.808
G1 X65.146 Y18.827
G1 X65.026 Y18.927
G1 X65.004 Y18.946
G1 X64.885 Y19.049
G1 X64.863 Y19.068
G1 X64.746 Y19.174
G1 X64.725 Y19.194
G1 X64.609 Y19.302
G1 X64.589 Y19.321
G1 X64.475 Y19.432
G1 X64.455 Y19.452
G1 X64.342 Y19.566
G1 X64.323 Y19.586
G1 X64.212 Y19.702
G1 X64.193 Y19.722
G1 X64.083 Y19.841
G1 X64.065 Y19.862
G1 X63.957 Y19.983
G1 X63.939 Y20.004
G1 X63.833 Y20.128
G1 X63.814 Y20.151
G1 X63.71 Y20.278
G1 X63.692 Y20.3
G1 X63.59 Y20.429
G1 X63.572 Y20.452
G1 X63.472 Y20.584
G1 X63.456 Y20.606
G1 X63.357 Y20.741
G1 X63.341 Y20.764
G1 X63.244 Y20.901
G1 X63.228 Y20.924
G1 X63.133 Y21.064
G1 X63.119 Y21.086
G1 X63.026 Y21.229
G1 X63.012 Y21.251
G1 X62.92 Y21.397
G1 X62.907 Y21.419
G1 X62.817 Y21.567
G1 X62.804 Y21.589
G1 X62.717 Y21.74
G1 X62.705 Y21.762
G1 X62.619 Y21.916
G1 X62.607 Y21.938
G1 X62.523 Y22.094
G1 X62.512 Y22.116
G1 X62.431 Y22.275
G1 X62.42 Y22.296
G1 X62.34 Y22.457
G1 X62.33 Y22.479
G1 X62.252 Y22.643
G1 X62.242 Y22.665
G1 X62.166 Y22.831
G1 X62.157 Y22.851
G1 X62.083 Y23.021
G1 X62.074 Y23.042
G1 X62.002 Y23.214
G1 X61.994 Y23.234
G1 X61.924 Y23.409
G1 X61.916 Y23.429
G1 X61.847 Y23.607
G1 X61.84 Y23.627
G1 X61.773 Y23.807
G1 X61.766 Y23.826
G1 X61.702 Y24.009
G1 X61.695 Y24.028
G1 X61.633 Y24.213
G1 X61.625 Y24.236
G1 X61.565 Y24.424
G1 X61.558 Y24.447
G1 X61.5 Y24.638
G1 X61.493 Y24.661
G1 X61.438 Y24.855
G1 X61.432 Y24.878
G1 X61.38 Y25.074
G1 X61.374 Y25.097
G1 X61.324 Y25.296
G1 X61.318 Y25.318
G1 X61.271 Y25.52
G1 X61.266 Y25.543
G1 X61.221 Y25.748
G1 X61.217 Y25.769
G1 X61.174 Y25.976
G1 X61.17 Y25.997
G1 X61.131 Y26.208
G1 X61.127 Y26.229
G1 X61.09 Y26.442
G1 X61.086 Y26.462
G1 X61.052 Y26.678
G1 X61.049 Y26.699
G1 X61.017 Y26.918
G1 X61.014 Y26.937
G1 X60.985 Y27.158
G1 X60.982 Y27.178
G1 X60.956 Y27.402
G1 X60.953 Y27.421
G1 X60.929 Y27.648
G1 X60.927 Y27.666
G1 X60.906 Y27.897
G1 X60.904 Y27.914
G1 X60.885 Y28.147
G1 X60.884 Y28.165
G1 X60.867 Y28.401
G1 X60.866 Y28.418
G1 X60.852 Y28.657
G1 X60.851 Y28.673
G1 X60.84 Y28.915
G1 X60.839 Y28.931
G1 X60.83 Y29.175
G1 X60.829 Y29.191
G1 X60.823 Y29.438
G1 Y29.454
G1 X60.819 Y29.704
G1 Y29.719
G1 X60.817 Y29.972
G1 Y29.987
G1 X60.819 Y30.24
G1 Y30.254
G1 X60.823 Y30.504
G1 Y30.52
G1 X60.829 Y30.766
G1 X60.83 Y30.782
G1 X60.838 Y31.026
G1 X60.839 Y31.042
G1 X60.85 Y31.283
G1 X60.851 Y31.3
G1 X60.864 Y31.538
G1 X60.865 Y31.555
G1 X60.882 Y31.791
G1 X60.883 Y31.808
G1 X60.901 Y32.041
G1 X60.903 Y32.058
G1 X60.924 Y32.288
G1 X60.926 Y32.306
G1 X60.949 Y32.533
G1 X60.951 Y32.551
G1 X60.977 Y32.776
G1 X60.979 Y32.794
G1 X61.008 Y33.015
G1 X61.01 Y33.035
G1 X61.041 Y33.253
G1 X61.044 Y33.273
G1 X61.078 Y33.489
G1 X61.081 Y33.508
G1 X61.116 Y33.721
G1 X61.12 Y33.741
G1 X61.158 Y33.952
G1 X61.162 Y33.972
G1 X61.203 Y34.179
G1 X61.207 Y34.2
G1 X61.25 Y34.405
G1 X61.255 Y34.426
G1 X61.301 Y34.628
G1 X61.306 Y34.649
G1 X61.354 Y34.848
G1 X61.359 Y34.869
G1 X61.41 Y35.066
G1 X61.416 Y35.089
G1 X61.469 Y35.282
G1 X61.475 Y35.304
G1 X61.53 Y35.494
G1 X61.537 Y35.517
G1 X61.595 Y35.705
G1 X61.603 Y35.728
G1 X61.663 Y35.914
G1 X61.669 Y35.932
G1 X61.731 Y36.114
G1 X61.738 Y36.134
G1 X61.802 Y36.314
G1 X61.809 Y36.333
G1 X61.875 Y36.51
G1 X61.883 Y36.53
G1 X61.95 Y36.705
G1 X61.959 Y36.725
G1 X62.028 Y36.897
G1 X62.036 Y36.916
G1 X62.107 Y37.086
G1 X62.116 Y37.107
G1 X62.19 Y37.273
G1 X62.199 Y37.294
G1 X62.274 Y37.458
G1 X62.284 Y37.479
G1 X62.36 Y37.64
G1 X62.371 Y37.661
G1 X62.449 Y37.82
G1 X62.46 Y37.842
G1 X62.541 Y37.998
G1 X62.552 Y38.019
G1 X62.634 Y38.172
G1 X62.646 Y38.195
G1 X62.73 Y38.345
G1 X62.743 Y38.367
G1 X62.828 Y38.515
G1 X62.842 Y38.538
G1 X62.93 Y38.683
G1 X62.943 Y38.705
G1 X63.032 Y38.848
G1 X63.047 Y38.871
G1 X63.138 Y39.011
G1 X63.153 Y39.033
G1 X63.246 Y39.17
G1 X63.261 Y39.192
G1 X63.356 Y39.327
G1 X63.373 Y39.35
G1 X63.47 Y39.483
G1 X63.486 Y39.504
G1 X63.584 Y39.634
G1 X63.602 Y39.657
G1 X63.703 Y39.784
G1 X63.721 Y39.806
G1 X63.823 Y39.931
G1 X63.841 Y39.952
G1 X63.945 Y40.074
G1 X63.963 Y40.094
G1 X64.069 Y40.213
G1 X64.088 Y40.235
G1 X64.196 Y40.352
G1 X64.215 Y40.372
G1 X64.323 Y40.485
G1 X64.345 Y40.507
G1 X64.455 Y40.618
G1 X64.475 Y40.638
G1 X64.587 Y40.746
G1 X64.61 Y40.767
G1 X64.724 Y40.873
G1 X64.745 Y40.893
G1 X64.861 Y40.996
G1 X64.883 Y41.015
G1 X65 Y41.116
G1 X65.023 Y41.136
G1 X65.142 Y41.233
G1 X65.166 Y41.253
G1 X65.287 Y41.348
G1 X65.31 Y41.366
G1 X65.433 Y41.459
G1 X65.457 Y41.477
G1 X65.58 Y41.567
G1 X65.606 Y41.585
G1 X65.731 Y41.672
G1 X65.757 Y41.689
G1 X65.884 Y41.774
G1 X65.91 Y41.791
G1 X66.038 Y41.873
G1 X66.065 Y41.889
G1 X66.195 Y41.968
G1 X66.22 Y41.983
G1 X66.353 Y42.06
G1 X66.38 Y42.076
G1 X66.514 Y42.15
G1 X66.541 Y42.164
G1 X66.676 Y42.236
G1 X66.703 Y42.25
G1 X66.84 Y42.318
G1 X66.868 Y42.332
G1 X67.007 Y42.398
G1 X67.033 Y42.411
G1 X67.174 Y42.474
G1 X67.201 Y42.486
G1 X67.343 Y42.547
G1 X67.369 Y42.558
G1 X67.512 Y42.616
G1 X67.536 Y42.625
G1 X67.68 Y42.681
G1 X67.704 Y42.69
G1 X67.848 Y42.743
G1 X67.872 Y42.752
G1 X68.018 Y42.803
G1 X68.043 Y42.811
G1 X68.189 Y42.859
G1 X68.213 Y42.867
G1 X68.36 Y42.913
G1 X68.385 Y42.92
G1 X68.533 Y42.964
G1 X68.557 Y42.97
G1 X68.706 Y43.011
G1 X68.731 Y43.018
G1 X68.881 Y43.057
G1 X68.905 Y43.062
G1 X69.056 Y43.098
G1 X69.08 Y43.104
G1 X69.232 Y43.138
G1 X69.257 Y43.143
G1 X69.409 Y43.174
G1 X69.434 Y43.179
G1 X69.587 Y43.207
G1 X69.612 Y43.212
G1 X69.766 Y43.238
G1 X69.789 Y43.241
G1 X69.944 Y43.265
G1 X69.969 Y43.269
G1 X70.124 Y43.29
G1 X70.149 Y43.293
G1 X70.305 Y43.311
G1 X70.33 Y43.314
G1 X70.487 Y43.33
G1 X70.51 Y43.332
G1 X70.668 Y43.346
G1 X70.693 Y43.348
G1 X70.852 Y43.359
G1 X70.875 Y43.36
G1 X71.035 Y43.369
G1 X71.059 Y43.37
G1 X71.219 Y43.376
G1 X71.243 Y43.377
G1 X71.404 Y43.381
G1 X71.427
G1 X71.589 Y43.383
G1 X71.612
G1 X71.774 Y43.381
G1 X71.797
G1 X71.958 Y43.377
G1 X71.98
G1 X72.141 Y43.371
G1 X72.163 Y43.37
G1 X72.323 Y43.361
G1 X72.345 Y43.36
G1 X72.505 Y43.349
G1 X72.528 Y43.348
G1 X72.686 Y43.335
G1 X72.71 Y43.332
G1 X72.868 Y43.317
G1 X72.89 Y43.314
G1 X73.047 Y43.297
G1 X73.069 Y43.294
G1 X73.226 Y43.274
G1 X73.25 Y43.27
G1 X73.406 Y43.248
G1 X73.429 Y43.244
G1 X73.584 Y43.219
G1 X73.607 Y43.215
G1 X73.762 Y43.187
G1 X73.785 Y43.183
G1 X73.939 Y43.153
G1 X73.961 Y43.149
G1 X74.114 Y43.116
G1 X74.138 Y43.111
G1 X74.29 Y43.076
G1 X74.314 Y43.071
G1 X74.465 Y43.034
G1 X74.488 Y43.028
G1 X74.639 Y42.988
G1 X74.661 Y42.982
G1 X74.811 Y42.94
G1 X74.835 Y42.933
G1 X74.984 Y42.889
G1 X75.007 Y42.882
G1 X75.156 Y42.835
G1 X75.179 Y42.828
G1 X75.326 Y42.779
G1 X75.349 Y42.771
G1 X75.496 Y42.719
G1 X75.52 Y42.711
G1 X75.666 Y42.657
G1 X75.687 Y42.649
G1 X75.832 Y42.592
G1 X75.859 Y42.582
G1 X76.003 Y42.523
G1 X76.03 Y42.511
G1 X76.172 Y42.45
G1 X76.199 Y42.438
G1 X76.34 Y42.373
G1 X76.366 Y42.361
G1 X76.505 Y42.294
G1 X76.532 Y42.281
G1 X76.669 Y42.212
G1 X76.696 Y42.198
G1 X76.832 Y42.126
G1 X76.859 Y42.112
G1 X76.993 Y42.037
G1 X77.019 Y42.022
G1 X77.152 Y41.945
G1 X77.177 Y41.93
G1 X77.309 Y41.85
G1 X77.334 Y41.834
G1 X77.464 Y41.751
G1 X77.489 Y41.735
G1 X77.617 Y41.65
G1 X77.642 Y41.633
G1 X77.769 Y41.545
G1 X77.793 Y41.528
G1 X77.918 Y41.437
G1 X77.942 Y41.419
G1 X78.066 Y41.326
G1 X78.089 Y41.308
G1 X78.211 Y41.212
G1 X78.234 Y41.194
G1 X78.354 Y41.096
G1 X78.378 Y41.076
G1 X78.496 Y40.975
G1 X78.518 Y40.957
G1 X78.635 Y40.853
G1 X78.657 Y40.833
G1 X78.773 Y40.727
G1 X78.793 Y40.708
G1 X78.907 Y40.599
G1 X78.928 Y40.578
G1 X79.041 Y40.467
G1 X79.061 Y40.447
G1 X79.172 Y40.332
G1 X79.191 Y40.312
G1 X79.301 Y40.195
G1 X79.319 Y40.175
G1 X79.427 Y40.055
G1 X79.444 Y40.036
G1 X79.551 Y39.913
G1 X79.571 Y39.89
G1 X79.675 Y39.765
G1 X79.694 Y39.743
G1 X79.796 Y39.615
G1 X79.815 Y39.591
G1 X79.915 Y39.461
G1 X79.933 Y39.438
G1 X80.032 Y39.304
G1 X80.048 Y39.282
G1 X80.145 Y39.146
G1 X80.161 Y39.122
G1 X80.256 Y38.984
G1 X80.272 Y38.961
G1 X80.365 Y38.819
G1 X80.379 Y38.796
G1 X80.471 Y38.652
G1 X80.485 Y38.629
G1 X80.574 Y38.482
G1 X80.587 Y38.46
G1 X80.675 Y38.31
G1 X80.688 Y38.287
G1 X80.773 Y38.135
G1 X80.785 Y38.113
G1 X80.868 Y37.958
G1 X80.88 Y37.936
G1 X80.962 Y37.778
G1 X80.973 Y37.755
G1 X81.053 Y37.595
G1 X81.063 Y37.573
G1 X81.141 Y37.409
G1 X81.15 Y37.389
G1 X81.226 Y37.223
G1 X81.236 Y37.201
G1 X81.31 Y37.032
G1 X81.319 Y37.011
G1 X81.391 Y36.84
G1 X81.399 Y36.819
G1 X81.469 Y36.645
G1 X81.477 Y36.624
G1 X81.546 Y36.447
G1 X81.553 Y36.427
G1 X81.619 Y36.247
G1 X81.626 Y36.228
G1 X81.691 Y36.046
G1 X81.698 Y36.025
G1 X81.76 Y35.84
G1 X81.767 Y35.819
G1 X81.827 Y35.631
G1 X81.835 Y35.606
G1 X81.893 Y35.415
G1 X81.9 Y35.391
G1 X81.955 Y35.196
G1 X81.961 Y35.173
G1 X82.014 Y34.976
G1 X82.02 Y34.953
G1 X82.07 Y34.752
G1 X82.075 Y34.73
G1 X82.123 Y34.526
G1 X82.128 Y34.504
G1 X82.173 Y34.297
G1 X82.177 Y34.274
G1 X82.22 Y34.064
G1 X82.224 Y34.044
G1 X82.264 Y33.831
G1 X82.267 Y33.809
G1 X82.305 Y33.593
G1 X82.308 Y33.573
G1 X82.343 Y33.353
G1 X82.346 Y33.334
G1 X82.378 Y33.111
G1 X82.381 Y33.091
G1 X82.41 Y32.865
G1 X82.412 Y32.847
G1 X82.439 Y32.618
G1 X82.442 Y32.599
G1 X82.466 Y32.367
G1 X82.468 Y32.349
G1 X82.49 Y32.113
G1 X82.491 Y32.095
G1 X82.511 Y31.857
G1 X82.512 Y31.84
G1 X82.529 Y31.598
G1 X82.53 Y31.581
G1 X82.544 Y31.337
G1 X82.545 Y31.32
G1 X82.556 Y31.072
G1 X82.557 Y31.056
G1 X82.566 Y30.805
G1 Y30.79
G1 X82.573 Y30.535
G1 Y30.519
G1 X82.577 Y30.262
G1 Y30.247
G1 X82.578 Y29.987
G1 Y29.978
G3 X82.776 Y29.778 I0.2 J0
G1 X84.142 Y29.763
G3 X84.284 Y29.82 I0.002 J0.2
G3 X84.344 Y29.961 I-0.14 J0.143
G1 Y29.977
G1 X84.342 Y30.279
G1 X84.337 Y30.578
G1 X84.329 Y30.874
G1 X84.317 Y31.166
G1 X84.301 Y31.453
G1 X84.283 Y31.737
G1 X84.261 Y32.018
G1 X84.235 Y32.294
G1 X84.206 Y32.566
G1 X84.174 Y32.835
G1 X84.139 Y33.1
G1 X84.1 Y33.361
G1 X84.058 Y33.619
G1 X84.013 Y33.872
G1 X83.965 Y34.122
G1 X83.913 Y34.368
G1 X83.858 Y34.611
G1 X83.8 Y34.849
G1 X83.739 Y35.085
G1 X83.675 Y35.316
G1 X83.607 Y35.543
G1 X83.537 Y35.767
G1 X83.463 Y35.987
G1 X83.387 Y36.204
G1 X83.306 Y36.419
G1 X83.223 Y36.633
G1 X83.137 Y36.844
G1 X83.048 Y37.05
G1 X82.957 Y37.254
G1 X82.864 Y37.453
G1 X82.769 Y37.65
G1 X82.671 Y37.842
G1 X82.571 Y38.032
G1 X82.469 Y38.218
G1 X82.364 Y38.401
G1 X82.257 Y38.58
G1 X82.148 Y38.756
G1 X82.036 Y38.928
G1 X81.922 Y39.098
G1 X81.806 Y39.264
G1 X81.688 Y39.427
G1 X81.567 Y39.587
G1 X81.443 Y39.743
G1 X81.318 Y39.897
G1 X81.19 Y40.047
G1 X81.06 Y40.194
G1 X80.927 Y40.338
G1 X80.792 Y40.48
G1 X80.653 Y40.619
G1 X80.512 Y40.757
G1 X80.369 Y40.89
G1 X80.224 Y41.021
G1 X80.078 Y41.149
G1 X79.929 Y41.274
G1 X79.778 Y41.396
G1 X79.625 Y41.515
G1 X79.47 Y41.631
G1 X79.313 Y41.744
G1 X79.154 Y41.854
G1 X78.993 Y41.962
G1 X78.83 Y42.066
G1 X78.664 Y42.168
G1 X78.496 Y42.267
G1 X78.326 Y42.363
G1 X78.154 Y42.456
G1 X77.979 Y42.546
G1 X77.802 Y42.634
G1 X77.623 Y42.719
G1 X77.441 Y42.801
G1 X77.257 Y42.88
G1 X77.071 Y42.956
G1 X76.882 Y43.03
G1 X76.69 Y43.101
G1 X76.496 Y43.169
G1 X76.301 Y43.234
G1 X76.104 Y43.297
G1 X75.905 Y43.356
G1 X75.704 Y43.412
G1 X75.503 Y43.466
G1 X75.299 Y43.516
G1 X75.093 Y43.563
G1 X74.886 Y43.608
G1 X74.677 Y43.649
G1 X74.466 Y43.687
G1 X74.254 Y43.723
G1 X74.039 Y43.755
G1 X73.823 Y43.784
G1 X73.605 Y43.811
G1 X73.386 Y43.834
G1 X73.164 Y43.854
G1 X72.94 Y43.871
G1 X72.715 Y43.885
G1 X72.488 Y43.896
G1 X72.259 Y43.904
G1 X72.028 Y43.908
G1 X71.795 Y43.91
G1 X71.562 Y43.908
G1 X71.331 Y43.904
G1 X71.101 Y43.896
G1 X70.874 Y43.885
G1 X70.649 Y43.87
G1 X70.425 Y43.853
G1 X70.203 Y43.832
G1 X69.983 Y43.809
G1 X69.764 Y43.782
G1 X69.548 Y43.752
G1 X69.333 Y43.719
G1 X69.12 Y43.683
G1 X68.909 Y43.644
G1 X68.699 Y43.602
G1 X68.492 Y43.556
G1 X68.285 Y43.508
G1 X68.081 Y43.456
G1 X67.878 Y43.402
G1 X67.676 Y43.344
G1 X67.477 Y43.284
G1 X67.279 Y43.22
G1 X67.082 Y43.153
G1 X66.886 Y43.083
G1 X66.693 Y43.01
G1 X66.501 Y42.935
G1 X66.313 Y42.856
G1 X66.126 Y42.775
G1 X65.942 Y42.691
G1 X65.76 Y42.604
G1 X65.581 Y42.515
G1 X65.404 Y42.422
G1 X65.23 Y42.327
G1 X65.058 Y42.229
G1 X64.887 Y42.128
G1 X64.72 Y42.024
G1 X64.554 Y41.918
G1 X64.391 Y41.808
G1 X64.229 Y41.696
G1 X64.07 Y41.58
G1 X63.912 Y41.462
G1 X63.757 Y41.341
G1 X63.604 Y41.217
G1 X63.453 Y41.09
G1 X63.304 Y40.96
G1 X63.157 Y40.827
G1 X63.012 Y40.691
G1 X62.869 Y40.552
G1 X62.729 Y40.41
G1 X62.591 Y40.266
G1 X62.455 Y40.119
G1 X62.322 Y39.969
G1 X62.191 Y39.815
G1 X62.062 Y39.659
G1 X61.935 Y39.499
G1 X61.811 Y39.337
G1 X61.69 Y39.172
G1 X61.57 Y39.003
G1 X61.453 Y38.832
G1 X61.338 Y38.657
G1 X61.226 Y38.479
G1 X61.116 Y38.298
G1 X61.008 Y38.114
G1 X60.902 Y37.926
G1 X60.798 Y37.735
G1 X60.698 Y37.541
G1 X60.599 Y37.344
G1 X60.502 Y37.143
G1 X60.408 Y36.939
G1 X60.317 Y36.732
G1 X60.227 Y36.521
G1 X60.14 Y36.306
G1 X60.056 Y36.09
G1 X59.976 Y35.872
G1 X59.899 Y35.653
G1 X59.825 Y35.43
G1 X59.755 Y35.204
G1 X59.688 Y34.975
G1 X59.624 Y34.742
G1 X59.564 Y34.506
G1 X59.507 Y34.267
G1 X59.453 Y34.024
G1 X59.403 Y33.778
G1 X59.356 Y33.529
G1 X59.312 Y33.277
G1 X59.272 Y33.021
G1 X59.235 Y32.761
G1 X59.201 Y32.498
G1 X59.172 Y32.232
G1 X59.145 Y31.963
G1 X59.122 Y31.689
G1 X59.103 Y31.413
G1 X59.087 Y31.133
G1 X59.074 Y30.85
G1 X59.065 Y30.563
G1 X59.06 Y30.273
G1 X59.058 Y29.979
G1 X59.06 Y29.677
G1 X59.065 Y29.377
G1 X59.074 Y29.082
G1 X59.086 Y28.79
G1 X59.101 Y28.503
G1 X59.12 Y28.218
G1 X59.142 Y27.938
G1 X59.167 Y27.662
G1 X59.196 Y27.389
G1 X59.228 Y27.121
G1 X59.264 Y26.856
G1 X59.302 Y26.594
G1 X59.344 Y26.337
G1 X59.389 Y26.083
G1 X59.438 Y25.834
G1 X59.489 Y25.587
G1 X59.544 Y25.345
G1 X59.602 Y25.106
G1 X59.663 Y24.871
G1 X59.728 Y24.64
G1 X59.795 Y24.413
G1 X59.865 Y24.189
G1 X59.939 Y23.968
G1 X60.016 Y23.749
G1 X60.097 Y23.533
G1 X60.18 Y23.319
G1 X60.265 Y23.109
G1 X60.353 Y22.903
G1 X60.443 Y22.7
G1 X60.535 Y22.501
G1 X60.63 Y22.305
G1 X60.728 Y22.113
G1 X60.828 Y21.923
G1 X60.93 Y21.737
G1 X61.034 Y21.555
G1 X61.141 Y21.376
G1 X61.251 Y21.2
G1 X61.362 Y21.028
G1 X61.476 Y20.858
G1 X61.592 Y20.692
G1 X61.711 Y20.529
G1 X61.832 Y20.37
G1 X61.955 Y20.213
G1 X62.081 Y20.06
G1 X62.209 Y19.909
G1 X62.339 Y19.762
G1 X62.472 Y19.618
G1 X62.608 Y19.476
G1 X62.746 Y19.336
G1 X62.887 Y19.199
G1 X63.03 Y19.066
G1 X63.174 Y18.935
G1 X63.321 Y18.807
G1 X63.47 Y18.682
G1 X63.621 Y18.56
G1 X63.774 Y18.442
G1 X63.93 Y18.325
G1 X64.087 Y18.212
G1 X64.246 Y18.102
G1 X64.407 Y17.995
G1 X64.571 Y17.89
G1 X64.736 Y17.789
G1 X64.905 Y17.689
G1 X65.075 Y17.593
G1 X65.247 Y17.5
G1 X65.422 Y17.41
G1 X65.599 Y17.322
G1 X65.778 Y17.237
G1 X65.96 Y17.155
G1 X66.145 Y17.076
G1 X66.331 Y17
G1 X66.52 Y16.926
G1 X66.712 Y16.855
G1 X66.906 Y16.787
G1 X67.101 Y16.722
G1 X67.299 Y16.659
G1 X67.497 Y16.6
G1 X67.698 Y16.544
G1 X67.9 Y16.49
G1 X68.103 Y16.44
G1 X68.309 Y16.393
G1 X68.516 Y16.348
G1 X68.725 Y16.307
G1 X68.936 Y16.268
G1 X69.148 Y16.233
G1 X69.363 Y16.201
G1 X69.579 Y16.172
G1 X69.797 Y16.145
G1 X70.017 Y16.122
G1 X70.238 Y16.102
G1 X70.462 Y16.085
G1 X70.687 Y16.071
G1 X70.914 Y16.06
G1 X71.144 Y16.052
G1 X71.375 Y16.047
G1 X71.607 Y16.046
G1 X71.839 Y16.047
G1 X72.07 Y16.052
G1 X72.299 Y16.06
G1 X72.526 Y16.071
G1 X72.751 Y16.086
G1 X72.974 Y16.103
G1 X73.196 Y16.123
G1 X73.416 Y16.147
G1 X73.634 Y16.174
G1 X73.85 Y16.204
G1 X74.065 Y16.237
G1 X74.279 Y16.273
G1 X74.49 Y16.312
G1 X74.7 Y16.354
G1 X74.908 Y16.4
G1 X75.115 Y16.448
G1 X75.319 Y16.499
G1 X75.523 Y16.554
G1 X75.725 Y16.612
G1 X75.925 Y16.672
G1 X76.123 Y16.736
G1 X76.321 Y16.803
G1 X76.516 Y16.873
G1 X76.71 Y16.945
G1 X76.9 Y17.021
G1 X77.089 Y17.099
G1 X77.275 Y17.18
G1 X77.459 Y17.265
G1 X77.641 Y17.352
G1 X77.819 Y17.441
G1 X77.996 Y17.534
G1 X78.171 Y17.629
G1 X78.343 Y17.727
G1 X78.514 Y17.828
G1 X78.682 Y17.932
G1 X78.847 Y18.038
G1 X79.011 Y18.148
G1 X79.173 Y18.26
G1 X79.332 Y18.376
G1 X79.49 Y18.494
G1 X79.645 Y18.615
G1 X79.798 Y18.739
G1 X79.949 Y18.866
G1 X80.098 Y18.996
G1 X80.245 Y19.129
G1 X80.391 Y19.265
G1 X80.534 Y19.404
G1 X80.674 Y19.546
G1 X80.813 Y19.69
G1 X80.948 Y19.837
G1 X81.081 Y19.987
G1 X81.212 Y20.14
G1 X81.341 Y20.296
G1 X81.467 Y20.455
G1 X81.591 Y20.617
G1 X81.713 Y20.782
G1 X81.832 Y20.951
G1 X81.949 Y21.122
G1 X82.064 Y21.297
G1 X82.176 Y21.475
G1 X82.287 Y21.656
G1 X82.395 Y21.841
G1 X82.5 Y22.028
G1 X82.604 Y22.219
G1 X82.705 Y22.414
G1 X82.803 Y22.611
G1 X82.9 Y22.812
G1 X82.994 Y23.016
G1 X83.086 Y23.224
G1 X83.175 Y23.435
G1 X83.262 Y23.649
G1 X83.346 Y23.867
G1 X83.427 Y24.084
G1 X83.504 Y24.303
G1 X83.577 Y24.525
G1 X83.647 Y24.751
G1 X83.714 Y24.98
G1 X83.778 Y25.213
G1 X83.838 Y25.449
G1 X83.896 Y25.688
G1 X83.949 Y25.93
G1 X84 Y26.176
G1 X84.047 Y26.425
G1 X84.09 Y26.678
G1 X84.131 Y26.934
G1 X84.167 Y27.193
G1 X84.201 Y27.456
G1 X84.231 Y27.723
G1 X84.257 Y27.992
G1 X84.28 Y28.266
G1 X84.3 Y28.542
G1 X84.316 Y28.822
G1 X84.328 Y29.106
G1 X84.337 Y29.392
G1 X84.342 Y29.683
G1 X84.344 Y29.961
G1 Z9
G1 X-75.965 Y-14.867
G1 Z3
G1 Z-2 F402.
G1 X-80.529 Y-30.261 F1206.
G1 X-80.533 Y-30.273
G1 X-80.548 Y-30.321
G1 X-80.563 Y-30.371
G1 X-80.578 Y-30.421
G1 X-80.592 Y-30.471
G1 X-80.607 Y-30.522
G1 X-80.622 Y-30.574
G1 X-80.638 Y-30.627
G1 X-80.653 Y-30.682
G1 X-80.669 Y-30.737
G1 X-80.684 Y-30.793
G1 X-80.7 Y-30.849
G1 X-80.716 Y-30.907
G1 X-80.732 Y-30.966
G1 X-80.748 Y-31.026
G1 X-80.764 Y-31.087
G1 X-80.78 Y-31.148
G1 X-80.797 Y-31.211
G1 X-80.813 Y-31.275
G1 X-80.83 Y-31.338
G1 X-80.847 Y-31.405
G1 X-80.864 Y-31.471
G1 X-80.881 Y-31.537
G1 X-80.898 Y-31.605
G1 X-80.915 Y-31.675
G1 X-80.933 Y-31.746
G1 X-80.951 Y-31.818
G1 X-80.969 Y-31.89
G1 X-80.987 Y-31.963
G1 X-81.006 Y-32.036
G1 X-81.024 Y-32.11
G1 X-81.042 Y-32.183
G1 X-81.06 Y-32.256
G1 X-81.079 Y-32.333
G1 X-81.098 Y-32.407
G1 X-81.117 Y-32.483
G1 X-81.136 Y-32.559
G1 X-81.155 Y-32.636
G1 X-81.174 Y-32.713
G1 X-81.193 Y-32.79
G1 X-81.212 Y-32.867
G1 X-81.231 Y-32.945
G1 X-81.25 Y-33.023
G1 X-81.269 Y-33.101
G1 X-81.289 Y-33.182
G1 X-81.308 Y-33.261
G1 X-81.328 Y-33.34
G1 X-81.347 Y-33.42
G1 X-81.367 Y-33.501
G1 X-81.387 Y-33.581
G1 X-81.406 Y-33.661
G1 X-81.425 Y-33.74
G1 X-81.444 Y-33.82
G1 X-81.463 Y-33.9
G1 X-81.482 Y-33.98
G1 X-81.501 Y-34.06
G1 X-81.52 Y-34.14
G1 X-81.539 Y-34.219
G1 X-81.557 Y-34.299
G1 X-81.576 Y-34.379
G1 X-81.594 Y-34.459
G1 X-81.613 Y-34.539
G1 X-81.649 Y-34.7
G1 X-81.667 Y-34.779
G1 X-81.685 Y-34.858
G1 X-81.704 Y-34.94
G1 X-81.739 Y-35.1
G1 X-81.757 Y-35.179
G1 X-81.775 Y-35.26
G1 X-81.793 Y-35.34
G1 X-81.81 Y-35.419
G1 X-81.827 Y-35.497
G1 X-81.844 Y-35.576
G1 X-81.86 Y-35.653
G1 X-81.877 Y-35.73
G1 X-81.893 Y-35.807
G1 X-81.909 Y-35.884
G1 X-81.924 Y-35.96
G1 X-81.939 Y-36.034
G1 X-81.955 Y-36.11
G1 X-81.97 Y-36.185
G1 X-81.984 Y-36.258
G1 X-81.998 Y-36.332
G1 X-82.012 Y-36.405
G1 X-82.026 Y-36.478
G1 X-82.04 Y-36.55
G1 X-82.053 Y-36.622
G1 X-82.066 Y-36.693
G1 X-82.079 Y-36.764
G1 X-82.092 Y-36.835
G1 X-82.104 Y-36.905
G1 X-82.116 Y-36.974
G1 X-82.128 Y-37.043
G1 X-82.14 Y-37.112
G1 X-82.152 Y-37.184
G2 X-83.631 Y-38.434 I-1.479 J0.25
G1 X-83.726
G2 X-85.217 Y-37.102 I0 J1.5
G1 X-85.224 Y-37.034
G1 X-85.232 Y-36.967
G1 X-85.24 Y-36.9
G1 X-85.249 Y-36.833
G1 X-85.257 Y-36.765
G1 X-85.266 Y-36.697
G1 X-85.276 Y-36.628
G1 X-85.286 Y-36.558
G1 X-85.296 Y-36.489
G1 X-85.306 Y-36.418
G1 X-85.316 Y-36.348
G1 X-85.327 Y-36.276
G1 X-85.339 Y-36.205
G1 X-85.35 Y-36.133
G1 X-85.362 Y-36.059
G1 X-85.375 Y-35.986
G1 X-85.387 Y-35.914
G1 X-85.4 Y-35.84
G1 X-85.413 Y-35.764
G1 X-85.427 Y-35.69
G1 X-85.441 Y-35.615
G1 X-85.455 Y-35.539
G1 X-85.469 Y-35.463
G1 X-85.484 Y-35.385
G1 X-85.5 Y-35.307
G1 X-85.515 Y-35.229
G1 X-85.531 Y-35.151
G1 X-85.547 Y-35.072
G1 X-85.563 Y-34.993
G1 X-85.579 Y-34.915
G1 X-85.595 Y-34.837
G1 X-85.612 Y-34.758
G1 X-85.629 Y-34.679
G1 X-85.645 Y-34.601
G1 X-85.662 Y-34.522
G1 X-85.68 Y-34.444
G1 X-85.697 Y-34.365
G1 X-85.714 Y-34.287
G1 X-85.732 Y-34.208
G1 X-85.75 Y-34.129
G1 X-85.768 Y-34.051
G1 X-85.786 Y-33.973
G1 X-85.804 Y-33.894
G1 X-85.822 Y-33.816
G1 X-85.841 Y-33.737
G1 X-85.86 Y-33.658
G1 X-85.879 Y-33.58
G1 X-85.898 Y-33.501
G1 X-85.918 Y-33.42
G1 X-85.938 Y-33.339
G1 X-85.957 Y-33.258
G1 X-85.977 Y-33.177
G1 X-85.996 Y-33.097
G1 X-86.016 Y-33.018
G1 X-86.035 Y-32.938
G1 X-86.054 Y-32.861
G1 X-86.073 Y-32.78
G1 X-86.092 Y-32.703
G1 X-86.111 Y-32.625
G1 X-86.13 Y-32.547
G1 X-86.149 Y-32.469
G1 X-86.167 Y-32.393
G1 X-86.185 Y-32.317
G1 X-86.204 Y-32.239
G1 X-86.222 Y-32.164
G1 X-86.241 Y-32.089
G1 X-86.259 Y-32.014
G1 X-86.277 Y-31.939
G1 X-86.295 Y-31.864
G1 X-86.313 Y-31.79
G1 X-86.331 Y-31.716
G1 X-86.349 Y-31.645
G1 X-86.365 Y-31.576
G1 X-86.382 Y-31.507
G1 X-86.4 Y-31.439
G1 X-86.416 Y-31.373
G1 X-86.432 Y-31.309
G1 X-86.449 Y-31.245
G1 X-86.465 Y-31.182
G1 X-86.482 Y-31.12
G1 X-86.497 Y-31.06
G1 X-86.513 Y-31.002
G1 X-86.529 Y-30.944
G1 X-86.545 Y-30.887
G1 X-86.56 Y-30.832
G1 X-86.575 Y-30.778
G1 X-86.59 Y-30.725
G1 X-86.605 Y-30.674
G1 X-86.62 Y-30.625
G1 X-86.635 Y-30.575
G1 X-86.649 Y-30.527
G1 X-86.663 Y-30.482
G1 X-86.677 Y-30.438
G1 X-86.69 Y-30.395
G1 X-86.704 Y-30.353
G1 X-86.719 Y-30.307
G1 X-86.736 Y-30.253
G1 X-91.52 Y-13.665
G1 X-92.864
G1 X-84.763 Y-40.669
G1 X-82.638
G1 X-78.514 Y-25.814
G1 X-78.509 Y-25.799
G1 X-78.466 Y-25.648
G1 X-78.422 Y-25.497
G1 X-78.379 Y-25.345
G1 X-78.335 Y-25.191
G1 X-78.291 Y-25.036
G1 X-78.247 Y-24.881
G1 X-78.202 Y-24.724
G1 X-78.158 Y-24.565
G1 X-78.113 Y-24.406
G1 X-78.068 Y-24.246
G1 X-78.023 Y-24.084
G1 X-77.978 Y-23.921
G1 X-77.933 Y-23.757
G1 X-77.887 Y-23.592
G1 X-77.841 Y-23.426
G1 X-77.795 Y-23.258
G1 X-77.749 Y-23.089
G1 X-77.703 Y-22.919
G1 X-77.657 Y-22.748
G1 X-77.61 Y-22.576
G1 X-77.564 Y-22.403
G1 X-77.517 Y-22.228
G1 X-77.469 Y-22.052
G1 X-77.422 Y-21.876
G1 X-77.375 Y-21.699
G1 X-77.329 Y-21.523
G1 X-77.283 Y-21.347
G1 X-77.237 Y-21.171
G1 X-77.192 Y-20.995
G1 X-77.146 Y-20.819
G1 X-77.101 Y-20.643
G1 X-77.057 Y-20.467
G1 X-77.013 Y-20.291
G1 X-76.969 Y-20.115
G1 X-76.925 Y-19.938
G1 X-76.882 Y-19.763
G1 X-76.839 Y-19.586
G1 X-76.797 Y-19.411
G1 X-76.755 Y-19.235
G1 X-76.713 Y-19.058
G1 X-76.671 Y-18.883
G1 X-76.63 Y-18.707
G1 X-76.589 Y-18.53
G1 X-76.548 Y-18.354
G1 X-76.508 Y-18.179
G1 X-76.468 Y-18.002
G1 X-76.429 Y-17.826
G1 X-76.389 Y-17.649
G2 X-74.925 Y-16.476 I1.464 J-0.327
G1 X-74.83
G2 X-73.38 Y-17.592 I0 J-1.5
G1 X-73.356 Y-17.684
G1 X-73.331 Y-17.775
G1 X-73.308 Y-17.866
G1 X-73.284 Y-17.956
G1 X-73.26 Y-18.045
G1 X-73.236 Y-18.135
G1 X-73.213 Y-18.224
G1 X-73.19 Y-18.312
G1 X-73.167 Y-18.399
G1 X-73.144 Y-18.487
G1 X-73.121 Y-18.574
G1 X-73.098 Y-18.659
G1 X-73.075 Y-18.745
G1 X-73.053 Y-18.831
G1 X-73.03 Y-18.917
G1 X-73.008 Y-19
G1 X-72.986 Y-19.084
G1 X-72.963 Y-19.167
G1 X-72.941 Y-19.252
G1 X-72.919 Y-19.334
G1 X-72.897 Y-19.416
G1 X-72.875 Y-19.498
G1 X-72.854 Y-19.579
G1 X-72.832 Y-19.66
G1 X-72.81 Y-19.743
G1 X-72.788 Y-19.823
G1 X-72.766 Y-19.905
G1 X-72.745 Y-19.985
G1 X-72.723 Y-20.066
G1 X-72.701 Y-20.147
G1 X-72.679 Y-20.228
G1 X-72.658 Y-20.308
G1 X-72.636 Y-20.387
G1 X-72.614 Y-20.469
G1 X-72.593 Y-20.549
G1 X-72.571 Y-20.628
G1 X-72.55 Y-20.707
G1 X-72.528 Y-20.788
G1 X-72.506 Y-20.867
G1 X-72.485 Y-20.946
G1 X-72.462 Y-21.027
G1 X-72.441 Y-21.107
G1 X-72.419 Y-21.185
G1 X-72.398 Y-21.264
G1 X-72.375 Y-21.345
G1 X-72.354 Y-21.423
G1 X-72.332 Y-21.502
G1 X-72.31 Y-21.582
G1 X-72.289 Y-21.66
G1 X-72.267 Y-21.739
G1 X-72.245 Y-21.818
G1 X-72.223 Y-21.897
G1 X-72.201 Y-21.977
G1 X-72.178 Y-22.057
G1 X-72.156 Y-22.137
G1 X-72.133 Y-22.218
G1 X-72.11 Y-22.299
G1 X-72.087 Y-22.379
G1 X-72.064 Y-22.461
G1 X-72.041 Y-22.544
G1 X-72.017 Y-22.626
G1 X-71.993 Y-22.709
G1 X-71.969 Y-22.792
G1 X-71.945 Y-22.875
G1 X-71.921 Y-22.959
G1 X-71.897 Y-23.043
G1 X-71.872 Y-23.128
G1 X-71.847 Y-23.213
G1 X-71.822 Y-23.297
G1 X-71.798 Y-23.382
G1 X-71.772 Y-23.468
G1 X-71.747 Y-23.555
G1 X-71.719 Y-23.648
G1 X-71.694 Y-23.737
G1 X-71.668 Y-23.824
G1 X-71.642 Y-23.915
G1 X-71.616 Y-24.004
G1 X-71.59 Y-24.095
G1 X-71.563 Y-24.186
G1 X-71.537 Y-24.278
G1 X-71.51 Y-24.37
G1 X-71.484 Y-24.462
G1 X-71.457 Y-24.554
G1 X-71.43 Y-24.649
G1 X-71.403 Y-24.742
G1 X-71.376 Y-24.838
G1 X-71.349 Y-24.933
G1 X-71.321 Y-25.029
G1 X-71.294 Y-25.125
G1 X-71.267 Y-25.221
G1 X-71.239 Y-25.318
G1 X-71.211 Y-25.416
G1 X-71.183 Y-25.515
G1 X-71.155 Y-25.614
G1 X-71.128 Y-25.713
G1 X-71.101 Y-25.809
G1 X-66.841 Y-40.672
G1 X-64.666
G1 X-56.736 Y-13.669
G1 X-58.021
G1 X-62.615 Y-30.217
G1 X-62.621 Y-30.242
G1 X-62.633 Y-30.29
G1 X-62.646 Y-30.344
G1 X-62.659 Y-30.394
G1 X-62.672 Y-30.447
G1 X-62.686 Y-30.502
G1 X-62.699 Y-30.556
G1 X-62.713 Y-30.612
G1 X-62.727 Y-30.667
G1 X-62.742 Y-30.725
G1 X-62.757 Y-30.784
G1 X-62.772 Y-30.842
G1 X-62.787 Y-30.901
G1 X-62.802 Y-30.962
G1 X-62.818 Y-31.022
G1 X-62.834 Y-31.085
G1 X-62.85 Y-31.148
G1 X-62.866 Y-31.213
G1 X-62.883 Y-31.278
G1 X-62.9 Y-31.343
G1 X-62.917 Y-31.409
G1 X-62.934 Y-31.477
G1 X-62.952 Y-31.545
G1 X-62.969 Y-31.614
G1 X-62.987 Y-31.683
G1 X-63.005 Y-31.752
G1 X-63.022 Y-31.822
G1 X-63.04 Y-31.892
G1 X-63.058 Y-31.962
G1 X-63.076 Y-32.033
G1 X-63.094 Y-32.105
G1 X-63.113 Y-32.178
G1 X-63.131 Y-32.25
G1 X-63.149 Y-32.323
G1 X-63.168 Y-32.398
G1 X-63.186 Y-32.472
G1 X-63.205 Y-32.547
G1 X-63.223 Y-32.622
G1 X-63.242 Y-32.697
G1 X-63.261 Y-32.775
G1 X-63.28 Y-32.851
G1 X-63.299 Y-32.929
G1 X-63.318 Y-33.008
G1 X-63.338 Y-33.086
G1 X-63.357 Y-33.166
G1 X-63.377 Y-33.245
G1 X-63.396 Y-33.325
G1 X-63.416 Y-33.406
G1 X-63.437 Y-33.491
G1 X-63.457 Y-33.571
G1 X-63.476 Y-33.65
G1 X-63.495 Y-33.729
G1 X-63.514 Y-33.808
G1 X-63.533 Y-33.888
G1 X-63.552 Y-33.968
G1 X-63.571 Y-34.047
G1 X-63.59 Y-34.127
G1 X-63.608 Y-34.207
G1 X-63.627 Y-34.287
G1 X-63.645 Y-34.367
G1 X-63.663 Y-34.447
G1 X-63.682 Y-34.528
G1 X-63.7 Y-34.609
G1 X-63.718 Y-34.69
G1 X-63.736 Y-34.77
G1 X-63.754 Y-34.851
G1 X-63.772 Y-34.932
G1 X-63.79 Y-35.014
G1 X-63.807 Y-35.094
G1 X-63.825 Y-35.176
G1 X-63.843 Y-35.258
G1 X-63.86 Y-35.336
G1 X-63.876 Y-35.414
G1 X-63.893 Y-35.495
G1 X-63.909 Y-35.575
G1 X-63.925 Y-35.655
G1 X-63.941 Y-35.734
G1 X-63.957 Y-35.813
G1 X-63.973 Y-35.891
G1 X-63.988 Y-35.97
G1 X-64.003 Y-36.047
G1 X-64.018 Y-36.125
G1 X-64.033 Y-36.202
G1 X-64.047 Y-36.278
G1 X-64.061 Y-36.353
G1 X-64.075 Y-36.43
G1 X-64.089 Y-36.506
G1 X-64.103 Y-36.581
G1 X-64.116 Y-36.655
G1 X-64.129 Y-36.729
G1 X-64.141 Y-36.803
G1 X-64.154 Y-36.876
G1 X-64.166 Y-36.948
G1 X-64.178 Y-37.02
G1 X-64.19 Y-37.093
G1 X-64.202 Y-37.168
G2 X-65.683 Y-38.431 I-1.481 J0.237
G1 X-65.778
G2 X-67.257 Y-37.18 I0 J1.5
G1 X-67.269 Y-37.109
G1 X-67.281 Y-37.039
G1 X-67.293 Y-36.969
G1 X-67.305 Y-36.899
G1 X-67.317 Y-36.829
G1 X-67.33 Y-36.757
G1 X-67.343 Y-36.685
G1 X-67.356 Y-36.613
G1 X-67.37 Y-36.54
G1 X-67.383 Y-36.467
G1 X-67.397 Y-36.393
G1 X-67.411 Y-36.319
G1 X-67.426 Y-36.244
G1 X-67.44 Y-36.168
G1 X-67.455 Y-36.093
G1 X-67.47 Y-36.017
G1 X-67.486 Y-35.94
G1 X-67.501 Y-35.862
G1 X-67.517 Y-35.784
G1 X-67.533 Y-35.706
G1 X-67.55 Y-35.627
G1 X-67.566 Y-35.548
G1 X-67.583 Y-35.468
G1 X-67.6 Y-35.387
G1 X-67.618 Y-35.305
G1 X-67.636 Y-35.223
G1 X-67.653 Y-35.14
G1 X-67.671 Y-35.058
G1 X-67.689 Y-34.976
G1 X-67.707 Y-34.894
G1 X-67.724 Y-34.812
G1 X-67.742 Y-34.732
G1 X-67.76 Y-34.65
G1 X-67.778 Y-34.568
G1 X-67.795 Y-34.488
G1 X-67.813 Y-34.406
G1 X-67.831 Y-34.327
G1 X-67.848 Y-34.246
G1 X-67.866 Y-34.165
G1 X-67.884 Y-34.086
G1 X-67.902 Y-34.005
G1 X-67.919 Y-33.926
G1 X-67.937 Y-33.846
G1 X-67.955 Y-33.766
G1 X-67.972 Y-33.687
G1 X-67.99 Y-33.607
G1 X-68.008 Y-33.529
G1 X-68.025 Y-33.45
G1 X-68.043 Y-33.372
G1 X-68.061 Y-33.294
G1 X-68.078 Y-33.217
G1 X-68.096 Y-33.141
G1 X-68.113 Y-33.064
G1 X-68.131 Y-32.987
G1 X-68.148 Y-32.911
G1 X-68.166 Y-32.836
G1 X-68.183 Y-32.762
G1 X-68.201 Y-32.686
G1 X-68.219 Y-32.611
G1 X-68.236 Y-32.537
G1 X-68.254 Y-32.463
G1 X-68.271 Y-32.391
G1 X-68.289 Y-32.317
G1 X-68.306 Y-32.244
G1 X-68.324 Y-32.172
G1 X-68.341 Y-32.1
G1 X-68.359 Y-32.028
G1 X-68.376 Y-31.957
G1 X-68.393 Y-31.887
G1 X-68.411 Y-31.815
G1 X-68.429 Y-31.744
G1 X-68.446 Y-31.675
G1 X-68.465 Y-31.599
G1 X-68.481 Y-31.532
G1 X-68.498 Y-31.466
G1 X-68.514 Y-31.401
G1 X-68.53 Y-31.337
G1 X-68.547 Y-31.274
G1 X-68.563 Y-31.21
G1 X-68.58 Y-31.148
G1 X-68.596 Y-31.087
G1 X-68.612 Y-31.027
G1 X-68.628 Y-30.968
G1 X-68.644 Y-30.909
G1 X-68.66 Y-30.852
G1 X-68.675 Y-30.796
G1 X-68.691 Y-30.739
G1 X-68.707 Y-30.684
G1 X-68.722 Y-30.631
G1 X-68.737 Y-30.577
G1 X-68.753 Y-30.524
G1 X-68.768 Y-30.473
G1 X-68.783 Y-30.423
G1 X-68.798 Y-30.372
G1 X-68.813 Y-30.323
G1 X-68.828 Y-30.274
G1 X-73.932 Y-13.665
G1 X-75.609
G1 X-75.965 Y-14.867
G1 X-75.967 Y-14.901
G1 X-75.954 Y-14.932
G1 X-75.928 Y-14.954
G1 X-75.634 Y-15.121
G1 X-75.031 Y-16.102
G1 X-74.992 Y-16.415
G1 X-74.985 Y-16.439
G1 X-74.97 Y-16.458
G1 X-74.949 Y-16.471
G1 X-74.925 Y-16.476
G1 Z-4 F402.
G1 X-74.83 F1206.
G2 X-73.38 Y-17.592 I0 J-1.5
G1 X-73.356 Y-17.684
G1 X-73.331 Y-17.775
G1 X-73.308 Y-17.866
G1 X-73.284 Y-17.956
G1 X-73.26 Y-18.045
G1 X-73.236 Y-18.135
G1 X-73.213 Y-18.224
G1 X-73.19 Y-18.312
G1 X-73.167 Y-18.399
G1 X-73.144 Y-18.487
G1 X-73.121 Y-18.574
G1 X-73.098 Y-18.659
G1 X-73.075 Y-18.745
G1 X-73.053 Y-18.831
G1 X-73.03 Y-18.917
G1 X-73.008 Y-19
G1 X-72.986 Y-19.084
G1 X-72.963 Y-19.167
G1 X-72.941 Y-19.252
G1 X-72.919 Y-19.334
G1 X-72.897 Y-19.416
G1 X-72.875 Y-19.498
G1 X-72.854 Y-19.579
G1 X-72.832 Y-19.66
G1 X-72.81 Y-19.743
G1 X-72.788 Y-19.823
G1 X-72.766 Y-19.905
G1 X-72.745 Y-19.985
G1 X-72.723 Y-20.066
G1 X-72.701 Y-20.147
G1 X-72.679 Y-20.228
G1 X-72.658 Y-20.308
G1 X-72.636 Y-20.387
G1 X-72.614 Y-20.469
G1 X-72.593 Y-20.549
G1 X-72.571 Y-20.628
G1 X-72.55 Y-20.707
G1 X-72.528 Y-20.788
G1 X-72.506 Y-20.867
G1 X-72.485 Y-20.946
G1 X-72.462 Y-21.027
G1 X-72.441 Y-21.107
G1 X-72.419 Y-21.185
G1 X-72.398 Y-21.264
G1 X-72.375 Y-21.345
G1 X-72.354 Y-21.423
G1 X-72.332 Y-21.502
G1 X-72.31 Y-21.582
G1 X-72.289 Y-21.66
G1 X-72.267 Y-21.739
G1 X-72.245 Y-21.818
G1 X-72.223 Y-21.897
G1 X-72.201 Y-21.977
G1 X-72.178 Y-22.057
G1 X-72.156 Y-22.137
G1 X-72.133 Y-22.218
G1 X-72.11 Y-22.299
G1 X-72.087 Y-22.379
G1 X-72.064 Y-22.461
G1 X-72.041 Y-22.544
G1 X-72.017 Y-22.626
G1 X-71.993 Y-22.709
G1 X-71.969 Y-22.792
G1 X-71.945 Y-22.875
G1 X-71.921 Y-22.959
G1 X-71.897 Y-23.043
G1 X-71.872 Y-23.128
G1 X-71.847 Y-23.213
G1 X-71.822 Y-23.297
G1 X-71.798 Y-23.382
G1 X-71.772 Y-23.468
G1 X-71.747 Y-23.555
G1 X-71.719 Y-23.648
G1 X-71.694 Y-23.737
G1 X-71.668 Y-23.824
G1 X-71.642 Y-23.915
G1 X-71.616 Y-24.004
G1 X-71.59 Y-24.095
G1 X-71.563 Y-24.186
G1 X-71.537 Y-24.278
G1 X-71.51 Y-24.37
G1 X-71.484 Y-24.462
G1 X-71.457 Y-24.554
G1 X-71.43 Y-24.649
G1 X-71.403 Y-24.742
G1 X-71.376 Y-24.838
G1 X-71.349 Y-24.933
G1 X-71.321 Y-25.029
G1 X-71.294 Y-25.125
G1 X-71.267 Y-25.221
G1 X-71.239 Y-25.318
G1 X-71.211 Y-25.416
G1 X-71.183 Y-25.515
G1 X-71.155 Y-25.614
G1 X-71.128 Y-25.713
G1 X-71.101 Y-25.809
G1 X-66.841 Y-40.672
G1 X-64.666
G1 X-56.736 Y-13.669
G1 X-58.021
G1 X-62.615 Y-30.217
G1 X-62.621 Y-30.242
G1 X-62.633 Y-30.29
G1 X-62.646 Y-30.344
G1 X-62.659 Y-30.394
G1 X-62.672 Y-30.447
G1 X-62.686 Y-30.502
G1 X-62.699 Y-30.556
G1 X-62.713 Y-30.612
G1 X-62.727 Y-30.667
G1 X-62.742 Y-30.725
G1 X-62.757 Y-30.784
G1 X-62.772 Y-30.842
G1 X-62.787 Y-30.901
G1 X-62.802 Y-30.962
G1 X-62.818 Y-31.022
G1 X-62.834 Y-31.085
G1 X-62.85 Y-31.148
G1 X-62.866 Y-31.213
G1 X-62.883 Y-31.278
G1 X-62.9 Y-31.343
G1 X-62.917 Y-31.409
G1 X-62.934 Y-31.477
G1 X-62.952 Y-31.545
G1 X-62.969 Y-31.614
G1 X-62.987 Y-31.683
G1 X-63.005 Y-31.752
G1 X-63.022 Y-31.822
G1 X-63.04 Y-31.892
G1 X-63.058 Y-31.962
G1 X-63.076 Y-32.033
G1 X-63.094 Y-32.105
G1 X-63.113 Y-32.178
G1 X-63.131 Y-32.25
G1 X-63.149 Y-32.323
G1 X-63.168 Y-32.398
G1 X-63.186 Y-32.472
G1 X-63.205 Y-32.547
G1 X-63.223 Y-32.622
G1 X-63.242 Y-32.697
G1 X-63.261 Y-32.775
G1 X-63.28 Y-32.851
G1 X-63.299 Y-32.929
G1 X-63.318 Y-33.008
G1 X-63.338 Y-33.086
G1 X-63.357 Y-33.166
G1 X-63.377 Y-33.245
G1 X-63.396 Y-33.325
G1 X-63.416 Y-33.406
G1 X-63.437 Y-33.491
G1 X-63.457 Y-33.571
G1 X-63.476 Y-33.65
G1 X-63.495 Y-33.729
G1 X-63.514 Y-33.808
G1 X-63.533 Y-33.888
G1 X-63.552 Y-33.968
G1 X-63.571 Y-34.047
G1 X-63.59 Y-34.127
G1 X-63.608 Y-34.207
G1 X-63.627 Y-34.287
G1 X-63.645 Y-34.367
G1 X-63.663 Y-34.447
G1 X-63.682 Y-34.528
G1 X-63.7 Y-34.609
G1 X-63.718 Y-34.69
G1 X-63.736 Y-34.77
G1 X-63.754 Y-34.851
G1 X-63.772 Y-34.932
G1 X-63.79 Y-35.014
G1 X-63.807 Y-35.094
G1 X-63.825 Y-35.176
G1 X-63.843 Y-35.258
G1 X-63.86 Y-35.336
G1 X-63.876 Y-35.414
G1 X-63.893 Y-35.495
G1 X-63.909 Y-35.575
G1 X-63.925 Y-35.655
G1 X-63.941 Y-35.734
G1 X-63.957 Y-35.813
G1 X-63.973 Y-35.891
G1 X-63.988 Y-35.97
G1 X-64.003 Y-36.047
G1 X-64.018 Y-36.125
G1 X-64.033 Y-36.202
G1 X-64.047 Y-36.278
G1 X-64.061 Y-36.353
G1 X-64.075 Y-36.43
G1 X-64.089 Y-36.506
G1 X-64.103 Y-36.581
G1 X-64.116 Y-36.655
G1 X-64.129 Y-36.729
G1 X-64.141 Y-36.803
G1 X-64.154 Y-36.876
G1 X-64.166 Y-36.948
G1 X-64.178 Y-37.02
G1 X-64.19 Y-37.093
G1 X-64.202 Y-37.168
G2 X-65.683 Y-38.431 I-1.481 J0.237
G1 X-65.778
G2 X-67.257 Y-37.18 I0 J1.5
G1 X-67.269 Y-37.109
G1 X-67.281 Y-37.039
G1 X-67.293 Y-36.969
G1 X-67.305 Y-36.899
G1 X-67.317 Y-36.829
G1 X-67.33 Y-36.757
G1 X-67.343 Y-36.685
G1 X-67.356 Y-36.613
G1 X-67.37 Y-36.54
G1 X-67.383 Y-36.467
G1 X-67.397 Y-36.393
G1 X-67.411 Y-36.319
G1 X-67.426 Y-36.244
G1 X-67.44 Y-36.168
G1 X-67.455 Y-36.093
G1 X-67.47 Y-36.017
G1 X-67.486 Y-35.94
G1 X-67.501 Y-35.862
G1 X-67.517 Y-35.784
G1 X-67.533 Y-35.706
G1 X-67.55 Y-35.627
G1 X-67.566 Y-35.548
G1 X-67.583 Y-35.468
G1 X-67.6 Y-35.387
G1 X-67.618 Y-35.305
G1 X-67.636 Y-35.223
G1 X-67.653 Y-35.14
G1 X-67.671 Y-35.058
G1 X-67.689 Y-34.976
G1 X-67.707 Y-34.894
G1 X-67.724 Y-34.812
G1 X-67.742 Y-34.732
G1 X-67.76 Y-34.65
G1 X-67.778 Y-34.568
G1 X-67.795 Y-34.488
G1 X-67.813 Y-34.406
G1 X-67.831 Y-34.327
G1 X-67.848 Y-34.246
G1 X-67.866 Y-34.165
G1 X-67.884 Y-34.086
G1 X-67.902 Y-34.005
G1 X-67.919 Y-33.926
G1 X-67.937 Y-33.846
G1 X-67.955 Y-33.766
G1 X-67.972 Y-33.687
G1 X-67.99 Y-33.607
G1 X-68.008 Y-33.529
G1 X-68.025 Y-33.45
G1 X-68.043 Y-33.372
G1 X-68.061 Y-33.294
G1 X-68.078 Y-33.217
G1 X-68.096 Y-33.141
G1 X-68.113 Y-33.064
G1 X-68.131 Y-32.987
G1 X-68.148 Y-32.911
G1 X-68.166 Y-32.836
G1 X-68.183 Y-32.762
G1 X-68.201 Y-32.686
G1 X-68.219 Y-32.611
G1 X-68.236 Y-32.537
G1 X-68.254 Y-32.463
G1 X-68.271 Y-32.391
G1 X-68.289 Y-32.317
G1 X-68.306 Y-32.244
G1 X-68.324 Y-32.172
G1 X-68.341 Y-32.1
G1 X-68.359 Y-32.028
G1 X-68.376 Y-31.957
G1 X-68.393 Y-31.887
G1 X-68.411 Y-31.815
G1 X-68.429 Y-31.744
G1 X-68.446 Y-31.675
G1 X-68.465 Y-31.599
G1 X-68.481 Y-31.532
G1 X-68.498 Y-31.466
G1 X-68.514 Y-31.401
G1 X-68.53 Y-31.337
G1 X-68.547 Y-31.274
G1 X-68.563 Y-31.21
G1 X-68.58 Y-31.148
G1 X-68.596 Y-31.087
G1 X-68.612 Y-31.027
G1 X-68.628 Y-30.968
G1 X-68.644 Y-30.909
G1 X-68.66 Y-30.852
G1 X-68.675 Y-30.796
G1 X-68.691 Y-30.739
G1 X-68.707 Y-30.684
G1 X-68.722 Y-30.631
G1 X-68.737 Y-30.577
G1 X-68.753 Y-30.524
G1 X-68.768 Y-30.473
G1 X-68.783 Y-30.423
G1 X-68.798 Y-30.372
G1 X-68.813 Y-30.323
G1 X-68.828 Y-30.274
G1 X-73.932 Y-13.665
G1 X-75.609
G1 X-80.529 Y-30.261
G1 X-80.533 Y-30.273
G1 X-80.548 Y-30.321
G1 X-80.563 Y-30.371
G1 X-80.578 Y-30.421
G1 X-80.592 Y-30.471
G1 X-80.607 Y-30.522
G1 X-80.622 Y-30.574
G1 X-80.638 Y-30.627
G1 X-80.653 Y-30.682
G1 X-80.669 Y-30.737
G1 X-80.684 Y-30.793
G1 X-80.7 Y-30.849
G1 X-80.716 Y-30.907
G1 X-80.732 Y-30.966
G1 X-80.748 Y-31.026
G1 X-80.764 Y-31.087
G1 X-80.78 Y-31.148
G1 X-80.797 Y-31.211
G1 X-80.813 Y-31.275
G1 X-80.83 Y-31.338
G1 X-80.847 Y-31.405
G1 X-80.864 Y-31.471
G1 X-80.881 Y-31.537
G1 X-80.898 Y-31.605
G1 X-80.915 Y-31.675
G1 X-80.933 Y-31.746
G1 X-80.951 Y-31.818
G1 X-80.969 Y-31.89
G1 X-80.987 Y-31.963
G1 X-81.006 Y-32.036
G1 X-81.024 Y-32.11
G1 X-81.042 Y-32.183
G1 X-81.06 Y-32.256
G1 X-81.079 Y-32.333
G1 X-81.098 Y-32.407
G1 X-81.117 Y-32.483
G1 X-81.136 Y-32.559
G1 X-81.155 Y-32.636
G1 X-81.174 Y-32.713
G1 X-81.193 Y-32.79
G1 X-81.212 Y-32.867
G1 X-81.231 Y-32.945
G1 X-81.25 Y-33.023
G1 X-81.269 Y-33.101
G1 X-81.289 Y-33.182
G1 X-81.308 Y-33.261
G1 X-81.328 Y-33.34
G1 X-81.347 Y-33.42
G1 X-81.367 Y-33.501
G1 X-81.387 Y-33.581
G1 X-81.406 Y-33.661
G1 X-81.425 Y-33.74
G1 X-81.444 Y-33.82
G1 X-81.463 Y-33.9
G1 X-81.482 Y-33.98
G1 X-81.501 Y-34.06
G1 X-81.52 Y-34.14
G1 X-81.539 Y-34.219
G1 X-81.557 Y-34.299
G1 X-81.576 Y-34.379
G1 X-81.594 Y-34.459
G1 X-81.613 Y-34.539
G1 X-81.649 Y-34.7
G1 X-81.667 Y-34.779
G1 X-81.685 Y-34.858
G1 X-81.704 Y-34.94
G1 X-81.739 Y-35.1
G1 X-81.757 Y-35.179
G1 X-81.775 Y-35.26
G1 X-81.793 Y-35.34
G1 X-81.81 Y-35.419
G1 X-81.827 Y-35.497
G1 X-81.844 Y-35.576
G1 X-81.86 Y-35.653
G1 X-81.877 Y-35.73
G1 X-81.893 Y-35.807
G1 X-81.909 Y-35.884
G1 X-81.924 Y-35.96
G1 X-81.939 Y-36.034
G1 X-81.955 Y-36.11
G1 X-81.97 Y-36.185
G1 X-81.984 Y-36.258
G1 X-81.998 Y-36.332
G1 X-82.012 Y-36.405
G1 X-82.026 Y-36.478
G1 X-82.04 Y-36.55
G1 X-82.053 Y-36.622
G1 X-82.066 Y-36.693
G1 X-82.079 Y-36.764
G1 X-82.092 Y-36.835
G1 X-82.104 Y-36.905
G1 X-82.116 Y-36.974
G1 X-82.128 Y-37.043
G1 X-82.14 Y-37.112
G1 X-82.152 Y-37.184
G2 X-83.631 Y-38.434 I-1.479 J0.25
G1 X-83.726
G2 X-85.217 Y-37.102 I0 J1.5
G1 X-85.224 Y-37.034
G1 X-85.232 Y-36.967
G1 X-85.24 Y-36.9
G1 X-85.249 Y-36.833
G1 X-85.257 Y-36.765
G1 X-85.266 Y-36.697
G1 X-85.276 Y-36.628
G1 X-85.286 Y-36.558
G1 X-85.296 Y-36.489
G1 X-85.306 Y-36.418
G1 X-85.316 Y-36.348
G1 X-85.327 Y-36.276
G1 X-85.339 Y-36.205
G1 X-85.35 Y-36.133
G1 X-85.362 Y-36.059
G1 X-85.375 Y-35.986
G1 X-85.387 Y-35.914
G1 X-85.4 Y-35.84
G1 X-85.413 Y-35.764
G1 X-85.427 Y-35.69
G1 X-85.441 Y-35.615
G1 X-85.455 Y-35.539
G1 X-85.469 Y-35.463
G1 X-85.484 Y-35.385
G1 X-85.5 Y-35.307
G1 X-85.515 Y-35.229
G1 X-85.531 Y-35.151
G1 X-85.547 Y-35.072
G1 X-85.563 Y-34.993
G1 X-85.579 Y-34.915
G1 X-85.595 Y-34.837
G1 X-85.612 Y-34.758
G1 X-85.629 Y-34.679
G1 X-85.645 Y-34.601
G1 X-85.662 Y-34.522
G1 X-85.68 Y-34.444
G1 X-85.697 Y-34.365
G1 X-85.714 Y-34.287
G1 X-85.732 Y-34.208
G1 X-85.75 Y-34.129
G1 X-85.768 Y-34.051
G1 X-85.786 Y-33.973
G1 X-85.804 Y-33.894
G1 X-85.822 Y-33.816
G1 X-85.841 Y-33.737
G1 X-85.86 Y-33.658
G1 X-85.879 Y-33.58
G1 X-85.898 Y-33.501
G1 X-85.918 Y-33.42
G1 X-85.938 Y-33.339
G1 X-85.957 Y-33.258
G1 X-85.977 Y-33.177
G1 X-85.996 Y-33.097
G1 X-86.016 Y-33.018
G1 X-86.035 Y-32.938
G1 X-86.054 Y-32.861
G1 X-86.073 Y-32.78
G1 X-86.092 Y-32.703
G1 X-86.111 Y-32.625
G1 X-86.13 Y-32.547
G1 X-86.149 Y-32.469
G1 X-86.167 Y-32.393
G1 X-86.185 Y-32.317
G1 X-86.204 Y-32.239
G1 X-86.222 Y-32.164
G1 X-86.241 Y-32.089
G1 X-86.259 Y-32.014
G1 X-86.277 Y-31.939
G1 X-86.295 Y-31.864
G1 X-86.313 Y-31.79
G1 X-86.331 Y-31.716
G1 X-86.349 Y-31.645
G1 X-86.365 Y-31.576
G1 X-86.382 Y-31.507
G1 X-86.4 Y-31.439
G1 X-86.416 Y-31.373
G1 X-86.432 Y-31.309
G1 X-86.449 Y-31.245
G1 X-86.465 Y-31.182
G1 X-86.482 Y-31.12
G1 X-86.497 Y-31.06
G1 X-86.513 Y-31.002
G1 X-86.529 Y-30.944
G1 X-86.545 Y-30.887
G1 X-86.56 Y-30.832
G1 X-86.575 Y-30.778
G1 X-86.59 Y-30.725
G1 X-86.605 Y-30.674
G1 X-86.62 Y-30.625
G1 X-86.635 Y-30.575
G1 X-86.649 Y-30.527
G1 X-86.663 Y-30.482
G1 X-86.677 Y-30.438
G1 X-86.69 Y-30.395
G1 X-86.704 Y-30.353
G1 X-86.719 Y-30.307
G1 X-86.736 Y-30.253
G1 X-91.52 Y-13.665
G1 X-92.864
G1 X-84.763 Y-40.669
G1 X-82.638
G1 X-78.514 Y-25.814
G1 X-78.509 Y-25.799
G1 X-78.466 Y-25.648
G1 X-78.422 Y-25.497
G1 X-78.379 Y-25.345
G1 X-78.335 Y-25.191
G1 X-78.291 Y-25.036
G1 X-78.247 Y-24.881
G1 X-78.202 Y-24.724
G1 X-78.158 Y-24.565
G1 X-78.113 Y-24.406
G1 X-78.068 Y-24.246
G1 X-78.023 Y-24.084
G1 X-77.978 Y-23.921
G1 X-77.933 Y-23.757
G1 X-77.887 Y-23.592
G1 X-77.841 Y-23.426
G1 X-77.795 Y-23.258
G1 X-77.749 Y-23.089
G1 X-77.703 Y-22.919
G1 X-77.657 Y-22.748
G1 X-77.61 Y-22.576
G1 X-77.564 Y-22.403
G1 X-77.517 Y-22.228
G1 X-77.469 Y-22.052
G1 X-77.422 Y-21.876
G1 X-77.375 Y-21.699
G1 X-77.329 Y-21.523
G1 X-77.283 Y-21.347
G1 X-77.237 Y-21.171
G1 X-77.192 Y-20.995
G1 X-77.146 Y-20.819
G1 X-77.101 Y-20.643
G1 X-77.057 Y-20.467
G1 X-77.013 Y-20.291
G1 X-76.969 Y-20.115
G1 X-76.925 Y-19.938
G1 X-76.882 Y-19.763
G1 X-76.839 Y-19.586
G1 X-76.797 Y-19.411
G1 X-76.755 Y-19.235
G1 X-76.713 Y-19.058
G1 X-76.671 Y-18.883
G1 X-76.63 Y-18.707
G1 X-76.589 Y-18.53
G1 X-76.548 Y-18.354
G1 X-76.508 Y-18.179
G1 X-76.468 Y-18.002
G1 X-76.429 Y-17.826
G1 X-76.389 Y-17.649
G2 X-74.925 Y-16.476 I1.464 J-0.327
G1 Z-5 F402.
G1 X-74.83 F1206.
G2 X-73.38 Y-17.592 I0 J-1.5
G1 X-73.356 Y-17.684
G1 X-73.331 Y-17.775
G1 X-73.308 Y-17.866
G1 X-73.284 Y-17.956
G1 X-73.26 Y-18.045
G1 X-73.236 Y-18.135
G1 X-73.213 Y-18.224
G1 X-73.19 Y-18.312
G1 X-73.167 Y-18.399
G1 X-73.144 Y-18.487
G1 X-73.121 Y-18.574
G1 X-73.098 Y-18.659
G1 X-73.075 Y-18.745
G1 X-73.053 Y-18.831
G1 X-73.03 Y-18.917
G1 X-73.008 Y-19
G1 X-72.986 Y-19.084
G1 X-72.963 Y-19.167
G1 X-72.941 Y-19.252
G1 X-72.919 Y-19.334
G1 X-72.897 Y-19.416
G1 X-72.875 Y-19.498
G1 X-72.854 Y-19.579
G1 X-72.832 Y-19.66
G1 X-72.81 Y-19.743
G1 X-72.788 Y-19.823
G1 X-72.766 Y-19.905
G1 X-72.745 Y-19.985
G1 X-72.723 Y-20.066
G1 X-72.701 Y-20.147
G1 X-72.679 Y-20.228
G1 X-72.658 Y-20.308
G1 X-72.636 Y-20.387
G1 X-72.614 Y-20.469
G1 X-72.593 Y-20.549
G1 X-72.571 Y-20.628
G1 X-72.55 Y-20.707
G1 X-72.528 Y-20.788
G1 X-72.506 Y-20.867
G1 X-72.485 Y-20.946
G1 X-72.462 Y-21.027
G1 X-72.441 Y-21.107
G1 X-72.419 Y-21.185
G1 X-72.398 Y-21.264
G1 X-72.375 Y-21.345
G1 X-72.354 Y-21.423
G1 X-72.332 Y-21.502
G1 X-72.31 Y-21.582
G1 X-72.289 Y-21.66
G1 X-72.267 Y-21.739
G1 X-72.245 Y-21.818
G1 X-72.223 Y-21.897
G1 X-72.201 Y-21.977
G1 X-72.178 Y-22.057
G1 X-72.156 Y-22.137
G1 X-72.133 Y-22.218
G1 X-72.11 Y-22.299
G1 X-72.087 Y-22.379
G1 X-72.064 Y-22.461
G1 X-72.041 Y-22.544
G1 X-72.017 Y-22.626
G1 X-71.993 Y-22.709
G1 X-71.969 Y-22.792
G1 X-71.945 Y-22.875
G1 X-71.921 Y-22.959
G1 X-71.897 Y-23.043
G1 X-71.872 Y-23.128
G1 X-71.847 Y-23.213
G1 X-71.822 Y-23.297
G1 X-71.798 Y-23.382
G1 X-71.772 Y-23.468
G1 X-71.747 Y-23.555
G1 X-71.719 Y-23.648
G1 X-71.694 Y-23.737
G1 X-71.668 Y-23.824
G1 X-71.642 Y-23.915
G1 X-71.616 Y-24.004
G1 X-71.59 Y-24.095
G1 X-71.563 Y-24.186
G1 X-71.537 Y-24.278
G1 X-71.51 Y-24.37
G1 X-71.484 Y-24.462
G1 X-71.457 Y-24.554
G1 X-71.43 Y-24.649
G1 X-71.403 Y-24.742
G1 X-71.376 Y-24.838
G1 X-71.349 Y-24.933
G1 X-71.321 Y-25.029
G1 X-71.294 Y-25.125
G1 X-71.267 Y-25.221
G1 X-71.239 Y-25.318
G1 X-71.211 Y-25.416
G1 X-71.183 Y-25.515
G1 X-71.155 Y-25.614
G1 X-71.128 Y-25.713
G1 X-71.101 Y-25.809
G1 X-66.841 Y-40.672
G1 X-64.666
G1 X-56.736 Y-13.669
G1 X-58.021
G1 X-62.615 Y-30.217
G1 X-62.621 Y-30.242
G1 X-62.633 Y-30.29
G1 X-62.646 Y-30.344
G1 X-62.659 Y-30.394
G1 X-62.672 Y-30.447
G1 X-62.686 Y-30.502
G1 X-62.699 Y-30.556
G1 X-62.713 Y-30.612
G1 X-62.727 Y-30.667
G1 X-62.742 Y-30.725
G1 X-62.757 Y-30.784
G1 X-62.772 Y-30.842
G1 X-62.787 Y-30.901
G1 X-62.802 Y-30.962
G1 X-62.818 Y-31.022
G1 X-62.834 Y-31.085
G1 X-62.85 Y-31.148
G1 X-62.866 Y-31.213
G1 X-62.883 Y-31.278
G1 X-62.9 Y-31.343
G1 X-62.917 Y-31.409
G1 X-62.934 Y-31.477
G1 X-62.952 Y-31.545
G1 X-62.969 Y-31.614
G1 X-62.987 Y-31.683
G1 X-63.005 Y-31.752
G1 X-63.022 Y-31.822
G1 X-63.04 Y-31.892
G1 X-63.058 Y-31.962
G1 X-63.076 Y-32.033
G1 X-63.094 Y-32.105
G1 X-63.113 Y-32.178
G1 X-63.131 Y-32.25
G1 X-63.149 Y-32.323
G1 X-63.168 Y-32.398
G1 X-63.186 Y-32.472
G1 X-63.205 Y-32.547
G1 X-63.223 Y-32.622
G1 X-63.242 Y-32.697
G1 X-63.261 Y-32.775
G1 X-63.28 Y-32.851
G1 X-63.299 Y-32.929
G1 X-63.318 Y-33.008
G1 X-63.338 Y-33.086
G1 X-63.357 Y-33.166
G1 X-63.377 Y-33.245
G1 X-63.396 Y-33.325
G1 X-63.416 Y-33.406
G1 X-63.437 Y-33.491
G1 X-63.457 Y-33.571
G1 X-63.476 Y-33.65
G1 X-63.495 Y-33.729
G1 X-63.514 Y-33.808
G1 X-63.533 Y-33.888
G1 X-63.552 Y-33.968
G1 X-63.571 Y-34.047
G1 X-63.59 Y-34.127
G1 X-63.608 Y-34.207
G1 X-63.627 Y-34.287
G1 X-63.645 Y-34.367
G1 X-63.663 Y-34.447
G1 X-63.682 Y-34.528
G1 X-63.7 Y-34.609
G1 X-63.718 Y-34.69
G1 X-63.736 Y-34.77
