(KLAPPSTUHL_18MM_6MM)
(T2  D=6 CR=0 - ZMIN=-18.5 - SCHAFTFRSER)
G0 G40 G90 G17
G21
(WHEN USING FUSION 360 FOR PERSONAL USE, THE FEEDRATE OF)
(RAPID MOVES IS REDUCED TO MATCH THE FEEDRATE OF CUTTING)
(MOVES, WHICH CAN INCREASE MACHINING TIME. UNRESTRICTED RAPID)
(MOVES ARE AVAILABLE WITH A FUSION 360 SUBSCRIPTION.)

(2D-KONTUR1)
T2 M6
M3 S12000
G0 X-306.553 Y-359.561
G0 Z5
G1 Z2 F2388.
G1 Z-1.415 F796.
G1 Y351.639 F2388.
G2 X-201.953 Y456.239 I104.6 J0
G1 X194.847
G2 X299.447 Y351.639 I0 J-104.6
G1 Y-359.561
G2 X194.847 Y-464.161 I-104.6 J0
G1 X-201.953
G2 X-306.553 Y-359.561 I0 J104.6
G1 Z-2.829 F796.
G1 Y351.639 F2388.
G2 X-201.953 Y456.239 I104.6 J0
G1 X194.847
G2 X299.447 Y351.639 I0 J-104.6
G1 Y-359.561
G2 X194.847 Y-464.161 I-104.6 J0
G1 X-201.953
G2 X-306.553 Y-359.561 I0 J104.6
G1 Z-4.244 F796.
G1 Y351.639 F2388.
G2 X-201.953 Y456.239 I104.6 J0
G1 X194.847
G2 X299.447 Y351.639 I0 J-104.6
G1 Y-359.561
G2 X194.847 Y-464.161 I-104.6 J0
G1 X-201.953
G2 X-306.553 Y-359.561 I0 J104.6
G1 Z-5.659 F796.
G1 Y351.639 F2388.
G2 X-201.953 Y456.239 I104.6 J0
G1 X194.847
G2 X299.447 Y351.639 I0 J-104.6
G1 Y-359.561
G2 X194.847 Y-464.161 I-104.6 J0
G1 X-201.953
G2 X-306.553 Y-359.561 I0 J104.6
G1 Z-7.074 F796.
G1 Y351.639 F2388.
G2 X-201.953 Y456.239 I104.6 J0
G1 X194.847
G2 X299.447 Y351.639 I0 J-104.6
G1 Y-359.561
G2 X194.847 Y-464.161 I-104.6 J0
G1 X-201.953
G2 X-306.553 Y-359.561 I0 J104.6
G1 Z-8.488 F796.
G1 Y351.639 F2388.
G2 X-201.953 Y456.239 I104.6 J0
G1 X194.847
G2 X299.447 Y351.639 I0 J-104.6
G1 Y-359.561
G2 X194.847 Y-464.161 I-104.6 J0
G1 X-201.953
G2 X-306.553 Y-359.561 I0 J104.6
G1 Z-9.903 F796.
G1 Y351.639 F2388.
G2 X-201.953 Y456.239 I104.6 J0
G1 X194.847
G2 X299.447 Y351.639 I0 J-104.6
G1 Y-359.561
G2 X194.847 Y-464.161 I-104.6 J0
G1 X-201.953
G2 X-306.553 Y-359.561 I0 J104.6
G1 Z-11.318 F796.
G1 Y351.639 F2388.
G2 X-201.953 Y456.239 I104.6 J0
G1 X194.847
G2 X299.447 Y351.639 I0 J-104.6
G1 Y-359.561
G2 X194.847 Y-464.161 I-104.6 J0
G1 X-201.953
G2 X-306.553 Y-359.561 I0 J104.6
G1 Z-12.732 F796.
G1 Y351.639 F2388.
G2 X-201.953 Y456.239 I104.6 J0
G1 X194.847
G2 X299.447 Y351.639 I0 J-104.6
G1 Y-359.561
G2 X194.847 Y-464.161 I-104.6 J0
G1 X-201.953
G2 X-306.553 Y-359.561 I0 J104.6
G1 Z-14.147 F796.
G1 Y351.639 F2388.
G2 X-201.953 Y456.239 I104.6 J0
G1 X194.847
G2 X299.447 Y351.639 I0 J-104.6
G1 Y-359.561
G2 X194.847 Y-464.161 I-104.6 J0
G1 X-201.953
G2 X-306.553 Y-359.561 I0 J104.6
G1 Z-15.562 F796.
G1 Y351.639 F2388.
G2 X-201.953 Y456.239 I104.6 J0
G1 X194.847
G2 X299.447 Y351.639 I0 J-104.6
G1 Y-359.561
G2 X194.847 Y-464.161 I-104.6 J0
G1 X-201.953
G2 X-306.553 Y-359.561 I0 J104.6
G1 Z-16.977 F796.
G1 Y351.639 F2388.
G2 X-201.953 Y456.239 I104.6 J0
G1 X194.847
G2 X299.447 Y351.639 I0 J-104.6
G1 Y-359.561
G2 X194.847 Y-464.161 I-104.6 J0
G1 X-201.953
G2 X-306.553 Y-359.561 I0 J104.6
G1 Z-17.738 F796.
G1 Y138.392 F2388.
G1 Z-17
G1 Y154.392
G1 Z-17.738 F796.
G1 Y351.639 F2388.
G2 X-201.953 Y456.239 I104.6 J0
G1 X194.847
G2 X299.447 Y351.639 I0 J-104.6
G1 Y170.984
G1 Z-17
G1 Y154.984
G1 Z-17.738 F796.
G1 Y-359.561 F2388.
G2 X194.847 Y-464.161 I-104.6 J0
G1 X-201.953
G2 X-306.553 Y-359.561 I0 J104.6
G1 Z-18.5 F796.
G1 Y138.392 F2388.
G1 Z-17
G1 Y154.392
G1 Z-18.5 F796.
G1 Y351.639 F2388.
G2 X-201.953 Y456.239 I104.6 J0
G1 X194.847
G2 X299.447 Y351.639 I0 J-104.6
G1 Y170.984
G1 Z-17
G1 Y154.984
G1 Z-18.5 F796.
G1 Y-359.561 F2388.
G2 X194.847 Y-464.161 I-104.6 J0
G1 X-201.953
G2 X-306.553 Y-359.561 I0 J104.6
G1 Z2
G1 X102.231 Y-154.452
G1 Z-1.415 F796.
G2 X107.348 Y-133.137 I13.216 J8.099 F2388.
G2 X115.447 Y-130.853 I8.099 J-13.216
G2 X125.397 Y-134.467 I0.001 J-15.501
G2 X130.947 Y-146.353 I-9.951 J-11.885
G2 X115.447 Y-161.853 I-15.5 J0
G2 X102.231 Y-154.452 I0 J15.5
G1 Z2
G1 X99.947 Y-146.353
G1 Z0.585 F796.
G1 Z-2.829
G2 X115.447 Y-130.853 I15.5 J0 F2388.
G2 X125.397 Y-134.467 I0.001 J-15.501
G2 X130.947 Y-146.353 I-9.951 J-11.885
G2 X115.447 Y-161.853 I-15.5 J0
G2 X99.947 Y-146.353 I0 J15.5
G1 Z-4.244 F796.
G2 X115.447 Y-130.853 I15.5 J0 F2388.
G2 X125.397 Y-134.467 I0.001 J-15.501
G2 X130.947 Y-146.353 I-9.951 J-11.885
G2 X115.447 Y-161.853 I-15.5 J0
G2 X99.947 Y-146.353 I0 J15.5
G1 Z-5.659 F796.
G2 X115.447 Y-130.853 I15.5 J0 F2388.
G2 X125.397 Y-134.467 I0.001 J-15.501
G2 X130.947 Y-146.353 I-9.951 J-11.885
G2 X115.447 Y-161.853 I-15.5 J0
G2 X99.947 Y-146.353 I0 J15.5
G1 Z-7.074 F796.
G2 X115.447 Y-130.853 I15.5 J0 F2388.
G2 X125.397 Y-134.467 I0.001 J-15.501
G2 X130.947 Y-146.353 I-9.951 J-11.885
G2 X115.447 Y-161.853 I-15.5 J0
G2 X99.947 Y-146.353 I0 J15.5
G1 Z-8.488 F796.
G2 X115.447 Y-130.853 I15.5 J0 F2388.
G2 X125.397 Y-134.467 I0.001 J-15.501
G2 X130.947 Y-146.353 I-9.951 J-11.885
G2 X115.447 Y-161.853 I-15.5 J0
G2 X99.947 Y-146.353 I0 J15.5
G1 Z-9.903 F796.
G2 X115.447 Y-130.853 I15.5 J0 F2388.
G2 X125.397 Y-134.467 I0.001 J-15.501
G2 X130.947 Y-146.353 I-9.951 J-11.885
G2 X115.447 Y-161.853 I-15.5 J0
G2 X99.947 Y-146.353 I0 J15.5
G1 Z-11.318 F796.
G2 X115.447 Y-130.853 I15.5 J0 F2388.
G2 X125.397 Y-134.467 I0.001 J-15.501
G2 X130.947 Y-146.353 I-9.951 J-11.885
G2 X115.447 Y-161.853 I-15.5 J0
G2 X99.947 Y-146.353 I0 J15.5
G1 Z-12.732 F796.
G2 X115.447 Y-130.853 I15.5 J0 F2388.
G2 X125.397 Y-134.467 I0.001 J-15.501
G2 X130.947 Y-146.353 I-9.951 J-11.885
G2 X115.447 Y-161.853 I-15.5 J0
G2 X99.947 Y-146.353 I0 J15.5
G1 Z-14.147 F796.
G2 X115.447 Y-130.853 I15.5 J0 F2388.
G2 X125.397 Y-134.467 I0.001 J-15.501
G2 X130.947 Y-146.353 I-9.951 J-11.885
G2 X115.447 Y-161.853 I-15.5 J0
G2 X99.947 Y-146.353 I0 J15.5
G1 Z-15.562 F796.
G2 X115.447 Y-130.853 I15.5 J0 F2388.
G2 X125.397 Y-134.467 I0.001 J-15.501
G2 X130.947 Y-146.353 I-9.951 J-11.885
G2 X115.447 Y-161.853 I-15.5 J0
G2 X99.947 Y-146.353 I0 J15.5
G1 Z-16.977 F796.
G2 X115.447 Y-130.853 I15.5 J0 F2388.
G2 X125.397 Y-134.467 I0.001 J-15.501
G2 X130.947 Y-146.353 I-9.951 J-11.885
G2 X115.447 Y-161.853 I-15.5 J0
G2 X99.947 Y-146.353 I0 J15.5
G1 Z-17.738 F796.
G2 X115.447 Y-130.853 I15.5 J0 F2388.
G2 X125.397 Y-134.467 I0.001 J-15.501
G2 X130.947 Y-146.353 I-9.951 J-11.885
G2 X128.301 Y-155.014 I-15.5 J0
G1 Z-17
G2 X113.795 Y-161.765 I-12.854 J8.661
G1 Z-17.738 F796.
G2 X99.947 Y-146.353 I1.652 J15.412 F2388.
G1 Z-18.5 F796.
G2 X115.447 Y-130.853 I15.5 J0 F2388.
G2 X125.397 Y-134.467 I0.001 J-15.501
G2 X130.947 Y-146.353 I-9.951 J-11.885
G2 X128.301 Y-155.014 I-15.5 J0
G1 Z-17
G2 X113.795 Y-161.765 I-12.854 J8.661
G1 Z-18.5 F796.
G2 X99.947 Y-146.353 I1.652 J15.412 F2388.
G1 Z2
G1 X-107.053 Y-146.422
G1 Z-1.415 F796.
G1 Y-146.511 F2388.
G2 X-122.553 Y-161.853 I-15.5 J0.159
G2 X-138.053 Y-146.353 I0 J15.5
G2 X-122.553 Y-130.853 I15.5 J0
G2 X-107.053 Y-146.353 I0 J-15.5
G1 Y-146.422
G1 Z-2.829 F796.
G1 Y-146.511 F2388.
G2 X-122.553 Y-161.853 I-15.5 J0.159
G2 X-138.053 Y-146.353 I0 J15.5
G2 X-122.553 Y-130.853 I15.5 J0
G2 X-107.053 Y-146.353 I0 J-15.5
G1 Y-146.422
G1 Z-4.244 F796.
G1 Y-146.511 F2388.
G2 X-122.553 Y-161.853 I-15.5 J0.159
G2 X-138.053 Y-146.353 I0 J15.5
G2 X-122.553 Y-130.853 I15.5 J0
G2 X-107.053 Y-146.353 I0 J-15.5
G1 Y-146.422
G1 Z-5.659 F796.
G1 Y-146.511 F2388.
G2 X-122.553 Y-161.853 I-15.5 J0.159
G2 X-138.053 Y-146.353 I0 J15.5
G2 X-122.553 Y-130.853 I15.5 J0
G2 X-107.053 Y-146.353 I0 J-15.5
G1 Y-146.422
G1 Z-7.074 F796.
G1 Y-146.511 F2388.
G2 X-122.553 Y-161.853 I-15.5 J0.159
G2 X-138.053 Y-146.353 I0 J15.5
G2 X-122.553 Y-130.853 I15.5 J0
G2 X-107.053 Y-146.353 I0 J-15.5
G1 Y-146.422
G1 Z-8.488 F796.
G1 Y-146.511 F2388.
G2 X-122.553 Y-161.853 I-15.5 J0.159
G2 X-138.053 Y-146.353 I0 J15.5
G2 X-122.553 Y-130.853 I15.5 J0
G2 X-107.053 Y-146.353 I0 J-15.5
G1 Y-146.422
G1 Z-9.903 F796.
G1 Y-146.511 F2388.
G2 X-122.553 Y-161.853 I-15.5 J0.159
G2 X-138.053 Y-146.353 I0 J15.5
G2 X-122.553 Y-130.853 I15.5 J0
G2 X-107.053 Y-146.353 I0 J-15.5
G1 Y-146.422
G1 Z-11.318 F796.
G1 Y-146.511 F2388.
G2 X-122.553 Y-161.853 I-15.5 J0.159
G2 X-138.053 Y-146.353 I0 J15.5
G2 X-122.553 Y-130.853 I15.5 J0
G2 X-107.053 Y-146.353 I0 J-15.5
G1 Y-146.422
G1 Z-12.732 F796.
G1 Y-146.511 F2388.
G2 X-122.553 Y-161.853 I-15.5 J0.159
G2 X-138.053 Y-146.353 I0 J15.5
G2 X-122.553 Y-130.853 I15.5 J0
G2 X-107.053 Y-146.353 I0 J-15.5
G1 Y-146.422
G1 Z-14.147 F796.
G1 Y-146.511 F2388.
G2 X-122.553 Y-161.853 I-15.5 J0.159
G2 X-138.053 Y-146.353 I0 J15.5
G2 X-122.553 Y-130.853 I15.5 J0
G2 X-107.053 Y-146.353 I0 J-15.5
G1 Y-146.422
G1 Z-15.562 F796.
G1 Y-146.511 F2388.
G2 X-122.553 Y-161.853 I-15.5 J0.159
G2 X-138.053 Y-146.353 I0 J15.5
G2 X-122.553 Y-130.853 I15.5 J0
G2 X-107.053 Y-146.353 I0 J-15.5
G1 Y-146.422
G1 Z-16.977 F796.
G1 Y-146.511 F2388.
G2 X-122.553 Y-161.853 I-15.5 J0.159
G2 X-138.053 Y-146.353 I0 J15.5
G2 X-122.553 Y-130.853 I15.5 J0
G2 X-107.053 Y-146.353 I0 J-15.5
G1 Y-146.422
G1 Z-17.738 F796.
G1 Y-146.511 F2388.
G2 X-107.117 Y-147.767 I-15.5 J0.159
G1 Z-17
G2 X-116.59 Y-160.66 I-15.436 J1.414
G1 Z-17.738 F796.
G2 X-122.553 Y-161.853 I-5.962 J14.308 F2388.
G2 X-138.053 Y-146.353 I0 J15.5
G2 X-122.553 Y-130.853 I15.5 J0
G2 X-107.053 Y-146.353 I0 J-15.5
G1 Y-146.422
G1 Z-18.5 F796.
G1 Y-146.511 F2388.
G2 X-107.117 Y-147.767 I-15.5 J0.159
G1 Z-17
G2 X-116.59 Y-160.66 I-15.436 J1.414
G1 Z-18.5 F796.
G2 X-122.553 Y-161.853 I-5.962 J14.308 F2388.
G2 X-138.053 Y-146.353 I0 J15.5
G2 X-122.553 Y-130.853 I15.5 J0
G2 X-107.053 Y-146.353 I0 J-15.5
G1 Y-146.422
G1 Z2
G1 X66.224 Y-52.069
G1 Z-1.415 F796.
G2 X38.914 Y9.033 I54.698 J61.102 F2388.
G1 Y39.429
G1 X-46.02
G1 Y9.033
G2 X-75.315 Y-53.789 I-82.008 J0
G1 X-153.455 Y-119.356
G3 X-185.745 Y-188.603 I58.105 J-69.247
G1 Y-272.957
G3 X-115.349 Y-343.353 I70.396 J0
G1 X108.243
G3 X178.639 Y-272.957 I0 J70.396
G1 Y-188.603
G3 X146.349 Y-119.356 I-90.396 J0
G1 X68.208 Y-53.789
G2 X66.224 Y-52.069 I52.714 J62.822
G1 Z-2.829 F796.
G2 X38.914 Y9.033 I54.698 J61.102 F2388.
G1 Y39.429
G1 X-46.02
G1 Y9.033
G2 X-75.315 Y-53.789 I-82.008 J0
G1 X-153.455 Y-119.356
G3 X-185.745 Y-188.603 I58.105 J-69.247
G1 Y-272.957
G3 X-115.349 Y-343.353 I70.396 J0
G1 X108.243
G3 X178.639 Y-272.957 I0 J70.396
G1 Y-188.603
G3 X146.349 Y-119.356 I-90.396 J0
G1 X68.208 Y-53.789
G2 X66.224 Y-52.069 I52.714 J62.822
G1 Z-4.244 F796.
G2 X38.914 Y9.033 I54.698 J61.102 F2388.
G1 Y39.429
G1 X-46.02
G1 Y9.033
G2 X-75.315 Y-53.789 I-82.008 J0
G1 X-153.455 Y-119.356
G3 X-185.745 Y-188.603 I58.105 J-69.247
G1 Y-272.957
G3 X-115.349 Y-343.353 I70.396 J0
G1 X108.243
G3 X178.639 Y-272.957 I0 J70.396
G1 Y-188.603
G3 X146.349 Y-119.356 I-90.396 J0
G1 X68.208 Y-53.789
G2 X66.224 Y-52.069 I52.714 J62.822
G1 Z-5.659 F796.
G2 X38.914 Y9.033 I54.698 J61.102 F2388.
G1 Y39.429
G1 X-46.02
G1 Y9.033
G2 X-75.315 Y-53.789 I-82.008 J0
G1 X-153.455 Y-119.356
G3 X-185.745 Y-188.603 I58.105 J-69.247
G1 Y-272.957
G3 X-115.349 Y-343.353 I70.396 J0
G1 X108.243
G3 X178.639 Y-272.957 I0 J70.396
G1 Y-188.603
G3 X146.349 Y-119.356 I-90.396 J0
G1 X68.208 Y-53.789
G2 X66.224 Y-52.069 I52.714 J62.822
G1 Z-7.074 F796.
G2 X38.914 Y9.033 I54.698 J61.102 F2388.
G1 Y39.429
G1 X-46.02
G1 Y9.033
G2 X-75.315 Y-53.789 I-82.008 J0
G1 X-153.455 Y-119.356
G3 X-185.745 Y-188.603 I58.105 J-69.247
G1 Y-272.957
G3 X-115.349 Y-343.353 I70.396 J0
G1 X108.243
G3 X178.639 Y-272.957 I0 J70.396
G1 Y-188.603
G3 X146.349 Y-119.356 I-90.396 J0
G1 X68.208 Y-53.789
G2 X66.224 Y-52.069 I52.714 J62.822
G1 Z-8.488 F796.
G2 X38.914 Y9.033 I54.698 J61.102 F2388.
G1 Y39.429
G1 X-46.02
G1 Y9.033
G2 X-75.315 Y-53.789 I-82.008 J0
G1 X-153.455 Y-119.356
G3 X-185.745 Y-188.603 I58.105 J-69.247
G1 Y-272.957
G3 X-115.349 Y-343.353 I70.396 J0
G1 X108.243
G3 X178.639 Y-272.957 I0 J70.396
G1 Y-188.603
G3 X146.349 Y-119.356 I-90.396 J0
G1 X68.208 Y-53.789
G2 X66.224 Y-52.069 I52.714 J62.822
G1 Z-9.903 F796.
G2 X38.914 Y9.033 I54.698 J61.102 F2388.
G1 Y39.429
G1 X-46.02
G1 Y9.033
G2 X-75.315 Y-53.789 I-82.008 J0
G1 X-153.455 Y-119.356
G3 X-185.745 Y-188.603 I58.105 J-69.247
G1 Y-272.957
G3 X-115.349 Y-343.353 I70.396 J0
G1 X108.243
G3 X178.639 Y-272.957 I0 J70.396
G1 Y-188.603
G3 X146.349 Y-119.356 I-90.396 J0
G1 X68.208 Y-53.789
G2 X66.224 Y-52.069 I52.714 J62.822
G1 Z-11.318 F796.
G2 X38.914 Y9.033 I54.698 J61.102 F2388.
G1 Y39.429
G1 X-46.02
G1 Y9.033
G2 X-75.315 Y-53.789 I-82.008 J0
G1 X-153.455 Y-119.356
G3 X-185.745 Y-188.603 I58.105 J-69.247
G1 Y-272.957
G3 X-115.349 Y-343.353 I70.396 J0
G1 X108.243
G3 X178.639 Y-272.957 I0 J70.396
G1 Y-188.603
G3 X146.349 Y-119.356 I-90.396 J0
G1 X68.208 Y-53.789
G2 X66.224 Y-52.069 I52.714 J62.822
G1 Z-12.732 F796.
G2 X38.914 Y9.033 I54.698 J61.102 F2388.
G1 Y39.429
G1 X-46.02
G1 Y9.033
G2 X-75.315 Y-53.789 I-82.008 J0
G1 X-153.455 Y-119.356
G3 X-185.745 Y-188.603 I58.105 J-69.247
G1 Y-272.957
G3 X-115.349 Y-343.353 I70.396 J0
G1 X108.243
G3 X178.639 Y-272.957 I0 J70.396
G1 Y-188.603
G3 X146.349 Y-119.356 I-90.396 J0
G1 X68.208 Y-53.789
G2 X66.224 Y-52.069 I52.714 J62.822
G1 Z-14.147 F796.
G2 X38.914 Y9.033 I54.698 J61.102 F2388.
G1 Y39.429
G1 X-46.02
G1 Y9.033
G2 X-75.315 Y-53.789 I-82.008 J0
G1 X-153.455 Y-119.356
G3 X-185.745 Y-188.603 I58.105 J-69.247
G1 Y-272.957
G3 X-115.349 Y-343.353 I70.396 J0
G1 X108.243
G3 X178.639 Y-272.957 I0 J70.396
G1 Y-188.603
G3 X146.349 Y-119.356 I-90.396 J0
G1 X68.208 Y-53.789
G2 X66.224 Y-52.069 I52.714 J62.822
G1 Z-15.562 F796.
G2 X38.914 Y9.033 I54.698 J61.102 F2388.
G1 Y39.429
G1 X-46.02
G1 Y9.033
G2 X-75.315 Y-53.789 I-82.008 J0
G1 X-153.455 Y-119.356
G3 X-185.745 Y-188.603 I58.105 J-69.247
G1 Y-272.957
G3 X-115.349 Y-343.353 I70.396 J0
G1 X108.243
G3 X178.639 Y-272.957 I0 J70.396
G1 Y-188.603
G3 X146.349 Y-119.356 I-90.396 J0
G1 X68.208 Y-53.789
G2 X66.224 Y-52.069 I52.714 J62.822
G1 Z-16.977 F796.
G2 X38.914 Y9.033 I54.698 J61.102 F2388.
G1 Y39.429
G1 X-46.02
G1 Y9.033
G2 X-75.315 Y-53.789 I-82.008 J0
G1 X-153.455 Y-119.356
G3 X-185.745 Y-188.603 I58.105 J-69.247
G1 Y-272.957
G3 X-115.349 Y-343.353 I70.396 J0
G1 X108.243
G3 X178.639 Y-272.957 I0 J70.396
G1 Y-188.603
G3 X146.349 Y-119.356 I-90.396 J0
G1 X68.208 Y-53.789
G2 X66.224 Y-52.069 I52.714 J62.822
G1 Z-17.738 F796.
G2 X38.914 Y9.033 I54.698 J61.102 F2388.
G1 Y39.429
G1 X7.384
G1 Z-17
G1 X-8.616
G1 Z-17.738 F796.
G1 X-46.02 F2388.
G1 Y9.033
G2 X-75.315 Y-53.789 I-82.008 J0
G1 X-153.455 Y-119.356
G3 X-185.745 Y-188.603 I58.105 J-69.247
G1 Y-272.957
G3 X-115.349 Y-343.353 I70.396 J0
G1 X-5.412
G1 Z-17
G1 X10.588
G1 Z-17.738 F796.
G1 X108.243 F2388.
G3 X178.639 Y-272.957 I0 J70.396
G1 Y-188.603
G3 X146.349 Y-119.356 I-90.396 J0
G1 X68.208 Y-53.789
G2 X66.224 Y-52.069 I52.714 J62.822
G1 Z-18.5 F796.
G2 X38.914 Y9.033 I54.698 J61.102 F2388.
G1 Y39.429
G1 X7.384
G1 Z-17
G1 X-8.616
G1 Z-18.5 F796.
G1 X-46.02 F2388.
G1 Y9.033
G2 X-75.315 Y-53.789 I-82.008 J0
G1 X-153.455 Y-119.356
G3 X-185.745 Y-188.603 I58.105 J-69.247
G1 Y-272.957
G3 X-115.349 Y-343.353 I70.396 J0
G1 X-5.412
G1 Z-17
G1 X10.588
G1 Z-18.5 F796.
G1 X108.243 F2388.
G3 X178.639 Y-272.957 I0 J70.396
G1 Y-188.603
G3 X146.349 Y-119.356 I-90.396 J0
G1 X68.208 Y-53.789
G2 X66.224 Y-52.069 I52.714 J62.822
G1 Z2
G1 X81.94 Y116.697
G1 Z-1.415 F796.
G1 X-93.853 F2388.
G2 X-140.802 Y136.144 I0 J66.396
G2 X-160.249 Y183.093 I46.949 J46.949
G1 Y374.039
G1 X-182.649
G2 X-185.649 Y377.039 I0 J3
G1 Y395.835
G2 X-182.649 Y398.835 I3 J0
G1 X175.543
G2 X178.543 Y395.835 I0 J-3
G1 Y377.039
G2 X175.543 Y374.039 I-3 J0
G1 X153.143
G1 Y183.093
G2 X133.696 Y136.144 I-66.396 J0
G2 X86.747 Y116.697 I-46.949 J46.949
G1 X81.94
G1 Z2
G1 X86.747 Y116.093
G1 Z-1.415 F796.
G3 X134.123 Y135.717 I0 J67 F2388.
G3 X153.747 Y183.093 I-47.376 J47.376
G1 Y370.435
G2 X156.747 Y373.435 I3 J0
G1 X239.043
G2 X242.043 Y370.435 I0 J-3
G1 Y57.438
G2 X215.647 Y31.042 I-26.396 J0
G1 X131.576
G2 X128.576 Y34.042 I0 J3
G1 Y41.488
G3 X119.972 Y50.092 I-8.604 J0
G1 X110.922
G3 X104.838 Y47.572 I0 J-8.604
G3 X102.318 Y41.488 I6.084 J-6.084
G1 Y9.033
G3 X108.963 Y-5.218 I18.604 J0
G1 X221.897 Y-99.981
G2 X242.043 Y-143.183 I-36.25 J-43.202
G1 Y-359.561
G2 X194.847 Y-406.757 I-47.196 J0
G1 X-201.953
G2 X-249.149 Y-359.561 I0 J47.196
G1 Y-143.183
G2 X-229.004 Y-99.981 I56.396 J0.001
G1 X-116.069 Y-5.218
G3 X-109.424 Y9.033 I-11.959 J14.251
G1 Y41.488
G3 X-118.028 Y50.092 I-8.604 J0
G1 X-127.078
G3 X-135.682 Y41.488 I0 J-8.604
G1 Y34.042
G2 X-138.682 Y31.042 I-3 J0
G1 X-222.753
G2 X-249.149 Y57.438 I0 J26.396
G1 Y370.435
G2 X-246.149 Y373.435 I3 J0
G1 X-163.853
G2 X-160.853 Y370.435 I0 J-3
G1 Y183.093
G3 X-141.229 Y135.717 I67 J0
G3 X-93.853 Y116.093 I47.376 J47.376
G1 X86.747
G1 Z2
G1 X81.94 Y116.697
G1 Z0.585 F796.
G1 Z-2.829
G1 X-93.853 F2388.
G2 X-140.802 Y136.144 I0 J66.396
G2 X-160.249 Y183.093 I46.949 J46.949
G1 Y374.039
G1 X-182.649
G2 X-185.649 Y377.039 I0 J3
G1 Y395.835
G2 X-182.649 Y398.835 I3 J0
G1 X175.543
G2 X178.543 Y395.835 I0 J-3
G1 Y377.039
G2 X175.543 Y374.039 I-3 J0
G1 X153.143
G1 Y183.093
G2 X133.696 Y136.144 I-66.396 J0
G2 X86.747 Y116.697 I-46.949 J46.949
G1 X81.94
G1 Z2
G1 X86.747 Y116.093
G1 Z0.585 F796.
G1 Z-2.829
G3 X134.123 Y135.717 I0 J67 F2388.
G3 X153.747 Y183.093 I-47.376 J47.376
G1 Y370.435
G2 X156.747 Y373.435 I3 J0
G1 X239.043
G2 X242.043 Y370.435 I0 J-3
G1 Y57.438
G2 X215.647 Y31.042 I-26.396 J0
G1 X131.576
G2 X128.576 Y34.042 I0 J3
G1 Y41.488
G3 X119.972 Y50.092 I-8.604 J0
G1 X110.922
G3 X104.838 Y47.572 I0 J-8.604
G3 X102.318 Y41.488 I6.084 J-6.084
G1 Y9.033
G3 X108.963 Y-5.218 I18.604 J0
G1 X221.897 Y-99.981
G2 X242.043 Y-143.183 I-36.25 J-43.202
G1 Y-359.561
G2 X194.847 Y-406.757 I-47.196 J0
G1 X-201.953
G2 X-249.149 Y-359.561 I0 J47.196
G1 Y-143.183
G2 X-229.004 Y-99.981 I56.396 J0.001
G1 X-116.069 Y-5.218
G3 X-109.424 Y9.033 I-11.959 J14.251
G1 Y41.488
G3 X-118.028 Y50.092 I-8.604 J0
G1 X-127.078
G3 X-135.682 Y41.488 I0 J-8.604
G1 Y34.042
G2 X-138.682 Y31.042 I-3 J0
G1 X-222.753
G2 X-249.149 Y57.438 I0 J26.396
G1 Y370.435
G2 X-246.149 Y373.435 I3 J0
G1 X-163.853
G2 X-160.853 Y370.435 I0 J-3
G1 Y183.093
G3 X-141.229 Y135.717 I67 J0
G3 X-93.853 Y116.093 I47.376 J47.376
G1 X86.747
G1 Z2
G1 X81.94 Y116.697
G1 Z-0.829 F796.
G1 Z-4.244
G1 X-93.853 F2388.
G2 X-140.802 Y136.144 I0 J66.396
G2 X-160.249 Y183.093 I46.949 J46.949
G1 Y374.039
G1 X-182.649
G2 X-185.649 Y377.039 I0 J3
G1 Y395.835
G2 X-182.649 Y398.835 I3 J0
G1 X175.543
G2 X178.543 Y395.835 I0 J-3
G1 Y377.039
G2 X175.543 Y374.039 I-3 J0
G1 X153.143
G1 Y183.093
G2 X133.696 Y136.144 I-66.396 J0
G2 X86.747 Y116.697 I-46.949 J46.949
G1 X81.94
G1 Z2
G1 X86.747 Y116.093
G1 Z-0.829 F796.
G1 Z-4.244
G3 X134.123 Y135.717 I0 J67 F2388.
G3 X153.747 Y183.093 I-47.376 J47.376
G1 Y370.435
G2 X156.747 Y373.435 I3 J0
G1 X239.043
G2 X242.043 Y370.435 I0 J-3
G1 Y57.438
G2 X215.647 Y31.042 I-26.396 J0
G1 X131.576
G2 X128.576 Y34.042 I0 J3
G1 Y41.488
G3 X119.972 Y50.092 I-8.604 J0
G1 X110.922
G3 X104.838 Y47.572 I0 J-8.604
G3 X102.318 Y41.488 I6.084 J-6.084
G1 Y9.033
G3 X108.963 Y-5.218 I18.604 J0
G1 X221.897 Y-99.981
G2 X242.043 Y-143.183 I-36.25 J-43.202
G1 Y-359.561
G2 X194.847 Y-406.757 I-47.196 J0
G1 X-201.953
G2 X-249.149 Y-359.561 I0 J47.196
G1 Y-143.183
G2 X-229.004 Y-99.981 I56.396 J0.001
G1 X-116.069 Y-5.218
G3 X-109.424 Y9.033 I-11.959 J14.251
G1 Y41.488
G3 X-118.028 Y50.092 I-8.604 J0
G1 X-127.078
G3 X-135.682 Y41.488 I0 J-8.604
G1 Y34.042
G2 X-138.682 Y31.042 I-3 J0
G1 X-222.753
G2 X-249.149 Y57.438 I0 J26.396
G1 Y370.435
G2 X-246.149 Y373.435 I3 J0
G1 X-163.853
G2 X-160.853 Y370.435 I0 J-3
G1 Y183.093
G3 X-141.229 Y135.717 I67 J0
G3 X-93.853 Y116.093 I47.376 J47.376
G1 X86.747
G1 Z2
G1 X81.94 Y116.697
G1 Z-2.244 F796.
G1 Z-5.659
G1 X-93.853 F2388.
G2 X-140.802 Y136.144 I0 J66.396
G2 X-160.249 Y183.093 I46.949 J46.949
G1 Y374.039
G1 X-182.649
G2 X-185.649 Y377.039 I0 J3
G1 Y395.835
G2 X-182.649 Y398.835 I3 J0
G1 X175.543
G2 X178.543 Y395.835 I0 J-3
G1 Y377.039
G2 X175.543 Y374.039 I-3 J0
G1 X153.143
G1 Y183.093
G2 X133.696 Y136.144 I-66.396 J0
G2 X86.747 Y116.697 I-46.949 J46.949
G1 X81.94
G1 Z2
G1 X86.747 Y116.093
G1 Z-2.244 F796.
G1 Z-5.659
G3 X134.123 Y135.717 I0 J67 F2388.
G3 X153.747 Y183.093 I-47.376 J47.376
G1 Y370.435
G2 X156.747 Y373.435 I3 J0
G1 X239.043
G2 X242.043 Y370.435 I0 J-3
G1 Y57.438
G2 X215.647 Y31.042 I-26.396 J0
G1 X131.576
G2 X128.576 Y34.042 I0 J3
G1 Y41.488
G3 X119.972 Y50.092 I-8.604 J0
G1 X110.922
G3 X104.838 Y47.572 I0 J-8.604
G3 X102.318 Y41.488 I6.084 J-6.084
G1 Y9.033
G3 X108.963 Y-5.218 I18.604 J0
G1 X221.897 Y-99.981
G2 X242.043 Y-143.183 I-36.25 J-43.202
G1 Y-359.561
G2 X194.847 Y-406.757 I-47.196 J0
G1 X-201.953
G2 X-249.149 Y-359.561 I0 J47.196
G1 Y-143.183
G2 X-229.004 Y-99.981 I56.396 J0.001
G1 X-116.069 Y-5.218
G3 X-109.424 Y9.033 I-11.959 J14.251
G1 Y41.488
G3 X-118.028 Y50.092 I-8.604 J0
G1 X-127.078
G3 X-135.682 Y41.488 I0 J-8.604
G1 Y34.042
G2 X-138.682 Y31.042 I-3 J0
G1 X-222.753
G2 X-249.149 Y57.438 I0 J26.396
G1 Y370.435
G2 X-246.149 Y373.435 I3 J0
G1 X-163.853
G2 X-160.853 Y370.435 I0 J-3
G1 Y183.093
G3 X-141.229 Y135.717 I67 J0
G3 X-93.853 Y116.093 I47.376 J47.376
G1 X86.747
G1 Z2
G1 X81.94 Y116.697
G1 Z-3.659 F796.
G1 Z-7.074
G1 X-93.853 F2388.
G2 X-140.802 Y136.144 I0 J66.396
G2 X-160.249 Y183.093 I46.949 J46.949
G1 Y374.039
G1 X-182.649
G2 X-185.649 Y377.039 I0 J3
G1 Y395.835
G2 X-182.649 Y398.835 I3 J0
G1 X175.543
G2 X178.543 Y395.835 I0 J-3
G1 Y377.039
G2 X175.543 Y374.039 I-3 J0
G1 X153.143
G1 Y183.093
G2 X133.696 Y136.144 I-66.396 J0
G2 X86.747 Y116.697 I-46.949 J46.949
G1 X81.94
G1 Z2
G1 X86.747 Y116.093
G1 Z-3.659 F796.
G1 Z-7.074
G3 X134.123 Y135.717 I0 J67 F2388.
G3 X153.747 Y183.093 I-47.376 J47.376
G1 Y370.435
G2 X156.747 Y373.435 I3 J0
G1 X239.043
G2 X242.043 Y370.435 I0 J-3
G1 Y57.438
G2 X215.647 Y31.042 I-26.396 J0
G1 X131.576
G2 X128.576 Y34.042 I0 J3
G1 Y41.488
G3 X119.972 Y50.092 I-8.604 J0
G1 X110.922
G3 X104.838 Y47.572 I0 J-8.604
G3 X102.318 Y41.488 I6.084 J-6.084
G1 Y9.033
G3 X108.963 Y-5.218 I18.604 J0
G1 X221.897 Y-99.981
G2 X242.043 Y-143.183 I-36.25 J-43.202
G1 Y-359.561
G2 X194.847 Y-406.757 I-47.196 J0
G1 X-201.953
G2 X-249.149 Y-359.561 I0 J47.196
G1 Y-143.183
G2 X-229.004 Y-99.981 I56.396 J0.001
G1 X-116.069 Y-5.218
G3 X-109.424 Y9.033 I-11.959 J14.251
G1 Y41.488
G3 X-118.028 Y50.092 I-8.604 J0
G1 X-127.078
G3 X-135.682 Y41.488 I0 J-8.604
G1 Y34.042
G2 X-138.682 Y31.042 I-3 J0
G1 X-222.753
G2 X-249.149 Y57.438 I0 J26.396
G1 Y370.435
G2 X-246.149 Y373.435 I3 J0
G1 X-163.853
G2 X-160.853 Y370.435 I0 J-3
G1 Y183.093
G3 X-141.229 Y135.717 I67 J0
G3 X-93.853 Y116.093 I47.376 J47.376
G1 X86.747
G1 Z2
G1 X81.94 Y116.697
G1 Z-5.074 F796.
G1 Z-8.488
G1 X-93.853 F2388.
G2 X-140.802 Y136.144 I0 J66.396
G2 X-160.249 Y183.093 I46.949 J46.949
G1 Y374.039
G1 X-182.649
G2 X-185.649 Y377.039 I0 J3
G1 Y395.835
G2 X-182.649 Y398.835 I3 J0
G1 X175.543
G2 X178.543 Y395.835 I0 J-3
G1 Y377.039
G2 X175.543 Y374.039 I-3 J0
G1 X153.143
G1 Y183.093
G2 X133.696 Y136.144 I-66.396 J0
G2 X86.747 Y116.697 I-46.949 J46.949
G1 X81.94
G1 Z2
G1 X86.747 Y116.093
G1 Z-5.074 F796.
G1 Z-8.488
G3 X134.123 Y135.717 I0 J67 F2388.
G3 X153.747 Y183.093 I-47.376 J47.376
G1 Y370.435
G2 X156.747 Y373.435 I3 J0
G1 X239.043
G2 X242.043 Y370.435 I0 J-3
G1 Y57.438
G2 X215.647 Y31.042 I-26.396 J0
G1 X131.576
G2 X128.576 Y34.042 I0 J3
G1 Y41.488
G3 X119.972 Y50.092 I-8.604 J0
G1 X110.922
G3 X104.838 Y47.572 I0 J-8.604
G3 X102.318 Y41.488 I6.084 J-6.084
G1 Y9.033
G3 X108.963 Y-5.218 I18.604 J0
G1 X221.897 Y-99.981
G2 X242.043 Y-143.183 I-36.25 J-43.202
G1 Y-359.561
G2 X194.847 Y-406.757 I-47.196 J0
G1 X-201.953
G2 X-249.149 Y-359.561 I0 J47.196
G1 Y-143.183
G2 X-229.004 Y-99.981 I56.396 J0.001
G1 X-116.069 Y-5.218
G3 X-109.424 Y9.033 I-11.959 J14.251
G1 Y41.488
G3 X-118.028 Y50.092 I-8.604 J0
G1 X-127.078
G3 X-135.682 Y41.488 I0 J-8.604
G1 Y34.042
G2 X-138.682 Y31.042 I-3 J0
G1 X-222.753
G2 X-249.149 Y57.438 I0 J26.396
G1 Y370.435
G2 X-246.149 Y373.435 I3 J0
G1 X-163.853
G2 X-160.853 Y370.435 I0 J-3
G1 Y183.093
G3 X-141.229 Y135.717 I67 J0
G3 X-93.853 Y116.093 I47.376 J47.376
G1 X86.747
G1 Z2
G1 X81.94 Y116.697
G1 Z-6.488 F796.
G1 Z-9.903
G1 X-93.853 F2388.
G2 X-140.802 Y136.144 I0 J66.396
G2 X-160.249 Y183.093 I46.949 J46.949
G1 Y374.039
G1 X-182.649
G2 X-185.649 Y377.039 I0 J3
G1 Y395.835
G2 X-182.649 Y398.835 I3 J0
G1 X175.543
G2 X178.543 Y395.835 I0 J-3
G1 Y377.039
G2 X175.543 Y374.039 I-3 J0
G1 X153.143
G1 Y183.093
G2 X133.696 Y136.144 I-66.396 J0
G2 X86.747 Y116.697 I-46.949 J46.949
G1 X81.94
G1 Z2
G1 X86.747 Y116.093
G1 Z-6.488 F796.
G1 Z-9.903
G3 X134.123 Y135.717 I0 J67 F2388.
G3 X153.747 Y183.093 I-47.376 J47.376
G1 Y370.435
G2 X156.747 Y373.435 I3 J0
G1 X239.043
G2 X242.043 Y370.435 I0 J-3
G1 Y57.438
G2 X215.647 Y31.042 I-26.396 J0
G1 X131.576
G2 X128.576 Y34.042 I0 J3
G1 Y41.488
G3 X119.972 Y50.092 I-8.604 J0
G1 X110.922
G3 X104.838 Y47.572 I0 J-8.604
G3 X102.318 Y41.488 I6.084 J-6.084
G1 Y9.033
G3 X108.963 Y-5.218 I18.604 J0
G1 X221.897 Y-99.981
G2 X242.043 Y-143.183 I-36.25 J-43.202
G1 Y-359.561
G2 X194.847 Y-406.757 I-47.196 J0
G1 X-201.953
G2 X-249.149 Y-359.561 I0 J47.196
G1 Y-143.183
G2 X-229.004 Y-99.981 I56.396 J0.001
G1 X-116.069 Y-5.218
G3 X-109.424 Y9.033 I-11.959 J14.251
G1 Y41.488
G3 X-118.028 Y50.092 I-8.604 J0
G1 X-127.078
G3 X-135.682 Y41.488 I0 J-8.604
G1 Y34.042
G2 X-138.682 Y31.042 I-3 J0
G1 X-222.753
G2 X-249.149 Y57.438 I0 J26.396
G1 Y370.435
G2 X-246.149 Y373.435 I3 J0
G1 X-163.853
G2 X-160.853 Y370.435 I0 J-3
G1 Y183.093
G3 X-141.229 Y135.717 I67 J0
G3 X-93.853 Y116.093 I47.376 J47.376
G1 X86.747
G1 Z2
G1 X81.94 Y116.697
G1 Z-7.903 F796.
G1 Z-11.318
G1 X-93.853 F2388.
G2 X-140.802 Y136.144 I0 J66.396
G2 X-160.249 Y183.093 I46.949 J46.949
G1 Y374.039
G1 X-182.649
G2 X-185.649 Y377.039 I0 J3
G1 Y395.835
G2 X-182.649 Y398.835 I3 J0
G1 X175.543
G2 X178.543 Y395.835 I0 J-3
G1 Y377.039
G2 X175.543 Y374.039 I-3 J0
G1 X153.143
G1 Y183.093
G2 X133.696 Y136.144 I-66.396 J0
G2 X86.747 Y116.697 I-46.949 J46.949
G1 X81.94
G1 Z2
G1 X86.747 Y116.093
G1 Z-7.903 F796.
G1 Z-11.318
G3 X134.123 Y135.717 I0 J67 F2388.
G3 X153.747 Y183.093 I-47.376 J47.376
G1 Y370.435
G2 X156.747 Y373.435 I3 J0
G1 X239.043
G2 X242.043 Y370.435 I0 J-3
G1 Y57.438
G2 X215.647 Y31.042 I-26.396 J0
G1 X131.576
G2 X128.576 Y34.042 I0 J3
G1 Y41.488
G3 X119.972 Y50.092 I-8.604 J0
G1 X110.922
G3 X104.838 Y47.572 I0 J-8.604
G3 X102.318 Y41.488 I6.084 J-6.084
G1 Y9.033
G3 X108.963 Y-5.218 I18.604 J0
G1 X221.897 Y-99.981
G2 X242.043 Y-143.183 I-36.25 J-43.202
G1 Y-359.561
G2 X194.847 Y-406.757 I-47.196 J0
G1 X-201.953
G2 X-249.149 Y-359.561 I0 J47.196
G1 Y-143.183
G2 X-229.004 Y-99.981 I56.396 J0.001
G1 X-116.069 Y-5.218
G3 X-109.424 Y9.033 I-11.959 J14.251
G1 Y41.488
G3 X-118.028 Y50.092 I-8.604 J0
G1 X-127.078
G3 X-135.682 Y41.488 I0 J-8.604
G1 Y34.042
G2 X-138.682 Y31.042 I-3 J0
G1 X-222.753
G2 X-249.149 Y57.438 I0 J26.396
G1 Y370.435
G2 X-246.149 Y373.435 I3 J0
G1 X-163.853
G2 X-160.853 Y370.435 I0 J-3
G1 Y183.093
G3 X-141.229 Y135.717 I67 J0
G3 X-93.853 Y116.093 I47.376 J47.376
G1 X86.747
G1 Z2
G1 X81.94 Y116.697
G1 Z-9.318 F796.
G1 Z-12.732
G1 X-93.853 F2388.
G2 X-140.802 Y136.144 I0 J66.396
G2 X-160.249 Y183.093 I46.949 J46.949
G1 Y374.039
G1 X-182.649
G2 X-185.649 Y377.039 I0 J3
G1 Y395.835
G2 X-182.649 Y398.835 I3 J0
G1 X175.543
G2 X178.543 Y395.835 I0 J-3
G1 Y377.039
G2 X175.543 Y374.039 I-3 J0
G1 X153.143
G1 Y183.093
G2 X133.696 Y136.144 I-66.396 J0
G2 X86.747 Y116.697 I-46.949 J46.949
G1 X81.94
G1 Z2
G1 X86.747 Y116.093
G1 Z-9.318 F796.
G1 Z-12.732
G3 X134.123 Y135.717 I0 J67 F2388.
G3 X153.747 Y183.093 I-47.376 J47.376
G1 Y370.435
G2 X156.747 Y373.435 I3 J0
G1 X239.043
G2 X242.043 Y370.435 I0 J-3
G1 Y57.438
G2 X215.647 Y31.042 I-26.396 J0
G1 X131.576
G2 X128.576 Y34.042 I0 J3
G1 Y41.488
G3 X119.972 Y50.092 I-8.604 J0
G1 X110.922
G3 X104.838 Y47.572 I0 J-8.604
G3 X102.318 Y41.488 I6.084 J-6.084
G1 Y9.033
G3 X108.963 Y-5.218 I18.604 J0
G1 X221.897 Y-99.981
G2 X242.043 Y-143.183 I-36.25 J-43.202
G1 Y-359.561
G2 X194.847 Y-406.757 I-47.196 J0
G1 X-201.953
G2 X-249.149 Y-359.561 I0 J47.196
G1 Y-143.183
G2 X-229.004 Y-99.981 I56.396 J0.001
G1 X-116.069 Y-5.218
G3 X-109.424 Y9.033 I-11.959 J14.251
G1 Y41.488
G3 X-118.028 Y50.092 I-8.604 J0
G1 X-127.078
G3 X-135.682 Y41.488 I0 J-8.604
G1 Y34.042
G2 X-138.682 Y31.042 I-3 J0
G1 X-222.753
G2 X-249.149 Y57.438 I0 J26.396
G1 Y370.435
G2 X-246.149 Y373.435 I3 J0
G1 X-163.853
G2 X-160.853 Y370.435 I0 J-3
G1 Y183.093
G3 X-141.229 Y135.717 I67 J0
G3 X-93.853 Y116.093 I47.376 J47.376
G1 X86.747
G1 Z2
G1 X81.94 Y116.697
G1 Z-10.732 F796.
G1 Z-14.147
G1 X-93.853 F2388.
G2 X-140.802 Y136.144 I0 J66.396
G2 X-160.249 Y183.093 I46.949 J46.949
G1 Y374.039
G1 X-182.649
G2 X-185.649 Y377.039 I0 J3
G1 Y395.835
G2 X-182.649 Y398.835 I3 J0
G1 X175.543
G2 X178.543 Y395.835 I0 J-3
G1 Y377.039
G2 X175.543 Y374.039 I-3 J0
G1 X153.143
G1 Y183.093
G2 X133.696 Y136.144 I-66.396 J0
G2 X86.747 Y116.697 I-46.949 J46.949
G1 X81.94
G1 Z2
G1 X86.747 Y116.093
G1 Z-10.732 F796.
G1 Z-14.147
G3 X134.123 Y135.717 I0 J67 F2388.
G3 X153.747 Y183.093 I-47.376 J47.376
G1 Y370.435
G2 X156.747 Y373.435 I3 J0
G1 X239.043
G2 X242.043 Y370.435 I0 J-3
G1 Y57.438
G2 X215.647 Y31.042 I-26.396 J0
G1 X131.576
G2 X128.576 Y34.042 I0 J3
G1 Y41.488
G3 X119.972 Y50.092 I-8.604 J0
G1 X110.922
G3 X104.838 Y47.572 I0 J-8.604
G3 X102.318 Y41.488 I6.084 J-6.084
G1 Y9.033
G3 X108.963 Y-5.218 I18.604 J0
G1 X221.897 Y-99.981
G2 X242.043 Y-143.183 I-36.25 J-43.202
G1 Y-359.561
G2 X194.847 Y-406.757 I-47.196 J0
G1 X-201.953
G2 X-249.149 Y-359.561 I0 J47.196
G1 Y-143.183
G2 X-229.004 Y-99.981 I56.396 J0.001
G1 X-116.069 Y-5.218
G3 X-109.424 Y9.033 I-11.959 J14.251
G1 Y41.488
G3 X-118.028 Y50.092 I-8.604 J0
G1 X-127.078
G3 X-135.682 Y41.488 I0 J-8.604
G1 Y34.042
G2 X-138.682 Y31.042 I-3 J0
G1 X-222.753
G2 X-249.149 Y57.438 I0 J26.396
G1 Y370.435
G2 X-246.149 Y373.435 I3 J0
G1 X-163.853
G2 X-160.853 Y370.435 I0 J-3
G1 Y183.093
G3 X-141.229 Y135.717 I67 J0
G3 X-93.853 Y116.093 I47.376 J47.376
G1 X86.747
G1 Z2
G1 X81.94 Y116.697
G1 Z-12.147 F796.
G1 Z-15.562
G1 X-93.853 F2388.
G2 X-140.802 Y136.144 I0 J66.396
G2 X-160.249 Y183.093 I46.949 J46.949
G1 Y374.039
G1 X-182.649
G2 X-185.649 Y377.039 I0 J3
G1 Y395.835
G2 X-182.649 Y398.835 I3 J0
G1 X175.543
G2 X178.543 Y395.835 I0 J-3
G1 Y377.039
G2 X175.543 Y374.039 I-3 J0
G1 X153.143
G1 Y183.093
G2 X133.696 Y136.144 I-66.396 J0
G2 X86.747 Y116.697 I-46.949 J46.949
G1 X81.94
G1 Z2
G1 X86.747 Y116.093
G1 Z-12.147 F796.
G1 Z-15.562
G3 X134.123 Y135.717 I0 J67 F2388.
G3 X153.747 Y183.093 I-47.376 J47.376
G1 Y370.435
G2 X156.747 Y373.435 I3 J0
G1 X239.043
G2 X242.043 Y370.435 I0 J-3
G1 Y57.438
G2 X215.647 Y31.042 I-26.396 J0
G1 X131.576
G2 X128.576 Y34.042 I0 J3
G1 Y41.488
G3 X119.972 Y50.092 I-8.604 J0
G1 X110.922
G3 X104.838 Y47.572 I0 J-8.604
G3 X102.318 Y41.488 I6.084 J-6.084
G1 Y9.033
G3 X108.963 Y-5.218 I18.604 J0
G1 X221.897 Y-99.981
G2 X242.043 Y-143.183 I-36.25 J-43.202
G1 Y-359.561
G2 X194.847 Y-406.757 I-47.196 J0
G1 X-201.953
G2 X-249.149 Y-359.561 I0 J47.196
G1 Y-143.183
G2 X-229.004 Y-99.981 I56.396 J0.001
G1 X-116.069 Y-5.218
G3 X-109.424 Y9.033 I-11.959 J14.251
G1 Y41.488
G3 X-118.028 Y50.092 I-8.604 J0
G1 X-127.078
G3 X-135.682 Y41.488 I0 J-8.604
G1 Y34.042
G2 X-138.682 Y31.042 I-3 J0
G1 X-222.753
G2 X-249.149 Y57.438 I0 J26.396
G1 Y370.435
G2 X-246.149 Y373.435 I3 J0
G1 X-163.853
G2 X-160.853 Y370.435 I0 J-3
G1 Y183.093
G3 X-141.229 Y135.717 I67 J0
G3 X-93.853 Y116.093 I47.376 J47.376
G1 X86.747
G1 Z2
G1 X81.94 Y116.697
G1 Z-13.562 F796.
G1 Z-16.977
G1 X-93.853 F2388.
G2 X-140.802 Y136.144 I0 J66.396
G2 X-160.249 Y183.093 I46.949 J46.949
G1 Y374.039
G1 X-182.649
G2 X-185.649 Y377.039 I0 J3
G1 Y395.835
G2 X-182.649 Y398.835 I3 J0
G1 X175.543
G2 X178.543 Y395.835 I0 J-3
G1 Y377.039
G2 X175.543 Y374.039 I-3 J0
G1 X153.143
G1 Y183.093
G2 X133.696 Y136.144 I-66.396 J0
G2 X86.747 Y116.697 I-46.949 J46.949
G1 X81.94
G1 Z2
G1 X86.747 Y116.093
G1 Z-13.562 F796.
G1 Z-16.977
G3 X134.123 Y135.717 I0 J67 F2388.
G3 X153.747 Y183.093 I-47.376 J47.376
G1 Y370.435
G2 X156.747 Y373.435 I3 J0
G1 X239.043
G2 X242.043 Y370.435 I0 J-3
G1 Y57.438
G2 X215.647 Y31.042 I-26.396 J0
G1 X131.576
G2 X128.576 Y34.042 I0 J3
G1 Y41.488
G3 X119.972 Y50.092 I-8.604 J0
G1 X110.922
G3 X104.838 Y47.572 I0 J-8.604
G3 X102.318 Y41.488 I6.084 J-6.084
G1 Y9.033
G3 X108.963 Y-5.218 I18.604 J0
G1 X221.897 Y-99.981
G2 X242.043 Y-143.183 I-36.25 J-43.202
G1 Y-359.561
G2 X194.847 Y-406.757 I-47.196 J0
G1 X-201.953
G2 X-249.149 Y-359.561 I0 J47.196
G1 Y-143.183
G2 X-229.004 Y-99.981 I56.396 J0.001
G1 X-116.069 Y-5.218
G3 X-109.424 Y9.033 I-11.959 J14.251
G1 Y41.488
G3 X-118.028 Y50.092 I-8.604 J0
G1 X-127.078
G3 X-135.682 Y41.488 I0 J-8.604
G1 Y34.042
G2 X-138.682 Y31.042 I-3 J0
G1 X-222.753
G2 X-249.149 Y57.438 I0 J26.396
G1 Y370.435
G2 X-246.149 Y373.435 I3 J0
G1 X-163.853
G2 X-160.853 Y370.435 I0 J-3
G1 Y183.093
G3 X-141.229 Y135.717 I67 J0
G3 X-93.853 Y116.093 I47.376 J47.376
G1 X86.747
G1 Z2
G1 X81.94 Y116.697
G1 Z-14.977 F796.
G1 Z-17.738
G1 X0.016 F2388.
G1 Z-17
G1 X-15.984
G1 Z-17.738 F796.
G1 X-93.853 F2388.
G2 X-140.802 Y136.144 I0 J66.396
G2 X-160.249 Y183.093 I46.949 J46.949
G1 Y374.039
G1 X-182.649
G2 X-185.649 Y377.039 I0 J3
G1 Y395.835
G2 X-182.649 Y398.835 I3 J0
G1 X-70.392
G1 Z-17
G1 X-54.392
G1 Z-17.738 F796.
G1 X-54.03 F2388.
G1 Z-17
G1 X-38.03
G1 Z-17.738 F796.
G1 X175.543 F2388.
G2 X178.543 Y395.835 I0 J-3
G1 Y377.039
G2 X175.543 Y374.039 I-3 J0
G1 X153.143
G1 Y183.093
G2 X133.696 Y136.144 I-66.396 J0
G2 X86.747 Y116.697 I-46.949 J46.949
G1 X81.94
G1 Z2
G1 X86.747 Y116.093
G1 Z-14.977 F796.
G1 Z-17.738
G3 X134.123 Y135.717 I0 J67 F2388.
G3 X153.747 Y183.093 I-47.376 J47.376
G1 Y370.435
G2 X156.747 Y373.435 I3 J0
G1 X239.043
G2 X242.043 Y370.435 I0 J-3
G1 Y57.438
G2 X215.647 Y31.042 I-26.396 J0
G1 X131.576
G2 X128.576 Y34.042 I0 J3
G1 Y41.488
G3 X119.972 Y50.092 I-8.604 J0
G1 X110.922
G3 X104.838 Y47.572 I0 J-8.604
G3 X102.318 Y41.488 I6.084 J-6.084
G1 Y9.033
G3 X108.963 Y-5.218 I18.604 J0
G1 X221.897 Y-99.981
G2 X242.043 Y-143.183 I-36.25 J-43.202
G1 Y-189.488
G1 Z-17
G1 Y-205.488
G1 Z-17.738 F796.
G1 Y-359.561 F2388.
G2 X194.847 Y-406.757 I-47.196 J0
G1 X-201.953
G2 X-249.149 Y-359.561 I0 J47.196
G1 Y-185.104
G1 Z-17
G1 Y-169.104
G1 Z-17.738 F796.
G1 Y-143.183 F2388.
G2 X-229.004 Y-99.981 I56.396 J0.001
G1 X-116.069 Y-5.218
G3 X-109.424 Y9.033 I-11.959 J14.251
G1 Y41.488
G3 X-118.028 Y50.092 I-8.604 J0
G1 X-127.078
G3 X-135.682 Y41.488 I0 J-8.604
G1 Y34.042
G2 X-138.682 Y31.042 I-3 J0
G1 X-222.753
G2 X-249.149 Y57.438 I0 J26.396
G1 Y213.474
G1 Z-17
G1 Y229.474
G1 Z-17.738 F796.
G1 Y370.435 F2388.
G2 X-246.149 Y373.435 I3 J0
G1 X-163.853
G2 X-160.853 Y370.435 I0 J-3
G1 Y183.093
G3 X-141.229 Y135.717 I67 J0
G3 X-93.853 Y116.093 I47.376 J47.376
G1 X-15.984
G1 Z-17
G1 X0.016
G1 Z-17.738 F796.
G1 X86.747 F2388.
G1 Z2
G1 X81.94 Y116.697
G1 Z-15.738 F796.
G1 Z-18.5
G1 X0.016 F2388.
G1 Z-17
G1 X-15.984
G1 Z-18.5 F796.
G1 X-93.853 F2388.
G2 X-140.802 Y136.144 I0 J66.396
G2 X-160.249 Y183.093 I46.949 J46.949
G1 Y374.039
G1 X-182.649
G2 X-185.649 Y377.039 I0 J3
G1 Y395.835
G2 X-182.649 Y398.835 I3 J0
G1 X-70.392
G1 Z-17
G1 X-54.392
G1 Z-18.5 F796.
G1 X-54.03 F2388.
G1 Z-17
G1 X-38.03
G1 Z-18.5 F796.
G1 X175.543 F2388.
G2 X178.543 Y395.835 I0 J-3
G1 Y377.039
G2 X175.543 Y374.039 I-3 J0
G1 X153.143
G1 Y183.093
G2 X133.696 Y136.144 I-66.396 J0
G2 X86.747 Y116.697 I-46.949 J46.949
G1 X81.94
G1 Z2
G1 X86.747 Y116.093
G1 Z-15.738 F796.
G1 Z-18.5
G3 X134.123 Y135.717 I0 J67 F2388.
G3 X153.747 Y183.093 I-47.376 J47.376
G1 Y370.435
G2 X156.747 Y373.435 I3 J0
G1 X239.043
G2 X242.043 Y370.435 I0 J-3
G1 Y57.438
G2 X215.647 Y31.042 I-26.396 J0
G1 X131.576
G2 X128.576 Y34.042 I0 J3
G1 Y41.488
G3 X119.972 Y50.092 I-8.604 J0
G1 X110.922
G3 X104.838 Y47.572 I0 J-8.604
G3 X102.318 Y41.488 I6.084 J-6.084
G1 Y9.033
G3 X108.963 Y-5.218 I18.604 J0
G1 X221.897 Y-99.981
G2 X242.043 Y-143.183 I-36.25 J-43.202
G1 Y-189.488
G1 Z-17
G1 Y-205.488
G1 Z-18.5 F796.
G1 Y-359.561 F2388.
G2 X194.847 Y-406.757 I-47.196 J0
G1 X-201.953
G2 X-249.149 Y-359.561 I0 J47.196
G1 Y-185.104
G1 Z-17
G1 Y-169.104
G1 Z-18.5 F796.
G1 Y-143.183 F2388.
G2 X-229.004 Y-99.981 I56.396 J0.001
G1 X-116.069 Y-5.218
G3 X-109.424 Y9.033 I-11.959 J14.251
G1 Y41.488
G3 X-118.028 Y50.092 I-8.604 J0
G1 X-127.078
G3 X-135.682 Y41.488 I0 J-8.604
G1 Y34.042
G2 X-138.682 Y31.042 I-3 J0
G1 X-222.753
G2 X-249.149 Y57.438 I0 J26.396
G1 Y213.474
G1 Z-17
G1 Y229.474
G1 Z-18.5 F796.
G1 Y370.435 F2388.
G2 X-246.149 Y373.435 I3 J0
G1 X-163.853
G2 X-160.853 Y370.435 I0 J-3
G1 Y183.093
G3 X-141.229 Y135.717 I67 J0
G3 X-93.853 Y116.093 I47.376 J47.376
G1 X-15.984
G1 Z-17
G1 X0.016
G1 Z-18.5 F796.
G1 X86.747 F2388.
G1 Z5

M5
M30
